; *************************************************
; *************************************************
; ******* File generated by Extruder Turtle *******
; ******* written by Leah Buechley and  ***********
; ******* and Franklin Pezutti-Dyer ***************
; **** Hand and Machine Lab, UNM, 2021-present ****
; *************************************************
; *************************************************
; *************** Eazao initialization **************
G21	           ; Metric units
G90            ; Absolute positioning
M82            ; Absolute extrusion
M302           ; Allow cold extrusion
G28            ; Home
G1 Z15.0 F1500 ; Move down 15mm

G92 E0         ; Zero extruder
G1 F2000 E20   ; Prime Extruder: Extrude 20mm of clay
G92 E0         ; Zero extruder

; Clay mix factor
M163 S0 P0.9   ; Set Mix Factor small auger extruder
M163 S1 P0.1   ; Set Mix Factor large plunger extruder
M164 S0		   ; Finalize mix


G0 F2000 X75.0 Y88.0 Z0 ; Move to starting position
M83 					; Relative extrustion
G91                     ; Relative coordinates for X,Y,Z axes
G1 F1000
; ********** End printer initialization ***********
; *************************************************

G1 F500
; ***************** Print parameters **************
; Nozzle size: 1.5
; Extrude width: 2.25
; Layer height: 1.0
; Extrude rate: 1.0
; Speed: 1000
; Mix Factor: 0.9
; *************************************************

G1 X1.0 Y0.0 E1.0
G1 X1.0 Y0.0 E1.0
G1 X1.0 Y0.0 E1.0
G1 X1.0 Y0.0 E1.0
G1 X1.0 Y0.0 E1.0
G1 X1.0 Y0.0 E1.0
G1 X1.0 Y0.0 E1.0
G1 X1.0 Y0.0 E1.0
G1 X1.0 Y0.0 E1.0
G1 X1.0 Y0.0 E1.0
G1 X1.0 Y0.0 E1.0
G1 X1.0 Y0.0 E1.0
G1 X1.0 Y0.0 E1.0
G1 X1.0 Y0.0 E1.0
G1 X1.0 Y0.0 E1.0
G1 X1.0 Y0.0 E1.0
G1 X1.0 Y0.0 E1.0
G1 X1.0 Y0.0 E1.0
G1 X1.0 Y0.0 E1.0
G1 X1.0 Y0.0 E1.0
G1 X1.0 Y0.0 E1.0
G1 X1.0 Y0.0 E1.0
G1 X1.0 Y0.0 E1.0
G1 X1.0 Y0.0 E1.0
G1 X1.0 Y0.0 E1.0
G1 X1.0 Y0.0 E1.0
G1 X1.0 Y0.0 E1.0
G1 X1.0 Y0.0 E1.0
G1 X1.0 Y0.0 E1.0
G1 X1.0 Y0.0 E1.0
G1 X1.0 Y0.0 E1.0
G1 X1.0 Y0.0 E1.0
G1 X1.0 Y0.0 E1.0
G1 X1.0 Y0.0 E1.0
G1 X1.0 Y0.0 E1.0
G1 X1.0 Y0.0 E1.0
G1 X1.0 Y0.0 E1.0
G1 X1.0 Y0.0 E1.0
G1 X1.0 Y0.0 E1.0
G1 X1.0 Y0.0 E1.0
G1 X0.1736 Y-0.9848 E1.0
G1 X0.1736 Y-0.9848 E1.0
G1 X0.1736 Y-0.9848 E1.0
G1 X0.1736 Y-0.9848 E1.0
G1 X0.1736 Y-0.9848 E1.0
G1 X0.1736 Y-0.9848 E1.0
G1 X0.1736 Y-0.9848 E1.0
G1 X0.1736 Y-0.9848 E1.0
G1 X0.1736 Y-0.9848 E1.0
G1 X0.1736 Y-0.9848 E1.0
G1 X0.1736 Y-0.9848 E1.0
G1 X0.1736 Y-0.9848 E1.0
G1 X0.1736 Y-0.9848 E1.0
G1 X0.1736 Y-0.9848 E1.0
G1 X0.1736 Y-0.9848 E1.0
G1 X0.1736 Y-0.9848 E1.0
G1 X0.1736 Y-0.9848 E1.0
G1 X0.1736 Y-0.9848 E1.0
G1 X0.1736 Y-0.9848 E1.0
G1 X0.1736 Y-0.9848 E1.0
G1 X0.1736 Y-0.9848 E1.0
G1 X0.1736 Y-0.9848 E1.0
G1 X0.1736 Y-0.9848 E1.0
G1 X0.1736 Y-0.9848 E1.0
G1 X0.1736 Y-0.9848 E1.0
G1 X0.1736 Y-0.9848 E1.0
G1 X0.1736 Y-0.9848 E1.0
G1 X0.1736 Y-0.9848 E1.0
G1 X0.1736 Y-0.9848 E1.0
G1 X0.1736 Y-0.9848 E1.0
G1 X0.1736 Y-0.9848 E1.0
G1 X0.1736 Y-0.9848 E1.0
G1 X0.1736 Y-0.9848 E1.0
G1 X0.1736 Y-0.9848 E1.0
G1 X0.1736 Y-0.9848 E1.0
G1 X0.1736 Y-0.9848 E1.0
G1 X0.1736 Y-0.9848 E1.0
G1 X0.1736 Y-0.9848 E1.0
G1 X0.1736 Y-0.9848 E1.0
G1 X0.1736 Y-0.9848 E1.0
G1 X-0.9397 Y-0.342 E1.0
G1 X-0.9397 Y-0.342 E1.0
G1 X-0.9397 Y-0.342 E1.0
G1 X-0.9397 Y-0.342 E1.0
G1 X-0.9397 Y-0.342 E1.0
G1 X-0.9397 Y-0.342 E1.0
G1 X-0.9397 Y-0.342 E1.0
G1 X-0.9397 Y-0.342 E1.0
G1 X-0.9397 Y-0.342 E1.0
G1 X-0.9397 Y-0.342 E1.0
G1 X-0.9397 Y-0.342 E1.0
G1 X-0.9397 Y-0.342 E1.0
G1 X-0.9397 Y-0.342 E1.0
G1 X-0.9397 Y-0.342 E1.0
G1 X-0.9397 Y-0.342 E1.0
G1 X-0.9397 Y-0.342 E1.0
G1 X-0.9397 Y-0.342 E1.0
G1 X-0.9397 Y-0.342 E1.0
G1 X-0.9397 Y-0.342 E1.0
G1 X-0.9397 Y-0.342 E1.0
G1 X-0.9397 Y-0.342 E1.0
G1 X-0.9397 Y-0.342 E1.0
G1 X-0.9397 Y-0.342 E1.0
G1 X-0.9397 Y-0.342 E1.0
G1 X-0.9397 Y-0.342 E1.0
G1 X-0.9397 Y-0.342 E1.0
G1 X-0.9397 Y-0.342 E1.0
G1 X-0.9397 Y-0.342 E1.0
G1 X-0.9397 Y-0.342 E1.0
G1 X-0.9397 Y-0.342 E1.0
G1 X-0.9397 Y-0.342 E1.0
G1 X-0.9397 Y-0.342 E1.0
G1 X-0.9397 Y-0.342 E1.0
G1 X-0.9397 Y-0.342 E1.0
G1 X-0.9397 Y-0.342 E1.0
G1 X-0.9397 Y-0.342 E1.0
G1 X-0.9397 Y-0.342 E1.0
G1 X-0.9397 Y-0.342 E1.0
G1 X-0.9397 Y-0.342 E1.0
G1 X-0.9397 Y-0.342 E1.0
G1 X-0.5 Y0.866 E1.0
G1 X-0.5 Y0.866 E1.0
G1 X-0.5 Y0.866 E1.0
G1 X-0.5 Y0.866 E1.0
G1 X-0.5 Y0.866 E1.0
G1 X-0.5 Y0.866 E1.0
G1 X-0.5 Y0.866 E1.0
G1 X-0.5 Y0.866 E1.0
G1 X-0.5 Y0.866 E1.0
G1 X-0.5 Y0.866 E1.0
G1 X-0.5 Y0.866 E1.0
G1 X-0.5 Y0.866 E1.0
G1 X-0.5 Y0.866 E1.0
G1 X-0.5 Y0.866 E1.0
G1 X-0.5 Y0.866 E1.0
G1 X-0.5 Y0.866 E1.0
G1 X-0.5 Y0.866 E1.0
G1 X-0.5 Y0.866 E1.0
G1 X-0.5 Y0.866 E1.0
G1 X-0.5 Y0.866 E1.0
G1 X-0.5 Y0.866 E1.0
G1 X-0.5 Y0.866 E1.0
G1 X-0.5 Y0.866 E1.0
G1 X-0.5 Y0.866 E1.0
G1 X-0.5 Y0.866 E1.0
G1 X-0.5 Y0.866 E1.0
G1 X-0.5 Y0.866 E1.0
G1 X-0.5 Y0.866 E1.0
G1 X-0.5 Y0.866 E1.0
G1 X-0.5 Y0.866 E1.0
G1 X-0.5 Y0.866 E1.0
G1 X-0.5 Y0.866 E1.0
G1 X-0.5 Y0.866 E1.0
G1 X-0.5 Y0.866 E1.0
G1 X-0.5 Y0.866 E1.0
G1 X-0.5 Y0.866 E1.0
G1 X-0.5 Y0.866 E1.0
G1 X-0.5 Y0.866 E1.0
G1 X-0.5 Y0.866 E1.0
G1 X-0.5 Y0.866 E1.0
G1 X0.766 Y0.6428 E1.0
G1 X0.766 Y0.6428 E1.0
G1 X0.766 Y0.6428 E1.0
G1 X0.766 Y0.6428 E1.0
G1 X0.766 Y0.6428 E1.0
G1 X0.766 Y0.6428 E1.0
G1 X0.766 Y0.6428 E1.0
G1 X0.766 Y0.6428 E1.0
G1 X0.766 Y0.6428 E1.0
G1 X0.766 Y0.6428 E1.0
G1 X0.766 Y0.6428 E1.0
G1 X0.766 Y0.6428 E1.0
G1 X0.766 Y0.6428 E1.0
G1 X0.766 Y0.6428 E1.0
G1 X0.766 Y0.6428 E1.0
G1 X0.766 Y0.6428 E1.0
G1 X0.766 Y0.6428 E1.0
G1 X0.766 Y0.6428 E1.0
G1 X0.766 Y0.6428 E1.0
G1 X0.766 Y0.6428 E1.0
G1 X0.766 Y0.6428 E1.0
G1 X0.766 Y0.6428 E1.0
G1 X0.766 Y0.6428 E1.0
G1 X0.766 Y0.6428 E1.0
G1 X0.766 Y0.6428 E1.0
G1 X0.766 Y0.6428 E1.0
G1 X0.766 Y0.6428 E1.0
G1 X0.766 Y0.6428 E1.0
G1 X0.766 Y0.6428 E1.0
G1 X0.766 Y0.6428 E1.0
G1 X0.766 Y0.6428 E1.0
G1 X0.766 Y0.6428 E1.0
G1 X0.766 Y0.6428 E1.0
G1 X0.766 Y0.6428 E1.0
G1 X0.766 Y0.6428 E1.0
G1 X0.766 Y0.6428 E1.0
G1 X0.766 Y0.6428 E1.0
G1 X0.766 Y0.6428 E1.0
G1 X0.766 Y0.6428 E1.0
G1 X0.766 Y0.6428 E1.0
G1 X0.766 Y-0.6428 E1.0
G1 X0.766 Y-0.6428 E1.0
G1 X0.766 Y-0.6428 E1.0
G1 X0.766 Y-0.6428 E1.0
G1 X0.766 Y-0.6428 E1.0
G1 X0.766 Y-0.6428 E1.0
G1 X0.766 Y-0.6428 E1.0
G1 X0.766 Y-0.6428 E1.0
G1 X0.766 Y-0.6428 E1.0
G1 X0.766 Y-0.6428 E1.0
G1 X0.766 Y-0.6428 E1.0
G1 X0.766 Y-0.6428 E1.0
G1 X0.766 Y-0.6428 E1.0
G1 X0.766 Y-0.6428 E1.0
G1 X0.766 Y-0.6428 E1.0
G1 X0.766 Y-0.6428 E1.0
G1 X0.766 Y-0.6428 E1.0
G1 X0.766 Y-0.6428 E1.0
G1 X0.766 Y-0.6428 E1.0
G1 X0.766 Y-0.6428 E1.0
G1 X0.766 Y-0.6428 E1.0
G1 X0.766 Y-0.6428 E1.0
G1 X0.766 Y-0.6428 E1.0
G1 X0.766 Y-0.6428 E1.0
G1 X0.766 Y-0.6428 E1.0
G1 X0.766 Y-0.6428 E1.0
G1 X0.766 Y-0.6428 E1.0
G1 X0.766 Y-0.6428 E1.0
G1 X0.766 Y-0.6428 E1.0
G1 X0.766 Y-0.6428 E1.0
G1 X0.766 Y-0.6428 E1.0
G1 X0.766 Y-0.6428 E1.0
G1 X0.766 Y-0.6428 E1.0
G1 X0.766 Y-0.6428 E1.0
G1 X0.766 Y-0.6428 E1.0
G1 X0.766 Y-0.6428 E1.0
G1 X0.766 Y-0.6428 E1.0
G1 X0.766 Y-0.6428 E1.0
G1 X0.766 Y-0.6428 E1.0
G1 X0.766 Y-0.6428 E1.0
G1 X-0.5 Y-0.866 E1.0
G1 X-0.5 Y-0.866 E1.0
G1 X-0.5 Y-0.866 E1.0
G1 X-0.5 Y-0.866 E1.0
G1 X-0.5 Y-0.866 E1.0
G1 X-0.5 Y-0.866 E1.0
G1 X-0.5 Y-0.866 E1.0
G1 X-0.5 Y-0.866 E1.0
G1 X-0.5 Y-0.866 E1.0
G1 X-0.5 Y-0.866 E1.0
G1 X-0.5 Y-0.866 E1.0
G1 X-0.5 Y-0.866 E1.0
G1 X-0.5 Y-0.866 E1.0
G1 X-0.5 Y-0.866 E1.0
G1 X-0.5 Y-0.866 E1.0
G1 X-0.5 Y-0.866 E1.0
G1 X-0.5 Y-0.866 E1.0
G1 X-0.5 Y-0.866 E1.0
G1 X-0.5 Y-0.866 E1.0
G1 X-0.5 Y-0.866 E1.0
G1 X-0.5 Y-0.866 E1.0
G1 X-0.5 Y-0.866 E1.0
G1 X-0.5 Y-0.866 E1.0
G1 X-0.5 Y-0.866 E1.0
G1 X-0.5 Y-0.866 E1.0
G1 X-0.5 Y-0.866 E1.0
G1 X-0.5 Y-0.866 E1.0
G1 X-0.5 Y-0.866 E1.0
G1 X-0.5 Y-0.866 E1.0
G1 X-0.5 Y-0.866 E1.0
G1 X-0.5 Y-0.866 E1.0
G1 X-0.5 Y-0.866 E1.0
G1 X-0.5 Y-0.866 E1.0
G1 X-0.5 Y-0.866 E1.0
G1 X-0.5 Y-0.866 E1.0
G1 X-0.5 Y-0.866 E1.0
G1 X-0.5 Y-0.866 E1.0
G1 X-0.5 Y-0.866 E1.0
G1 X-0.5 Y-0.866 E1.0
G1 X-0.5 Y-0.866 E1.0
G1 Z0.15
G1 X-0.9397 Y0.342 Z0.008 E1.0
G1 X-0.9397 Y0.342 Z0.0076 E1.0
G1 X-0.9397 Y0.342 Z0.0072 E1.0
G1 X-0.9397 Y0.342 Z0.0068 E1.0
G1 X-0.9397 Y0.342 Z0.0064 E1.0
G1 X-0.9397 Y0.342 Z0.006 E1.0
G1 X-0.9397 Y0.342 Z0.0056 E1.0
G1 X-0.9397 Y0.342 Z0.0052 E1.0
G1 X-0.9397 Y0.342 Z0.0048 E1.0
G1 X-0.9397 Y0.342 Z0.0044 E1.0
G1 X-0.9397 Y0.342 Z0.004 E1.0
G1 X-0.9397 Y0.342 Z0.0036 E1.0
G1 X-0.9397 Y0.342 Z0.0032 E1.0
G1 X-0.9397 Y0.342 Z0.0028 E1.0
G1 X-0.9397 Y0.342 Z0.0024 E1.0
G1 X-0.9397 Y0.342 Z0.002 E1.0
G1 X-0.9397 Y0.342 Z0.0016 E1.0
G1 X-0.9397 Y0.342 Z0.0012 E1.0
G1 X-0.9397 Y0.342 Z0.0008 E1.0
G1 X-0.9397 Y0.342 Z0.0004 E1.0
G1 X-0.9397 Y0.342 E1.0
G1 X-0.9397 Y0.342 Z-0.0004 E1.0
G1 X-0.9397 Y0.342 Z-0.0008 E1.0
G1 X-0.9397 Y0.342 Z-0.0012 E1.0
G1 X-0.9397 Y0.342 Z-0.0016 E1.0
G1 X-0.9397 Y0.342 Z-0.002 E1.0
G1 X-0.9397 Y0.342 Z-0.0024 E1.0
G1 X-0.9397 Y0.342 Z-0.0028 E1.0
G1 X-0.9397 Y0.342 Z-0.0032 E1.0
G1 X-0.9397 Y0.342 Z-0.0036 E1.0
G1 X-0.9397 Y0.342 Z-0.004 E1.0
G1 X-0.9397 Y0.342 Z-0.0044 E1.0
G1 X-0.9397 Y0.342 Z-0.0048 E1.0
G1 X-0.9397 Y0.342 Z-0.0052 E1.0
G1 X-0.9397 Y0.342 Z-0.0056 E1.0
G1 X-0.9397 Y0.342 Z-0.006 E1.0
G1 X-0.9397 Y0.342 Z-0.0064 E1.0
G1 X-0.9397 Y0.342 Z-0.0068 E1.0
G1 X-0.9397 Y0.342 Z-0.0072 E1.0
G1 X-0.9397 Y0.342 Z-0.0076 E1.0
G1 X0.1736 Y0.9848 Z0.008 E1.0
G1 X0.1736 Y0.9848 Z0.0076 E1.0
G1 X0.1736 Y0.9848 Z0.0072 E1.0
G1 X0.1736 Y0.9848 Z0.0068 E1.0
G1 X0.1736 Y0.9848 Z0.0064 E1.0
G1 X0.1736 Y0.9848 Z0.006 E1.0
G1 X0.1736 Y0.9848 Z0.0056 E1.0
G1 X0.1736 Y0.9848 Z0.0052 E1.0
G1 X0.1736 Y0.9848 Z0.0048 E1.0
G1 X0.1736 Y0.9848 Z0.0044 E1.0
G1 X0.1736 Y0.9848 Z0.004 E1.0
G1 X0.1736 Y0.9848 Z0.0036 E1.0
G1 X0.1736 Y0.9848 Z0.0032 E1.0
G1 X0.1736 Y0.9848 Z0.0028 E1.0
G1 X0.1736 Y0.9848 Z0.0024 E1.0
G1 X0.1736 Y0.9848 Z0.002 E1.0
G1 X0.1736 Y0.9848 Z0.0016 E1.0
G1 X0.1736 Y0.9848 Z0.0012 E1.0
G1 X0.1736 Y0.9848 Z0.0008 E1.0
G1 X0.1736 Y0.9848 Z0.0004 E1.0
G1 X0.1736 Y0.9848 E1.0
G1 X0.1736 Y0.9848 Z-0.0004 E1.0
G1 X0.1736 Y0.9848 Z-0.0008 E1.0
G1 X0.1736 Y0.9848 Z-0.0012 E1.0
G1 X0.1736 Y0.9848 Z-0.0016 E1.0
G1 X0.1736 Y0.9848 Z-0.002 E1.0
G1 X0.1736 Y0.9848 Z-0.0024 E1.0
G1 X0.1736 Y0.9848 Z-0.0028 E1.0
G1 X0.1736 Y0.9848 Z-0.0032 E1.0
G1 X0.1736 Y0.9848 Z-0.0036 E1.0
G1 X0.1736 Y0.9848 Z-0.004 E1.0
G1 X0.1736 Y0.9848 Z-0.0044 E1.0
G1 X0.1736 Y0.9848 Z-0.0048 E1.0
G1 X0.1736 Y0.9848 Z-0.0052 E1.0
G1 X0.1736 Y0.9848 Z-0.0056 E1.0
G1 X0.1736 Y0.9848 Z-0.006 E1.0
G1 X0.1736 Y0.9848 Z-0.0064 E1.0
G1 X0.1736 Y0.9848 Z-0.0068 E1.0
G1 X0.1736 Y0.9848 Z-0.0072 E1.0
G1 X0.1736 Y0.9848 Z-0.0076 E1.0
G1 X1.0 Y0.0 Z0.008 E1.0
G1 X1.0 Y0.0 Z0.0076 E1.0
G1 X1.0 Y0.0 Z0.0072 E1.0
G1 X1.0 Y0.0 Z0.0068 E1.0
G1 X1.0 Y0.0 Z0.0064 E1.0
G1 X1.0 Y0.0 Z0.006 E1.0
G1 X1.0 Y0.0 Z0.0056 E1.0
G1 X1.0 Y0.0 Z0.0052 E1.0
G1 X1.0 Y0.0 Z0.0048 E1.0
G1 X1.0 Y0.0 Z0.0044 E1.0
G1 X1.0 Y0.0 Z0.004 E1.0
G1 X1.0 Y0.0 Z0.0036 E1.0
G1 X1.0 Y0.0 Z0.0032 E1.0
G1 X1.0 Y0.0 Z0.0028 E1.0
G1 X1.0 Y0.0 Z0.0024 E1.0
G1 X1.0 Y0.0 Z0.002 E1.0
G1 X1.0 Y0.0 Z0.0016 E1.0
G1 X1.0 Y0.0 Z0.0012 E1.0
G1 X1.0 Y0.0 Z0.0008 E1.0
G1 X1.0 Y0.0 Z0.0004 E1.0
G1 X1.0 Y0.0 E1.0
G1 X1.0 Y0.0 Z-0.0004 E1.0
G1 X1.0 Y0.0 Z-0.0008 E1.0
G1 X1.0 Y0.0 Z-0.0012 E1.0
G1 X1.0 Y0.0 Z-0.0016 E1.0
G1 X1.0 Y0.0 Z-0.002 E1.0
G1 X1.0 Y0.0 Z-0.0024 E1.0
G1 X1.0 Y0.0 Z-0.0028 E1.0
G1 X1.0 Y0.0 Z-0.0032 E1.0
G1 X1.0 Y0.0 Z-0.0036 E1.0
G1 X1.0 Y0.0 Z-0.004 E1.0
G1 X1.0 Y0.0 Z-0.0044 E1.0
G1 X1.0 Y0.0 Z-0.0048 E1.0
G1 X1.0 Y0.0 Z-0.0052 E1.0
G1 X1.0 Y0.0 Z-0.0056 E1.0
G1 X1.0 Y0.0 Z-0.006 E1.0
G1 X1.0 Y0.0 Z-0.0064 E1.0
G1 X1.0 Y0.0 Z-0.0068 E1.0
G1 X1.0 Y0.0 Z-0.0072 E1.0
G1 X1.0 Y0.0 Z-0.0076 E1.0
G1 X0.1736 Y-0.9848 Z0.008 E1.0
G1 X0.1736 Y-0.9848 Z0.0076 E1.0
G1 X0.1736 Y-0.9848 Z0.0072 E1.0
G1 X0.1736 Y-0.9848 Z0.0068 E1.0
G1 X0.1736 Y-0.9848 Z0.0064 E1.0
G1 X0.1736 Y-0.9848 Z0.006 E1.0
G1 X0.1736 Y-0.9848 Z0.0056 E1.0
G1 X0.1736 Y-0.9848 Z0.0052 E1.0
G1 X0.1736 Y-0.9848 Z0.0048 E1.0
G1 X0.1736 Y-0.9848 Z0.0044 E1.0
G1 X0.1736 Y-0.9848 Z0.004 E1.0
G1 X0.1736 Y-0.9848 Z0.0036 E1.0
G1 X0.1736 Y-0.9848 Z0.0032 E1.0
G1 X0.1736 Y-0.9848 Z0.0028 E1.0
G1 X0.1736 Y-0.9848 Z0.0024 E1.0
G1 X0.1736 Y-0.9848 Z0.002 E1.0
G1 X0.1736 Y-0.9848 Z0.0016 E1.0
G1 X0.1736 Y-0.9848 Z0.0012 E1.0
G1 X0.1736 Y-0.9848 Z0.0008 E1.0
G1 X0.1736 Y-0.9848 Z0.0004 E1.0
G1 X0.1736 Y-0.9848 E1.0
G1 X0.1736 Y-0.9848 Z-0.0004 E1.0
G1 X0.1736 Y-0.9848 Z-0.0008 E1.0
G1 X0.1736 Y-0.9848 Z-0.0012 E1.0
G1 X0.1736 Y-0.9848 Z-0.0016 E1.0
G1 X0.1736 Y-0.9848 Z-0.002 E1.0
G1 X0.1736 Y-0.9848 Z-0.0024 E1.0
G1 X0.1736 Y-0.9848 Z-0.0028 E1.0
G1 X0.1736 Y-0.9848 Z-0.0032 E1.0
G1 X0.1736 Y-0.9848 Z-0.0036 E1.0
G1 X0.1736 Y-0.9848 Z-0.004 E1.0
G1 X0.1736 Y-0.9848 Z-0.0044 E1.0
G1 X0.1736 Y-0.9848 Z-0.0048 E1.0
G1 X0.1736 Y-0.9848 Z-0.0052 E1.0
G1 X0.1736 Y-0.9848 Z-0.0056 E1.0
G1 X0.1736 Y-0.9848 Z-0.006 E1.0
G1 X0.1736 Y-0.9848 Z-0.0064 E1.0
G1 X0.1736 Y-0.9848 Z-0.0068 E1.0
G1 X0.1736 Y-0.9848 Z-0.0072 E1.0
G1 X0.1736 Y-0.9848 Z-0.0076 E1.0
G1 X-0.9397 Y-0.342 Z0.008 E1.0
G1 X-0.9397 Y-0.342 Z0.0076 E1.0
G1 X-0.9397 Y-0.342 Z0.0072 E1.0
G1 X-0.9397 Y-0.342 Z0.0068 E1.0
G1 X-0.9397 Y-0.342 Z0.0064 E1.0
G1 X-0.9397 Y-0.342 Z0.006 E1.0
G1 X-0.9397 Y-0.342 Z0.0056 E1.0
G1 X-0.9397 Y-0.342 Z0.0052 E1.0
G1 X-0.9397 Y-0.342 Z0.0048 E1.0
G1 X-0.9397 Y-0.342 Z0.0044 E1.0
G1 X-0.9397 Y-0.342 Z0.004 E1.0
G1 X-0.9397 Y-0.342 Z0.0036 E1.0
G1 X-0.9397 Y-0.342 Z0.0032 E1.0
G1 X-0.9397 Y-0.342 Z0.0028 E1.0
G1 X-0.9397 Y-0.342 Z0.0024 E1.0
G1 X-0.9397 Y-0.342 Z0.002 E1.0
G1 X-0.9397 Y-0.342 Z0.0016 E1.0
G1 X-0.9397 Y-0.342 Z0.0012 E1.0
G1 X-0.9397 Y-0.342 Z0.0008 E1.0
G1 X-0.9397 Y-0.342 Z0.0004 E1.0
G1 X-0.9397 Y-0.342 E1.0
G1 X-0.9397 Y-0.342 Z-0.0004 E1.0
G1 X-0.9397 Y-0.342 Z-0.0008 E1.0
G1 X-0.9397 Y-0.342 Z-0.0012 E1.0
G1 X-0.9397 Y-0.342 Z-0.0016 E1.0
G1 X-0.9397 Y-0.342 Z-0.002 E1.0
G1 X-0.9397 Y-0.342 Z-0.0024 E1.0
G1 X-0.9397 Y-0.342 Z-0.0028 E1.0
G1 X-0.9397 Y-0.342 Z-0.0032 E1.0
G1 X-0.9397 Y-0.342 Z-0.0036 E1.0
G1 X-0.9397 Y-0.342 Z-0.004 E1.0
G1 X-0.9397 Y-0.342 Z-0.0044 E1.0
G1 X-0.9397 Y-0.342 Z-0.0048 E1.0
G1 X-0.9397 Y-0.342 Z-0.0052 E1.0
G1 X-0.9397 Y-0.342 Z-0.0056 E1.0
G1 X-0.9397 Y-0.342 Z-0.006 E1.0
G1 X-0.9397 Y-0.342 Z-0.0064 E1.0
G1 X-0.9397 Y-0.342 Z-0.0068 E1.0
G1 X-0.9397 Y-0.342 Z-0.0072 E1.0
G1 X-0.9397 Y-0.342 Z-0.0076 E1.0
G1 X-0.5 Y0.866 Z0.008 E1.0
G1 X-0.5 Y0.866 Z0.0076 E1.0
G1 X-0.5 Y0.866 Z0.0072 E1.0
G1 X-0.5 Y0.866 Z0.0068 E1.0
G1 X-0.5 Y0.866 Z0.0064 E1.0
G1 X-0.5 Y0.866 Z0.006 E1.0
G1 X-0.5 Y0.866 Z0.0056 E1.0
G1 X-0.5 Y0.866 Z0.0052 E1.0
G1 X-0.5 Y0.866 Z0.0048 E1.0
G1 X-0.5 Y0.866 Z0.0044 E1.0
G1 X-0.5 Y0.866 Z0.004 E1.0
G1 X-0.5 Y0.866 Z0.0036 E1.0
G1 X-0.5 Y0.866 Z0.0032 E1.0
G1 X-0.5 Y0.866 Z0.0028 E1.0
G1 X-0.5 Y0.866 Z0.0024 E1.0
G1 X-0.5 Y0.866 Z0.002 E1.0
G1 X-0.5 Y0.866 Z0.0016 E1.0
G1 X-0.5 Y0.866 Z0.0012 E1.0
G1 X-0.5 Y0.866 Z0.0008 E1.0
G1 X-0.5 Y0.866 Z0.0004 E1.0
G1 X-0.5 Y0.866 E1.0
G1 X-0.5 Y0.866 Z-0.0004 E1.0
G1 X-0.5 Y0.866 Z-0.0008 E1.0
G1 X-0.5 Y0.866 Z-0.0012 E1.0
G1 X-0.5 Y0.866 Z-0.0016 E1.0
G1 X-0.5 Y0.866 Z-0.002 E1.0
G1 X-0.5 Y0.866 Z-0.0024 E1.0
G1 X-0.5 Y0.866 Z-0.0028 E1.0
G1 X-0.5 Y0.866 Z-0.0032 E1.0
G1 X-0.5 Y0.866 Z-0.0036 E1.0
G1 X-0.5 Y0.866 Z-0.004 E1.0
G1 X-0.5 Y0.866 Z-0.0044 E1.0
G1 X-0.5 Y0.866 Z-0.0048 E1.0
G1 X-0.5 Y0.866 Z-0.0052 E1.0
G1 X-0.5 Y0.866 Z-0.0056 E1.0
G1 X-0.5 Y0.866 Z-0.006 E1.0
G1 X-0.5 Y0.866 Z-0.0064 E1.0
G1 X-0.5 Y0.866 Z-0.0068 E1.0
G1 X-0.5 Y0.866 Z-0.0072 E1.0
G1 X-0.5 Y0.866 Z-0.0076 E1.0
G1 X0.766 Y0.6428 Z0.008 E1.0
G1 X0.766 Y0.6428 Z0.0076 E1.0
G1 X0.766 Y0.6428 Z0.0072 E1.0
G1 X0.766 Y0.6428 Z0.0068 E1.0
G1 X0.766 Y0.6428 Z0.0064 E1.0
G1 X0.766 Y0.6428 Z0.006 E1.0
G1 X0.766 Y0.6428 Z0.0056 E1.0
G1 X0.766 Y0.6428 Z0.0052 E1.0
G1 X0.766 Y0.6428 Z0.0048 E1.0
G1 X0.766 Y0.6428 Z0.0044 E1.0
G1 X0.766 Y0.6428 Z0.004 E1.0
G1 X0.766 Y0.6428 Z0.0036 E1.0
G1 X0.766 Y0.6428 Z0.0032 E1.0
G1 X0.766 Y0.6428 Z0.0028 E1.0
G1 X0.766 Y0.6428 Z0.0024 E1.0
G1 X0.766 Y0.6428 Z0.002 E1.0
G1 X0.766 Y0.6428 Z0.0016 E1.0
G1 X0.766 Y0.6428 Z0.0012 E1.0
G1 X0.766 Y0.6428 Z0.0008 E1.0
G1 X0.766 Y0.6428 Z0.0004 E1.0
G1 X0.766 Y0.6428 E1.0
G1 X0.766 Y0.6428 Z-0.0004 E1.0
G1 X0.766 Y0.6428 Z-0.0008 E1.0
G1 X0.766 Y0.6428 Z-0.0012 E1.0
G1 X0.766 Y0.6428 Z-0.0016 E1.0
G1 X0.766 Y0.6428 Z-0.002 E1.0
G1 X0.766 Y0.6428 Z-0.0024 E1.0
G1 X0.766 Y0.6428 Z-0.0028 E1.0
G1 X0.766 Y0.6428 Z-0.0032 E1.0
G1 X0.766 Y0.6428 Z-0.0036 E1.0
G1 X0.766 Y0.6428 Z-0.004 E1.0
G1 X0.766 Y0.6428 Z-0.0044 E1.0
G1 X0.766 Y0.6428 Z-0.0048 E1.0
G1 X0.766 Y0.6428 Z-0.0052 E1.0
G1 X0.766 Y0.6428 Z-0.0056 E1.0
G1 X0.766 Y0.6428 Z-0.006 E1.0
G1 X0.766 Y0.6428 Z-0.0064 E1.0
G1 X0.766 Y0.6428 Z-0.0068 E1.0
G1 X0.766 Y0.6428 Z-0.0072 E1.0
G1 X0.766 Y0.6428 Z-0.0076 E1.0
G1 Z0.15
G1 X0.766 Y-0.6428 Z0.016 E1.0001
G1 X0.766 Y-0.6428 Z0.0152 E1.0001
G1 X0.766 Y-0.6428 Z0.0144 E1.0001
G1 X0.766 Y-0.6428 Z0.0136 E1.0001
G1 X0.766 Y-0.6428 Z0.0128 E1.0001
G1 X0.766 Y-0.6428 Z0.012 E1.0001
G1 X0.766 Y-0.6428 Z0.0112 E1.0001
G1 X0.766 Y-0.6428 Z0.0104 E1.0001
G1 X0.766 Y-0.6428 Z0.0096 E1.0
G1 X0.766 Y-0.6428 Z0.0088 E1.0
G1 X0.766 Y-0.6428 Z0.008 E1.0
G1 X0.766 Y-0.6428 Z0.0072 E1.0
G1 X0.766 Y-0.6428 Z0.0064 E1.0
G1 X0.766 Y-0.6428 Z0.0056 E1.0
G1 X0.766 Y-0.6428 Z0.0048 E1.0
G1 X0.766 Y-0.6428 Z0.004 E1.0
G1 X0.766 Y-0.6428 Z0.0032 E1.0
G1 X0.766 Y-0.6428 Z0.0024 E1.0
G1 X0.766 Y-0.6428 Z0.0016 E1.0
G1 X0.766 Y-0.6428 Z0.0008 E1.0
G1 X0.766 Y-0.6428 E1.0
G1 X0.766 Y-0.6428 Z-0.0008 E1.0
G1 X0.766 Y-0.6428 Z-0.0016 E1.0
G1 X0.766 Y-0.6428 Z-0.0024 E1.0
G1 X0.766 Y-0.6428 Z-0.0032 E1.0
G1 X0.766 Y-0.6428 Z-0.004 E1.0
G1 X0.766 Y-0.6428 Z-0.0048 E1.0
G1 X0.766 Y-0.6428 Z-0.0056 E1.0
G1 X0.766 Y-0.6428 Z-0.0064 E1.0
G1 X0.766 Y-0.6428 Z-0.0072 E1.0
G1 X0.766 Y-0.6428 Z-0.008 E1.0
G1 X0.766 Y-0.6428 Z-0.0088 E1.0
G1 X0.766 Y-0.6428 Z-0.0096 E1.0
G1 X0.766 Y-0.6428 Z-0.0104 E1.0001
G1 X0.766 Y-0.6428 Z-0.0112 E1.0001
G1 X0.766 Y-0.6428 Z-0.012 E1.0001
G1 X0.766 Y-0.6428 Z-0.0128 E1.0001
G1 X0.766 Y-0.6428 Z-0.0136 E1.0001
G1 X0.766 Y-0.6428 Z-0.0144 E1.0001
G1 X0.766 Y-0.6428 Z-0.0152 E1.0001
G1 X-0.5 Y-0.866 Z0.016 E1.0001
G1 X-0.5 Y-0.866 Z0.0152 E1.0001
G1 X-0.5 Y-0.866 Z0.0144 E1.0001
G1 X-0.5 Y-0.866 Z0.0136 E1.0001
G1 X-0.5 Y-0.866 Z0.0128 E1.0001
G1 X-0.5 Y-0.866 Z0.012 E1.0001
G1 X-0.5 Y-0.866 Z0.0112 E1.0001
G1 X-0.5 Y-0.866 Z0.0104 E1.0001
G1 X-0.5 Y-0.866 Z0.0096 E1.0
G1 X-0.5 Y-0.866 Z0.0088 E1.0
G1 X-0.5 Y-0.866 Z0.008 E1.0
G1 X-0.5 Y-0.866 Z0.0072 E1.0
G1 X-0.5 Y-0.866 Z0.0064 E1.0
G1 X-0.5 Y-0.866 Z0.0056 E1.0
G1 X-0.5 Y-0.866 Z0.0048 E1.0
G1 X-0.5 Y-0.866 Z0.004 E1.0
G1 X-0.5 Y-0.866 Z0.0032 E1.0
G1 X-0.5 Y-0.866 Z0.0024 E1.0
G1 X-0.5 Y-0.866 Z0.0016 E1.0
G1 X-0.5 Y-0.866 Z0.0008 E1.0
G1 X-0.5 Y-0.866 E1.0
G1 X-0.5 Y-0.866 Z-0.0008 E1.0
G1 X-0.5 Y-0.866 Z-0.0016 E1.0
G1 X-0.5 Y-0.866 Z-0.0024 E1.0
G1 X-0.5 Y-0.866 Z-0.0032 E1.0
G1 X-0.5 Y-0.866 Z-0.004 E1.0
G1 X-0.5 Y-0.866 Z-0.0048 E1.0
G1 X-0.5 Y-0.866 Z-0.0056 E1.0
G1 X-0.5 Y-0.866 Z-0.0064 E1.0
G1 X-0.5 Y-0.866 Z-0.0072 E1.0
G1 X-0.5 Y-0.866 Z-0.008 E1.0
G1 X-0.5 Y-0.866 Z-0.0088 E1.0
G1 X-0.5 Y-0.866 Z-0.0096 E1.0
G1 X-0.5 Y-0.866 Z-0.0104 E1.0001
G1 X-0.5 Y-0.866 Z-0.0112 E1.0001
G1 X-0.5 Y-0.866 Z-0.012 E1.0001
G1 X-0.5 Y-0.866 Z-0.0128 E1.0001
G1 X-0.5 Y-0.866 Z-0.0136 E1.0001
G1 X-0.5 Y-0.866 Z-0.0144 E1.0001
G1 X-0.5 Y-0.866 Z-0.0152 E1.0001
G1 X-0.9397 Y0.342 Z0.016 E1.0001
G1 X-0.9397 Y0.342 Z0.0152 E1.0001
G1 X-0.9397 Y0.342 Z0.0144 E1.0001
G1 X-0.9397 Y0.342 Z0.0136 E1.0001
G1 X-0.9397 Y0.342 Z0.0128 E1.0001
G1 X-0.9397 Y0.342 Z0.012 E1.0001
G1 X-0.9397 Y0.342 Z0.0112 E1.0001
G1 X-0.9397 Y0.342 Z0.0104 E1.0001
G1 X-0.9397 Y0.342 Z0.0096 E1.0
G1 X-0.9397 Y0.342 Z0.0088 E1.0
G1 X-0.9397 Y0.342 Z0.008 E1.0
G1 X-0.9397 Y0.342 Z0.0072 E1.0
G1 X-0.9397 Y0.342 Z0.0064 E1.0
G1 X-0.9397 Y0.342 Z0.0056 E1.0
G1 X-0.9397 Y0.342 Z0.0048 E1.0
G1 X-0.9397 Y0.342 Z0.004 E1.0
G1 X-0.9397 Y0.342 Z0.0032 E1.0
G1 X-0.9397 Y0.342 Z0.0024 E1.0
G1 X-0.9397 Y0.342 Z0.0016 E1.0
G1 X-0.9397 Y0.342 Z0.0008 E1.0
G1 X-0.9397 Y0.342 E1.0
G1 X-0.9397 Y0.342 Z-0.0008 E1.0
G1 X-0.9397 Y0.342 Z-0.0016 E1.0
G1 X-0.9397 Y0.342 Z-0.0024 E1.0
G1 X-0.9397 Y0.342 Z-0.0032 E1.0
G1 X-0.9397 Y0.342 Z-0.004 E1.0
G1 X-0.9397 Y0.342 Z-0.0048 E1.0
G1 X-0.9397 Y0.342 Z-0.0056 E1.0
G1 X-0.9397 Y0.342 Z-0.0064 E1.0
G1 X-0.9397 Y0.342 Z-0.0072 E1.0
G1 X-0.9397 Y0.342 Z-0.008 E1.0
G1 X-0.9397 Y0.342 Z-0.0088 E1.0
G1 X-0.9397 Y0.342 Z-0.0096 E1.0
G1 X-0.9397 Y0.342 Z-0.0104 E1.0001
G1 X-0.9397 Y0.342 Z-0.0112 E1.0001
G1 X-0.9397 Y0.342 Z-0.012 E1.0001
G1 X-0.9397 Y0.342 Z-0.0128 E1.0001
G1 X-0.9397 Y0.342 Z-0.0136 E1.0001
G1 X-0.9397 Y0.342 Z-0.0144 E1.0001
G1 X-0.9397 Y0.342 Z-0.0152 E1.0001
G1 X0.1736 Y0.9848 Z0.016 E1.0001
G1 X0.1736 Y0.9848 Z0.0152 E1.0001
G1 X0.1736 Y0.9848 Z0.0144 E1.0001
G1 X0.1736 Y0.9848 Z0.0136 E1.0001
G1 X0.1736 Y0.9848 Z0.0128 E1.0001
G1 X0.1736 Y0.9848 Z0.012 E1.0001
G1 X0.1736 Y0.9848 Z0.0112 E1.0001
G1 X0.1736 Y0.9848 Z0.0104 E1.0001
G1 X0.1736 Y0.9848 Z0.0096 E1.0
G1 X0.1736 Y0.9848 Z0.0088 E1.0
G1 X0.1736 Y0.9848 Z0.008 E1.0
G1 X0.1736 Y0.9848 Z0.0072 E1.0
G1 X0.1736 Y0.9848 Z0.0064 E1.0
G1 X0.1736 Y0.9848 Z0.0056 E1.0
G1 X0.1736 Y0.9848 Z0.0048 E1.0
G1 X0.1736 Y0.9848 Z0.004 E1.0
G1 X0.1736 Y0.9848 Z0.0032 E1.0
G1 X0.1736 Y0.9848 Z0.0024 E1.0
G1 X0.1736 Y0.9848 Z0.0016 E1.0
G1 X0.1736 Y0.9848 Z0.0008 E1.0
G1 X0.1736 Y0.9848 E1.0
G1 X0.1736 Y0.9848 Z-0.0008 E1.0
G1 X0.1736 Y0.9848 Z-0.0016 E1.0
G1 X0.1736 Y0.9848 Z-0.0024 E1.0
G1 X0.1736 Y0.9848 Z-0.0032 E1.0
G1 X0.1736 Y0.9848 Z-0.004 E1.0
G1 X0.1736 Y0.9848 Z-0.0048 E1.0
G1 X0.1736 Y0.9848 Z-0.0056 E1.0
G1 X0.1736 Y0.9848 Z-0.0064 E1.0
G1 X0.1736 Y0.9848 Z-0.0072 E1.0
G1 X0.1736 Y0.9848 Z-0.008 E1.0
G1 X0.1736 Y0.9848 Z-0.0088 E1.0
G1 X0.1736 Y0.9848 Z-0.0096 E1.0
G1 X0.1736 Y0.9848 Z-0.0104 E1.0001
G1 X0.1736 Y0.9848 Z-0.0112 E1.0001
G1 X0.1736 Y0.9848 Z-0.012 E1.0001
G1 X0.1736 Y0.9848 Z-0.0128 E1.0001
G1 X0.1736 Y0.9848 Z-0.0136 E1.0001
G1 X0.1736 Y0.9848 Z-0.0144 E1.0001
G1 X0.1736 Y0.9848 Z-0.0152 E1.0001
G1 X1.0 Y0.0 Z0.016 E1.0001
G1 X1.0 Y0.0 Z0.0152 E1.0001
G1 X1.0 Y0.0 Z0.0144 E1.0001
G1 X1.0 Y0.0 Z0.0136 E1.0001
G1 X1.0 Y0.0 Z0.0128 E1.0001
G1 X1.0 Y0.0 Z0.012 E1.0001
G1 X1.0 Y0.0 Z0.0112 E1.0001
G1 X1.0 Y0.0 Z0.0104 E1.0001
G1 X1.0 Y0.0 Z0.0096 E1.0
G1 X1.0 Y0.0 Z0.0088 E1.0
G1 X1.0 Y0.0 Z0.008 E1.0
G1 X1.0 Y0.0 Z0.0072 E1.0
G1 X1.0 Y0.0 Z0.0064 E1.0
G1 X1.0 Y0.0 Z0.0056 E1.0
G1 X1.0 Y0.0 Z0.0048 E1.0
G1 X1.0 Y0.0 Z0.004 E1.0
G1 X1.0 Y0.0 Z0.0032 E1.0
G1 X1.0 Y0.0 Z0.0024 E1.0
G1 X1.0 Y0.0 Z0.0016 E1.0
G1 X1.0 Y0.0 Z0.0008 E1.0
G1 X1.0 Y0.0 E1.0
G1 X1.0 Y0.0 Z-0.0008 E1.0
G1 X1.0 Y0.0 Z-0.0016 E1.0
G1 X1.0 Y0.0 Z-0.0024 E1.0
G1 X1.0 Y0.0 Z-0.0032 E1.0
G1 X1.0 Y0.0 Z-0.004 E1.0
G1 X1.0 Y0.0 Z-0.0048 E1.0
G1 X1.0 Y0.0 Z-0.0056 E1.0
G1 X1.0 Y0.0 Z-0.0064 E1.0
G1 X1.0 Y0.0 Z-0.0072 E1.0
G1 X1.0 Y0.0 Z-0.008 E1.0
G1 X1.0 Y0.0 Z-0.0088 E1.0
G1 X1.0 Y0.0 Z-0.0096 E1.0
G1 X1.0 Y0.0 Z-0.0104 E1.0001
G1 X1.0 Y0.0 Z-0.0112 E1.0001
G1 X1.0 Y0.0 Z-0.012 E1.0001
G1 X1.0 Y0.0 Z-0.0128 E1.0001
G1 X1.0 Y0.0 Z-0.0136 E1.0001
G1 X1.0 Y0.0 Z-0.0144 E1.0001
G1 X1.0 Y0.0 Z-0.0152 E1.0001
G1 X0.1736 Y-0.9848 Z0.016 E1.0001
G1 X0.1736 Y-0.9848 Z0.0152 E1.0001
G1 X0.1736 Y-0.9848 Z0.0144 E1.0001
G1 X0.1736 Y-0.9848 Z0.0136 E1.0001
G1 X0.1736 Y-0.9848 Z0.0128 E1.0001
G1 X0.1736 Y-0.9848 Z0.012 E1.0001
G1 X0.1736 Y-0.9848 Z0.0112 E1.0001
G1 X0.1736 Y-0.9848 Z0.0104 E1.0001
G1 X0.1736 Y-0.9848 Z0.0096 E1.0
G1 X0.1736 Y-0.9848 Z0.0088 E1.0
G1 X0.1736 Y-0.9848 Z0.008 E1.0
G1 X0.1736 Y-0.9848 Z0.0072 E1.0
G1 X0.1736 Y-0.9848 Z0.0064 E1.0
G1 X0.1736 Y-0.9848 Z0.0056 E1.0
G1 X0.1736 Y-0.9848 Z0.0048 E1.0
G1 X0.1736 Y-0.9848 Z0.004 E1.0
G1 X0.1736 Y-0.9848 Z0.0032 E1.0
G1 X0.1736 Y-0.9848 Z0.0024 E1.0
G1 X0.1736 Y-0.9848 Z0.0016 E1.0
G1 X0.1736 Y-0.9848 Z0.0008 E1.0
G1 X0.1736 Y-0.9848 E1.0
G1 X0.1736 Y-0.9848 Z-0.0008 E1.0
G1 X0.1736 Y-0.9848 Z-0.0016 E1.0
G1 X0.1736 Y-0.9848 Z-0.0024 E1.0
G1 X0.1736 Y-0.9848 Z-0.0032 E1.0
G1 X0.1736 Y-0.9848 Z-0.004 E1.0
G1 X0.1736 Y-0.9848 Z-0.0048 E1.0
G1 X0.1736 Y-0.9848 Z-0.0056 E1.0
G1 X0.1736 Y-0.9848 Z-0.0064 E1.0
G1 X0.1736 Y-0.9848 Z-0.0072 E1.0
G1 X0.1736 Y-0.9848 Z-0.008 E1.0
G1 X0.1736 Y-0.9848 Z-0.0088 E1.0
G1 X0.1736 Y-0.9848 Z-0.0096 E1.0
G1 X0.1736 Y-0.9848 Z-0.0104 E1.0001
G1 X0.1736 Y-0.9848 Z-0.0112 E1.0001
G1 X0.1736 Y-0.9848 Z-0.012 E1.0001
G1 X0.1736 Y-0.9848 Z-0.0128 E1.0001
G1 X0.1736 Y-0.9848 Z-0.0136 E1.0001
G1 X0.1736 Y-0.9848 Z-0.0144 E1.0001
G1 X0.1736 Y-0.9848 Z-0.0152 E1.0001
G1 X-0.9397 Y-0.342 Z0.016 E1.0001
G1 X-0.9397 Y-0.342 Z0.0152 E1.0001
G1 X-0.9397 Y-0.342 Z0.0144 E1.0001
G1 X-0.9397 Y-0.342 Z0.0136 E1.0001
G1 X-0.9397 Y-0.342 Z0.0128 E1.0001
G1 X-0.9397 Y-0.342 Z0.012 E1.0001
G1 X-0.9397 Y-0.342 Z0.0112 E1.0001
G1 X-0.9397 Y-0.342 Z0.0104 E1.0001
G1 X-0.9397 Y-0.342 Z0.0096 E1.0
G1 X-0.9397 Y-0.342 Z0.0088 E1.0
G1 X-0.9397 Y-0.342 Z0.008 E1.0
G1 X-0.9397 Y-0.342 Z0.0072 E1.0
G1 X-0.9397 Y-0.342 Z0.0064 E1.0
G1 X-0.9397 Y-0.342 Z0.0056 E1.0
G1 X-0.9397 Y-0.342 Z0.0048 E1.0
G1 X-0.9397 Y-0.342 Z0.004 E1.0
G1 X-0.9397 Y-0.342 Z0.0032 E1.0
G1 X-0.9397 Y-0.342 Z0.0024 E1.0
G1 X-0.9397 Y-0.342 Z0.0016 E1.0
G1 X-0.9397 Y-0.342 Z0.0008 E1.0
G1 X-0.9397 Y-0.342 E1.0
G1 X-0.9397 Y-0.342 Z-0.0008 E1.0
G1 X-0.9397 Y-0.342 Z-0.0016 E1.0
G1 X-0.9397 Y-0.342 Z-0.0024 E1.0
G1 X-0.9397 Y-0.342 Z-0.0032 E1.0
G1 X-0.9397 Y-0.342 Z-0.004 E1.0
G1 X-0.9397 Y-0.342 Z-0.0048 E1.0
G1 X-0.9397 Y-0.342 Z-0.0056 E1.0
G1 X-0.9397 Y-0.342 Z-0.0064 E1.0
G1 X-0.9397 Y-0.342 Z-0.0072 E1.0
G1 X-0.9397 Y-0.342 Z-0.008 E1.0
G1 X-0.9397 Y-0.342 Z-0.0088 E1.0
G1 X-0.9397 Y-0.342 Z-0.0096 E1.0
G1 X-0.9397 Y-0.342 Z-0.0104 E1.0001
G1 X-0.9397 Y-0.342 Z-0.0112 E1.0001
G1 X-0.9397 Y-0.342 Z-0.012 E1.0001
G1 X-0.9397 Y-0.342 Z-0.0128 E1.0001
G1 X-0.9397 Y-0.342 Z-0.0136 E1.0001
G1 X-0.9397 Y-0.342 Z-0.0144 E1.0001
G1 X-0.9397 Y-0.342 Z-0.0152 E1.0001
G1 Z0.15
G1 X-0.5 Y0.866 Z0.024 E1.0003
G1 X-0.5 Y0.866 Z0.0228 E1.0003
G1 X-0.5 Y0.866 Z0.0216 E1.0002
G1 X-0.5 Y0.866 Z0.0204 E1.0002
G1 X-0.5 Y0.866 Z0.0192 E1.0002
G1 X-0.5 Y0.866 Z0.018 E1.0002
G1 X-0.5 Y0.866 Z0.0168 E1.0001
G1 X-0.5 Y0.866 Z0.0156 E1.0001
G1 X-0.5 Y0.866 Z0.0144 E1.0001
G1 X-0.5 Y0.866 Z0.0132 E1.0001
G1 X-0.5 Y0.866 Z0.012 E1.0001
G1 X-0.5 Y0.866 Z0.0108 E1.0001
G1 X-0.5 Y0.866 Z0.0096 E1.0
G1 X-0.5 Y0.866 Z0.0084 E1.0
G1 X-0.5 Y0.866 Z0.0072 E1.0
G1 X-0.5 Y0.866 Z0.006 E1.0
G1 X-0.5 Y0.866 Z0.0048 E1.0
G1 X-0.5 Y0.866 Z0.0036 E1.0
G1 X-0.5 Y0.866 Z0.0024 E1.0
G1 X-0.5 Y0.866 Z0.0012 E1.0
G1 X-0.5 Y0.866 E1.0
G1 X-0.5 Y0.866 Z-0.0012 E1.0
G1 X-0.5 Y0.866 Z-0.0024 E1.0
G1 X-0.5 Y0.866 Z-0.0036 E1.0
G1 X-0.5 Y0.866 Z-0.0048 E1.0
G1 X-0.5 Y0.866 Z-0.006 E1.0
G1 X-0.5 Y0.866 Z-0.0072 E1.0
G1 X-0.5 Y0.866 Z-0.0084 E1.0
G1 X-0.5 Y0.866 Z-0.0096 E1.0
G1 X-0.5 Y0.866 Z-0.0108 E1.0001
G1 X-0.5 Y0.866 Z-0.012 E1.0001
G1 X-0.5 Y0.866 Z-0.0132 E1.0001
G1 X-0.5 Y0.866 Z-0.0144 E1.0001
G1 X-0.5 Y0.866 Z-0.0156 E1.0001
G1 X-0.5 Y0.866 Z-0.0168 E1.0001
G1 X-0.5 Y0.866 Z-0.018 E1.0002
G1 X-0.5 Y0.866 Z-0.0192 E1.0002
G1 X-0.5 Y0.866 Z-0.0204 E1.0002
G1 X-0.5 Y0.866 Z-0.0216 E1.0002
G1 X-0.5 Y0.866 Z-0.0228 E1.0003
G1 X0.766 Y0.6428 Z0.024 E1.0003
G1 X0.766 Y0.6428 Z0.0228 E1.0003
G1 X0.766 Y0.6428 Z0.0216 E1.0002
G1 X0.766 Y0.6428 Z0.0204 E1.0002
G1 X0.766 Y0.6428 Z0.0192 E1.0002
G1 X0.766 Y0.6428 Z0.018 E1.0002
G1 X0.766 Y0.6428 Z0.0168 E1.0001
G1 X0.766 Y0.6428 Z0.0156 E1.0001
G1 X0.766 Y0.6428 Z0.0144 E1.0001
G1 X0.766 Y0.6428 Z0.0132 E1.0001
G1 X0.766 Y0.6428 Z0.012 E1.0001
G1 X0.766 Y0.6428 Z0.0108 E1.0001
G1 X0.766 Y0.6428 Z0.0096 E1.0
G1 X0.766 Y0.6428 Z0.0084 E1.0
G1 X0.766 Y0.6428 Z0.0072 E1.0
G1 X0.766 Y0.6428 Z0.006 E1.0
G1 X0.766 Y0.6428 Z0.0048 E1.0
G1 X0.766 Y0.6428 Z0.0036 E1.0
G1 X0.766 Y0.6428 Z0.0024 E1.0
G1 X0.766 Y0.6428 Z0.0012 E1.0
G1 X0.766 Y0.6428 E1.0
G1 X0.766 Y0.6428 Z-0.0012 E1.0
G1 X0.766 Y0.6428 Z-0.0024 E1.0
G1 X0.766 Y0.6428 Z-0.0036 E1.0
G1 X0.766 Y0.6428 Z-0.0048 E1.0
G1 X0.766 Y0.6428 Z-0.006 E1.0
G1 X0.766 Y0.6428 Z-0.0072 E1.0
G1 X0.766 Y0.6428 Z-0.0084 E1.0
G1 X0.766 Y0.6428 Z-0.0096 E1.0
G1 X0.766 Y0.6428 Z-0.0108 E1.0001
G1 X0.766 Y0.6428 Z-0.012 E1.0001
G1 X0.766 Y0.6428 Z-0.0132 E1.0001
G1 X0.766 Y0.6428 Z-0.0144 E1.0001
G1 X0.766 Y0.6428 Z-0.0156 E1.0001
G1 X0.766 Y0.6428 Z-0.0168 E1.0001
G1 X0.766 Y0.6428 Z-0.018 E1.0002
G1 X0.766 Y0.6428 Z-0.0192 E1.0002
G1 X0.766 Y0.6428 Z-0.0204 E1.0002
G1 X0.766 Y0.6428 Z-0.0216 E1.0002
G1 X0.766 Y0.6428 Z-0.0228 E1.0003
G1 X0.766 Y-0.6428 Z0.024 E1.0003
G1 X0.766 Y-0.6428 Z0.0228 E1.0003
G1 X0.766 Y-0.6428 Z0.0216 E1.0002
G1 X0.766 Y-0.6428 Z0.0204 E1.0002
G1 X0.766 Y-0.6428 Z0.0192 E1.0002
G1 X0.766 Y-0.6428 Z0.018 E1.0002
G1 X0.766 Y-0.6428 Z0.0168 E1.0001
G1 X0.766 Y-0.6428 Z0.0156 E1.0001
G1 X0.766 Y-0.6428 Z0.0144 E1.0001
G1 X0.766 Y-0.6428 Z0.0132 E1.0001
G1 X0.766 Y-0.6428 Z0.012 E1.0001
G1 X0.766 Y-0.6428 Z0.0108 E1.0001
G1 X0.766 Y-0.6428 Z0.0096 E1.0
G1 X0.766 Y-0.6428 Z0.0084 E1.0
G1 X0.766 Y-0.6428 Z0.0072 E1.0
G1 X0.766 Y-0.6428 Z0.006 E1.0
G1 X0.766 Y-0.6428 Z0.0048 E1.0
G1 X0.766 Y-0.6428 Z0.0036 E1.0
G1 X0.766 Y-0.6428 Z0.0024 E1.0
G1 X0.766 Y-0.6428 Z0.0012 E1.0
G1 X0.766 Y-0.6428 E1.0
G1 X0.766 Y-0.6428 Z-0.0012 E1.0
G1 X0.766 Y-0.6428 Z-0.0024 E1.0
G1 X0.766 Y-0.6428 Z-0.0036 E1.0
G1 X0.766 Y-0.6428 Z-0.0048 E1.0
G1 X0.766 Y-0.6428 Z-0.006 E1.0
G1 X0.766 Y-0.6428 Z-0.0072 E1.0
G1 X0.766 Y-0.6428 Z-0.0084 E1.0
G1 X0.766 Y-0.6428 Z-0.0096 E1.0
G1 X0.766 Y-0.6428 Z-0.0108 E1.0001
G1 X0.766 Y-0.6428 Z-0.012 E1.0001
G1 X0.766 Y-0.6428 Z-0.0132 E1.0001
G1 X0.766 Y-0.6428 Z-0.0144 E1.0001
G1 X0.766 Y-0.6428 Z-0.0156 E1.0001
G1 X0.766 Y-0.6428 Z-0.0168 E1.0001
G1 X0.766 Y-0.6428 Z-0.018 E1.0002
G1 X0.766 Y-0.6428 Z-0.0192 E1.0002
G1 X0.766 Y-0.6428 Z-0.0204 E1.0002
G1 X0.766 Y-0.6428 Z-0.0216 E1.0002
G1 X0.766 Y-0.6428 Z-0.0228 E1.0003
G1 X-0.5 Y-0.866 Z0.024 E1.0003
G1 X-0.5 Y-0.866 Z0.0228 E1.0003
G1 X-0.5 Y-0.866 Z0.0216 E1.0002
G1 X-0.5 Y-0.866 Z0.0204 E1.0002
G1 X-0.5 Y-0.866 Z0.0192 E1.0002
G1 X-0.5 Y-0.866 Z0.018 E1.0002
G1 X-0.5 Y-0.866 Z0.0168 E1.0001
G1 X-0.5 Y-0.866 Z0.0156 E1.0001
G1 X-0.5 Y-0.866 Z0.0144 E1.0001
G1 X-0.5 Y-0.866 Z0.0132 E1.0001
G1 X-0.5 Y-0.866 Z0.012 E1.0001
G1 X-0.5 Y-0.866 Z0.0108 E1.0001
G1 X-0.5 Y-0.866 Z0.0096 E1.0
G1 X-0.5 Y-0.866 Z0.0084 E1.0
G1 X-0.5 Y-0.866 Z0.0072 E1.0
G1 X-0.5 Y-0.866 Z0.006 E1.0
G1 X-0.5 Y-0.866 Z0.0048 E1.0
G1 X-0.5 Y-0.866 Z0.0036 E1.0
G1 X-0.5 Y-0.866 Z0.0024 E1.0
G1 X-0.5 Y-0.866 Z0.0012 E1.0
G1 X-0.5 Y-0.866 E1.0
G1 X-0.5 Y-0.866 Z-0.0012 E1.0
G1 X-0.5 Y-0.866 Z-0.0024 E1.0
G1 X-0.5 Y-0.866 Z-0.0036 E1.0
G1 X-0.5 Y-0.866 Z-0.0048 E1.0
G1 X-0.5 Y-0.866 Z-0.006 E1.0
G1 X-0.5 Y-0.866 Z-0.0072 E1.0
G1 X-0.5 Y-0.866 Z-0.0084 E1.0
G1 X-0.5 Y-0.866 Z-0.0096 E1.0
G1 X-0.5 Y-0.866 Z-0.0108 E1.0001
G1 X-0.5 Y-0.866 Z-0.012 E1.0001
G1 X-0.5 Y-0.866 Z-0.0132 E1.0001
G1 X-0.5 Y-0.866 Z-0.0144 E1.0001
G1 X-0.5 Y-0.866 Z-0.0156 E1.0001
G1 X-0.5 Y-0.866 Z-0.0168 E1.0001
G1 X-0.5 Y-0.866 Z-0.018 E1.0002
G1 X-0.5 Y-0.866 Z-0.0192 E1.0002
G1 X-0.5 Y-0.866 Z-0.0204 E1.0002
G1 X-0.5 Y-0.866 Z-0.0216 E1.0002
G1 X-0.5 Y-0.866 Z-0.0228 E1.0003
G1 X-0.9397 Y0.342 Z0.024 E1.0003
G1 X-0.9397 Y0.342 Z0.0228 E1.0003
G1 X-0.9397 Y0.342 Z0.0216 E1.0002
G1 X-0.9397 Y0.342 Z0.0204 E1.0002
G1 X-0.9397 Y0.342 Z0.0192 E1.0002
G1 X-0.9397 Y0.342 Z0.018 E1.0002
G1 X-0.9397 Y0.342 Z0.0168 E1.0001
G1 X-0.9397 Y0.342 Z0.0156 E1.0001
G1 X-0.9397 Y0.342 Z0.0144 E1.0001
G1 X-0.9397 Y0.342 Z0.0132 E1.0001
G1 X-0.9397 Y0.342 Z0.012 E1.0001
G1 X-0.9397 Y0.342 Z0.0108 E1.0001
G1 X-0.9397 Y0.342 Z0.0096 E1.0
G1 X-0.9397 Y0.342 Z0.0084 E1.0
G1 X-0.9397 Y0.342 Z0.0072 E1.0
G1 X-0.9397 Y0.342 Z0.006 E1.0
G1 X-0.9397 Y0.342 Z0.0048 E1.0
G1 X-0.9397 Y0.342 Z0.0036 E1.0
G1 X-0.9397 Y0.342 Z0.0024 E1.0
G1 X-0.9397 Y0.342 Z0.0012 E1.0
G1 X-0.9397 Y0.342 E1.0
G1 X-0.9397 Y0.342 Z-0.0012 E1.0
G1 X-0.9397 Y0.342 Z-0.0024 E1.0
G1 X-0.9397 Y0.342 Z-0.0036 E1.0
G1 X-0.9397 Y0.342 Z-0.0048 E1.0
G1 X-0.9397 Y0.342 Z-0.006 E1.0
G1 X-0.9397 Y0.342 Z-0.0072 E1.0
G1 X-0.9397 Y0.342 Z-0.0084 E1.0
G1 X-0.9397 Y0.342 Z-0.0096 E1.0
G1 X-0.9397 Y0.342 Z-0.0108 E1.0001
G1 X-0.9397 Y0.342 Z-0.012 E1.0001
G1 X-0.9397 Y0.342 Z-0.0132 E1.0001
G1 X-0.9397 Y0.342 Z-0.0144 E1.0001
G1 X-0.9397 Y0.342 Z-0.0156 E1.0001
G1 X-0.9397 Y0.342 Z-0.0168 E1.0001
G1 X-0.9397 Y0.342 Z-0.018 E1.0002
G1 X-0.9397 Y0.342 Z-0.0192 E1.0002
G1 X-0.9397 Y0.342 Z-0.0204 E1.0002
G1 X-0.9397 Y0.342 Z-0.0216 E1.0002
G1 X-0.9397 Y0.342 Z-0.0228 E1.0003
G1 X0.1736 Y0.9848 Z0.024 E1.0003
G1 X0.1736 Y0.9848 Z0.0228 E1.0003
G1 X0.1736 Y0.9848 Z0.0216 E1.0002
G1 X0.1736 Y0.9848 Z0.0204 E1.0002
G1 X0.1736 Y0.9848 Z0.0192 E1.0002
G1 X0.1736 Y0.9848 Z0.018 E1.0002
G1 X0.1736 Y0.9848 Z0.0168 E1.0001
G1 X0.1736 Y0.9848 Z0.0156 E1.0001
G1 X0.1736 Y0.9848 Z0.0144 E1.0001
G1 X0.1736 Y0.9848 Z0.0132 E1.0001
G1 X0.1736 Y0.9848 Z0.012 E1.0001
G1 X0.1736 Y0.9848 Z0.0108 E1.0001
G1 X0.1736 Y0.9848 Z0.0096 E1.0
G1 X0.1736 Y0.9848 Z0.0084 E1.0
G1 X0.1736 Y0.9848 Z0.0072 E1.0
G1 X0.1736 Y0.9848 Z0.006 E1.0
G1 X0.1736 Y0.9848 Z0.0048 E1.0
G1 X0.1736 Y0.9848 Z0.0036 E1.0
G1 X0.1736 Y0.9848 Z0.0024 E1.0
G1 X0.1736 Y0.9848 Z0.0012 E1.0
G1 X0.1736 Y0.9848 E1.0
G1 X0.1736 Y0.9848 Z-0.0012 E1.0
G1 X0.1736 Y0.9848 Z-0.0024 E1.0
G1 X0.1736 Y0.9848 Z-0.0036 E1.0
G1 X0.1736 Y0.9848 Z-0.0048 E1.0
G1 X0.1736 Y0.9848 Z-0.006 E1.0
G1 X0.1736 Y0.9848 Z-0.0072 E1.0
G1 X0.1736 Y0.9848 Z-0.0084 E1.0
G1 X0.1736 Y0.9848 Z-0.0096 E1.0
G1 X0.1736 Y0.9848 Z-0.0108 E1.0001
G1 X0.1736 Y0.9848 Z-0.012 E1.0001
G1 X0.1736 Y0.9848 Z-0.0132 E1.0001
G1 X0.1736 Y0.9848 Z-0.0144 E1.0001
G1 X0.1736 Y0.9848 Z-0.0156 E1.0001
G1 X0.1736 Y0.9848 Z-0.0168 E1.0001
G1 X0.1736 Y0.9848 Z-0.018 E1.0002
G1 X0.1736 Y0.9848 Z-0.0192 E1.0002
G1 X0.1736 Y0.9848 Z-0.0204 E1.0002
G1 X0.1736 Y0.9848 Z-0.0216 E1.0002
G1 X0.1736 Y0.9848 Z-0.0228 E1.0003
G1 X1.0 Y0.0 Z0.024 E1.0003
G1 X1.0 Y0.0 Z0.0228 E1.0003
G1 X1.0 Y0.0 Z0.0216 E1.0002
G1 X1.0 Y0.0 Z0.0204 E1.0002
G1 X1.0 Y0.0 Z0.0192 E1.0002
G1 X1.0 Y0.0 Z0.018 E1.0002
G1 X1.0 Y0.0 Z0.0168 E1.0001
G1 X1.0 Y0.0 Z0.0156 E1.0001
G1 X1.0 Y0.0 Z0.0144 E1.0001
G1 X1.0 Y0.0 Z0.0132 E1.0001
G1 X1.0 Y0.0 Z0.012 E1.0001
G1 X1.0 Y0.0 Z0.0108 E1.0001
G1 X1.0 Y0.0 Z0.0096 E1.0
G1 X1.0 Y0.0 Z0.0084 E1.0
G1 X1.0 Y0.0 Z0.0072 E1.0
G1 X1.0 Y0.0 Z0.006 E1.0
G1 X1.0 Y0.0 Z0.0048 E1.0
G1 X1.0 Y0.0 Z0.0036 E1.0
G1 X1.0 Y0.0 Z0.0024 E1.0
G1 X1.0 Y0.0 Z0.0012 E1.0
G1 X1.0 Y0.0 E1.0
G1 X1.0 Y0.0 Z-0.0012 E1.0
G1 X1.0 Y0.0 Z-0.0024 E1.0
G1 X1.0 Y0.0 Z-0.0036 E1.0
G1 X1.0 Y0.0 Z-0.0048 E1.0
G1 X1.0 Y0.0 Z-0.006 E1.0
G1 X1.0 Y0.0 Z-0.0072 E1.0
G1 X1.0 Y0.0 Z-0.0084 E1.0
G1 X1.0 Y0.0 Z-0.0096 E1.0
G1 X1.0 Y0.0 Z-0.0108 E1.0001
G1 X1.0 Y0.0 Z-0.012 E1.0001
G1 X1.0 Y0.0 Z-0.0132 E1.0001
G1 X1.0 Y0.0 Z-0.0144 E1.0001
G1 X1.0 Y0.0 Z-0.0156 E1.0001
G1 X1.0 Y0.0 Z-0.0168 E1.0001
G1 X1.0 Y0.0 Z-0.018 E1.0002
G1 X1.0 Y0.0 Z-0.0192 E1.0002
G1 X1.0 Y0.0 Z-0.0204 E1.0002
G1 X1.0 Y0.0 Z-0.0216 E1.0002
G1 X1.0 Y0.0 Z-0.0228 E1.0003
G1 Z0.15
G1 X0.1736 Y-0.9848 Z0.032 E1.0005
G1 X0.1736 Y-0.9848 Z0.0304 E1.0005
G1 X0.1736 Y-0.9848 Z0.0288 E1.0004
G1 X0.1736 Y-0.9848 Z0.0272 E1.0004
G1 X0.1736 Y-0.9848 Z0.0256 E1.0003
G1 X0.1736 Y-0.9848 Z0.024 E1.0003
G1 X0.1736 Y-0.9848 Z0.0224 E1.0003
G1 X0.1736 Y-0.9848 Z0.0208 E1.0002
G1 X0.1736 Y-0.9848 Z0.0192 E1.0002
G1 X0.1736 Y-0.9848 Z0.0176 E1.0002
G1 X0.1736 Y-0.9848 Z0.016 E1.0001
G1 X0.1736 Y-0.9848 Z0.0144 E1.0001
G1 X0.1736 Y-0.9848 Z0.0128 E1.0001
G1 X0.1736 Y-0.9848 Z0.0112 E1.0001
G1 X0.1736 Y-0.9848 Z0.0096 E1.0
G1 X0.1736 Y-0.9848 Z0.008 E1.0
G1 X0.1736 Y-0.9848 Z0.0064 E1.0
G1 X0.1736 Y-0.9848 Z0.0048 E1.0
G1 X0.1736 Y-0.9848 Z0.0032 E1.0
G1 X0.1736 Y-0.9848 Z0.0016 E1.0
G1 X0.1736 Y-0.9848 E1.0
G1 X0.1736 Y-0.9848 Z-0.0016 E1.0
G1 X0.1736 Y-0.9848 Z-0.0032 E1.0
G1 X0.1736 Y-0.9848 Z-0.0048 E1.0
G1 X0.1736 Y-0.9848 Z-0.0064 E1.0
G1 X0.1736 Y-0.9848 Z-0.008 E1.0
G1 X0.1736 Y-0.9848 Z-0.0096 E1.0
G1 X0.1736 Y-0.9848 Z-0.0112 E1.0001
G1 X0.1736 Y-0.9848 Z-0.0128 E1.0001
G1 X0.1736 Y-0.9848 Z-0.0144 E1.0001
G1 X0.1736 Y-0.9848 Z-0.016 E1.0001
G1 X0.1736 Y-0.9848 Z-0.0176 E1.0002
G1 X0.1736 Y-0.9848 Z-0.0192 E1.0002
G1 X0.1736 Y-0.9848 Z-0.0208 E1.0002
G1 X0.1736 Y-0.9848 Z-0.0224 E1.0003
G1 X0.1736 Y-0.9848 Z-0.024 E1.0003
G1 X0.1736 Y-0.9848 Z-0.0256 E1.0003
G1 X0.1736 Y-0.9848 Z-0.0272 E1.0004
G1 X0.1736 Y-0.9848 Z-0.0288 E1.0004
G1 X0.1736 Y-0.9848 Z-0.0304 E1.0005
G1 X-0.9397 Y-0.342 Z0.032 E1.0005
G1 X-0.9397 Y-0.342 Z0.0304 E1.0005
G1 X-0.9397 Y-0.342 Z0.0288 E1.0004
G1 X-0.9397 Y-0.342 Z0.0272 E1.0004
G1 X-0.9397 Y-0.342 Z0.0256 E1.0003
G1 X-0.9397 Y-0.342 Z0.024 E1.0003
G1 X-0.9397 Y-0.342 Z0.0224 E1.0003
G1 X-0.9397 Y-0.342 Z0.0208 E1.0002
G1 X-0.9397 Y-0.342 Z0.0192 E1.0002
G1 X-0.9397 Y-0.342 Z0.0176 E1.0002
G1 X-0.9397 Y-0.342 Z0.016 E1.0001
G1 X-0.9397 Y-0.342 Z0.0144 E1.0001
G1 X-0.9397 Y-0.342 Z0.0128 E1.0001
G1 X-0.9397 Y-0.342 Z0.0112 E1.0001
G1 X-0.9397 Y-0.342 Z0.0096 E1.0
G1 X-0.9397 Y-0.342 Z0.008 E1.0
G1 X-0.9397 Y-0.342 Z0.0064 E1.0
G1 X-0.9397 Y-0.342 Z0.0048 E1.0
G1 X-0.9397 Y-0.342 Z0.0032 E1.0
G1 X-0.9397 Y-0.342 Z0.0016 E1.0
G1 X-0.9397 Y-0.342 E1.0
G1 X-0.9397 Y-0.342 Z-0.0016 E1.0
G1 X-0.9397 Y-0.342 Z-0.0032 E1.0
G1 X-0.9397 Y-0.342 Z-0.0048 E1.0
G1 X-0.9397 Y-0.342 Z-0.0064 E1.0
G1 X-0.9397 Y-0.342 Z-0.008 E1.0
G1 X-0.9397 Y-0.342 Z-0.0096 E1.0
G1 X-0.9397 Y-0.342 Z-0.0112 E1.0001
G1 X-0.9397 Y-0.342 Z-0.0128 E1.0001
G1 X-0.9397 Y-0.342 Z-0.0144 E1.0001
G1 X-0.9397 Y-0.342 Z-0.016 E1.0001
G1 X-0.9397 Y-0.342 Z-0.0176 E1.0002
G1 X-0.9397 Y-0.342 Z-0.0192 E1.0002
G1 X-0.9397 Y-0.342 Z-0.0208 E1.0002
G1 X-0.9397 Y-0.342 Z-0.0224 E1.0003
G1 X-0.9397 Y-0.342 Z-0.024 E1.0003
G1 X-0.9397 Y-0.342 Z-0.0256 E1.0003
G1 X-0.9397 Y-0.342 Z-0.0272 E1.0004
G1 X-0.9397 Y-0.342 Z-0.0288 E1.0004
G1 X-0.9397 Y-0.342 Z-0.0304 E1.0005
G1 X-0.5 Y0.866 Z0.032 E1.0005
G1 X-0.5 Y0.866 Z0.0304 E1.0005
G1 X-0.5 Y0.866 Z0.0288 E1.0004
G1 X-0.5 Y0.866 Z0.0272 E1.0004
G1 X-0.5 Y0.866 Z0.0256 E1.0003
G1 X-0.5 Y0.866 Z0.024 E1.0003
G1 X-0.5 Y0.866 Z0.0224 E1.0003
G1 X-0.5 Y0.866 Z0.0208 E1.0002
G1 X-0.5 Y0.866 Z0.0192 E1.0002
G1 X-0.5 Y0.866 Z0.0176 E1.0002
G1 X-0.5 Y0.866 Z0.016 E1.0001
G1 X-0.5 Y0.866 Z0.0144 E1.0001
G1 X-0.5 Y0.866 Z0.0128 E1.0001
G1 X-0.5 Y0.866 Z0.0112 E1.0001
G1 X-0.5 Y0.866 Z0.0096 E1.0
G1 X-0.5 Y0.866 Z0.008 E1.0
G1 X-0.5 Y0.866 Z0.0064 E1.0
G1 X-0.5 Y0.866 Z0.0048 E1.0
G1 X-0.5 Y0.866 Z0.0032 E1.0
G1 X-0.5 Y0.866 Z0.0016 E1.0
G1 X-0.5 Y0.866 E1.0
G1 X-0.5 Y0.866 Z-0.0016 E1.0
G1 X-0.5 Y0.866 Z-0.0032 E1.0
G1 X-0.5 Y0.866 Z-0.0048 E1.0
G1 X-0.5 Y0.866 Z-0.0064 E1.0
G1 X-0.5 Y0.866 Z-0.008 E1.0
G1 X-0.5 Y0.866 Z-0.0096 E1.0
G1 X-0.5 Y0.866 Z-0.0112 E1.0001
G1 X-0.5 Y0.866 Z-0.0128 E1.0001
G1 X-0.5 Y0.866 Z-0.0144 E1.0001
G1 X-0.5 Y0.866 Z-0.016 E1.0001
G1 X-0.5 Y0.866 Z-0.0176 E1.0002
G1 X-0.5 Y0.866 Z-0.0192 E1.0002
G1 X-0.5 Y0.866 Z-0.0208 E1.0002
G1 X-0.5 Y0.866 Z-0.0224 E1.0003
G1 X-0.5 Y0.866 Z-0.024 E1.0003
G1 X-0.5 Y0.866 Z-0.0256 E1.0003
G1 X-0.5 Y0.866 Z-0.0272 E1.0004
G1 X-0.5 Y0.866 Z-0.0288 E1.0004
G1 X-0.5 Y0.866 Z-0.0304 E1.0005
G1 X0.766 Y0.6428 Z0.032 E1.0005
G1 X0.766 Y0.6428 Z0.0304 E1.0005
G1 X0.766 Y0.6428 Z0.0288 E1.0004
G1 X0.766 Y0.6428 Z0.0272 E1.0004
G1 X0.766 Y0.6428 Z0.0256 E1.0003
G1 X0.766 Y0.6428 Z0.024 E1.0003
G1 X0.766 Y0.6428 Z0.0224 E1.0003
G1 X0.766 Y0.6428 Z0.0208 E1.0002
G1 X0.766 Y0.6428 Z0.0192 E1.0002
G1 X0.766 Y0.6428 Z0.0176 E1.0002
G1 X0.766 Y0.6428 Z0.016 E1.0001
G1 X0.766 Y0.6428 Z0.0144 E1.0001
G1 X0.766 Y0.6428 Z0.0128 E1.0001
G1 X0.766 Y0.6428 Z0.0112 E1.0001
G1 X0.766 Y0.6428 Z0.0096 E1.0
G1 X0.766 Y0.6428 Z0.008 E1.0
G1 X0.766 Y0.6428 Z0.0064 E1.0
G1 X0.766 Y0.6428 Z0.0048 E1.0
G1 X0.766 Y0.6428 Z0.0032 E1.0
G1 X0.766 Y0.6428 Z0.0016 E1.0
G1 X0.766 Y0.6428 E1.0
G1 X0.766 Y0.6428 Z-0.0016 E1.0
G1 X0.766 Y0.6428 Z-0.0032 E1.0
G1 X0.766 Y0.6428 Z-0.0048 E1.0
G1 X0.766 Y0.6428 Z-0.0064 E1.0
G1 X0.766 Y0.6428 Z-0.008 E1.0
G1 X0.766 Y0.6428 Z-0.0096 E1.0
G1 X0.766 Y0.6428 Z-0.0112 E1.0001
G1 X0.766 Y0.6428 Z-0.0128 E1.0001
G1 X0.766 Y0.6428 Z-0.0144 E1.0001
G1 X0.766 Y0.6428 Z-0.016 E1.0001
G1 X0.766 Y0.6428 Z-0.0176 E1.0002
G1 X0.766 Y0.6428 Z-0.0192 E1.0002
G1 X0.766 Y0.6428 Z-0.0208 E1.0002
G1 X0.766 Y0.6428 Z-0.0224 E1.0003
G1 X0.766 Y0.6428 Z-0.024 E1.0003
G1 X0.766 Y0.6428 Z-0.0256 E1.0003
G1 X0.766 Y0.6428 Z-0.0272 E1.0004
G1 X0.766 Y0.6428 Z-0.0288 E1.0004
G1 X0.766 Y0.6428 Z-0.0304 E1.0005
G1 X0.766 Y-0.6428 Z0.032 E1.0005
G1 X0.766 Y-0.6428 Z0.0304 E1.0005
G1 X0.766 Y-0.6428 Z0.0288 E1.0004
G1 X0.766 Y-0.6428 Z0.0272 E1.0004
G1 X0.766 Y-0.6428 Z0.0256 E1.0003
G1 X0.766 Y-0.6428 Z0.024 E1.0003
G1 X0.766 Y-0.6428 Z0.0224 E1.0003
G1 X0.766 Y-0.6428 Z0.0208 E1.0002
G1 X0.766 Y-0.6428 Z0.0192 E1.0002
G1 X0.766 Y-0.6428 Z0.0176 E1.0002
G1 X0.766 Y-0.6428 Z0.016 E1.0001
G1 X0.766 Y-0.6428 Z0.0144 E1.0001
G1 X0.766 Y-0.6428 Z0.0128 E1.0001
G1 X0.766 Y-0.6428 Z0.0112 E1.0001
G1 X0.766 Y-0.6428 Z0.0096 E1.0
G1 X0.766 Y-0.6428 Z0.008 E1.0
G1 X0.766 Y-0.6428 Z0.0064 E1.0
G1 X0.766 Y-0.6428 Z0.0048 E1.0
G1 X0.766 Y-0.6428 Z0.0032 E1.0
G1 X0.766 Y-0.6428 Z0.0016 E1.0
G1 X0.766 Y-0.6428 E1.0
G1 X0.766 Y-0.6428 Z-0.0016 E1.0
G1 X0.766 Y-0.6428 Z-0.0032 E1.0
G1 X0.766 Y-0.6428 Z-0.0048 E1.0
G1 X0.766 Y-0.6428 Z-0.0064 E1.0
G1 X0.766 Y-0.6428 Z-0.008 E1.0
G1 X0.766 Y-0.6428 Z-0.0096 E1.0
G1 X0.766 Y-0.6428 Z-0.0112 E1.0001
G1 X0.766 Y-0.6428 Z-0.0128 E1.0001
G1 X0.766 Y-0.6428 Z-0.0144 E1.0001
G1 X0.766 Y-0.6428 Z-0.016 E1.0001
G1 X0.766 Y-0.6428 Z-0.0176 E1.0002
G1 X0.766 Y-0.6428 Z-0.0192 E1.0002
G1 X0.766 Y-0.6428 Z-0.0208 E1.0002
G1 X0.766 Y-0.6428 Z-0.0224 E1.0003
G1 X0.766 Y-0.6428 Z-0.024 E1.0003
G1 X0.766 Y-0.6428 Z-0.0256 E1.0003
G1 X0.766 Y-0.6428 Z-0.0272 E1.0004
G1 X0.766 Y-0.6428 Z-0.0288 E1.0004
G1 X0.766 Y-0.6428 Z-0.0304 E1.0005
G1 X-0.5 Y-0.866 Z0.032 E1.0005
G1 X-0.5 Y-0.866 Z0.0304 E1.0005
G1 X-0.5 Y-0.866 Z0.0288 E1.0004
G1 X-0.5 Y-0.866 Z0.0272 E1.0004
G1 X-0.5 Y-0.866 Z0.0256 E1.0003
G1 X-0.5 Y-0.866 Z0.024 E1.0003
G1 X-0.5 Y-0.866 Z0.0224 E1.0003
G1 X-0.5 Y-0.866 Z0.0208 E1.0002
G1 X-0.5 Y-0.866 Z0.0192 E1.0002
G1 X-0.5 Y-0.866 Z0.0176 E1.0002
G1 X-0.5 Y-0.866 Z0.016 E1.0001
G1 X-0.5 Y-0.866 Z0.0144 E1.0001
G1 X-0.5 Y-0.866 Z0.0128 E1.0001
G1 X-0.5 Y-0.866 Z0.0112 E1.0001
G1 X-0.5 Y-0.866 Z0.0096 E1.0
G1 X-0.5 Y-0.866 Z0.008 E1.0
G1 X-0.5 Y-0.866 Z0.0064 E1.0
G1 X-0.5 Y-0.866 Z0.0048 E1.0
G1 X-0.5 Y-0.866 Z0.0032 E1.0
G1 X-0.5 Y-0.866 Z0.0016 E1.0
G1 X-0.5 Y-0.866 E1.0
G1 X-0.5 Y-0.866 Z-0.0016 E1.0
G1 X-0.5 Y-0.866 Z-0.0032 E1.0
G1 X-0.5 Y-0.866 Z-0.0048 E1.0
G1 X-0.5 Y-0.866 Z-0.0064 E1.0
G1 X-0.5 Y-0.866 Z-0.008 E1.0
G1 X-0.5 Y-0.866 Z-0.0096 E1.0
G1 X-0.5 Y-0.866 Z-0.0112 E1.0001
G1 X-0.5 Y-0.866 Z-0.0128 E1.0001
G1 X-0.5 Y-0.866 Z-0.0144 E1.0001
G1 X-0.5 Y-0.866 Z-0.016 E1.0001
G1 X-0.5 Y-0.866 Z-0.0176 E1.0002
G1 X-0.5 Y-0.866 Z-0.0192 E1.0002
G1 X-0.5 Y-0.866 Z-0.0208 E1.0002
G1 X-0.5 Y-0.866 Z-0.0224 E1.0003
G1 X-0.5 Y-0.866 Z-0.024 E1.0003
G1 X-0.5 Y-0.866 Z-0.0256 E1.0003
G1 X-0.5 Y-0.866 Z-0.0272 E1.0004
G1 X-0.5 Y-0.866 Z-0.0288 E1.0004
G1 X-0.5 Y-0.866 Z-0.0304 E1.0005
G1 X-0.9397 Y0.342 Z0.032 E1.0005
G1 X-0.9397 Y0.342 Z0.0304 E1.0005
G1 X-0.9397 Y0.342 Z0.0288 E1.0004
G1 X-0.9397 Y0.342 Z0.0272 E1.0004
G1 X-0.9397 Y0.342 Z0.0256 E1.0003
G1 X-0.9397 Y0.342 Z0.024 E1.0003
G1 X-0.9397 Y0.342 Z0.0224 E1.0003
G1 X-0.9397 Y0.342 Z0.0208 E1.0002
G1 X-0.9397 Y0.342 Z0.0192 E1.0002
G1 X-0.9397 Y0.342 Z0.0176 E1.0002
G1 X-0.9397 Y0.342 Z0.016 E1.0001
G1 X-0.9397 Y0.342 Z0.0144 E1.0001
G1 X-0.9397 Y0.342 Z0.0128 E1.0001
G1 X-0.9397 Y0.342 Z0.0112 E1.0001
G1 X-0.9397 Y0.342 Z0.0096 E1.0
G1 X-0.9397 Y0.342 Z0.008 E1.0
G1 X-0.9397 Y0.342 Z0.0064 E1.0
G1 X-0.9397 Y0.342 Z0.0048 E1.0
G1 X-0.9397 Y0.342 Z0.0032 E1.0
G1 X-0.9397 Y0.342 Z0.0016 E1.0
G1 X-0.9397 Y0.342 E1.0
G1 X-0.9397 Y0.342 Z-0.0016 E1.0
G1 X-0.9397 Y0.342 Z-0.0032 E1.0
G1 X-0.9397 Y0.342 Z-0.0048 E1.0
G1 X-0.9397 Y0.342 Z-0.0064 E1.0
G1 X-0.9397 Y0.342 Z-0.008 E1.0
G1 X-0.9397 Y0.342 Z-0.0096 E1.0
G1 X-0.9397 Y0.342 Z-0.0112 E1.0001
G1 X-0.9397 Y0.342 Z-0.0128 E1.0001
G1 X-0.9397 Y0.342 Z-0.0144 E1.0001
G1 X-0.9397 Y0.342 Z-0.016 E1.0001
G1 X-0.9397 Y0.342 Z-0.0176 E1.0002
G1 X-0.9397 Y0.342 Z-0.0192 E1.0002
G1 X-0.9397 Y0.342 Z-0.0208 E1.0002
G1 X-0.9397 Y0.342 Z-0.0224 E1.0003
G1 X-0.9397 Y0.342 Z-0.024 E1.0003
G1 X-0.9397 Y0.342 Z-0.0256 E1.0003
G1 X-0.9397 Y0.342 Z-0.0272 E1.0004
G1 X-0.9397 Y0.342 Z-0.0288 E1.0004
G1 X-0.9397 Y0.342 Z-0.0304 E1.0005
G1 Z0.15
G1 X0.1736 Y0.9848 Z0.04 E1.0008
G1 X0.1736 Y0.9848 Z0.038 E1.0007
G1 X0.1736 Y0.9848 Z0.036 E1.0006
G1 X0.1736 Y0.9848 Z0.034 E1.0006
G1 X0.1736 Y0.9848 Z0.032 E1.0005
G1 X0.1736 Y0.9848 Z0.03 E1.0004
G1 X0.1736 Y0.9848 Z0.028 E1.0004
G1 X0.1736 Y0.9848 Z0.026 E1.0003
G1 X0.1736 Y0.9848 Z0.024 E1.0003
G1 X0.1736 Y0.9848 Z0.022 E1.0002
G1 X0.1736 Y0.9848 Z0.02 E1.0002
G1 X0.1736 Y0.9848 Z0.018 E1.0002
G1 X0.1736 Y0.9848 Z0.016 E1.0001
G1 X0.1736 Y0.9848 Z0.014 E1.0001
G1 X0.1736 Y0.9848 Z0.012 E1.0001
G1 X0.1736 Y0.9848 Z0.01 E1.0
G1 X0.1736 Y0.9848 Z0.008 E1.0
G1 X0.1736 Y0.9848 Z0.006 E1.0
G1 X0.1736 Y0.9848 Z0.004 E1.0
G1 X0.1736 Y0.9848 Z0.002 E1.0
G1 X0.1736 Y0.9848 E1.0
G1 X0.1736 Y0.9848 Z-0.002 E1.0
G1 X0.1736 Y0.9848 Z-0.004 E1.0
G1 X0.1736 Y0.9848 Z-0.006 E1.0
G1 X0.1736 Y0.9848 Z-0.008 E1.0
G1 X0.1736 Y0.9848 Z-0.01 E1.0
G1 X0.1736 Y0.9848 Z-0.012 E1.0001
G1 X0.1736 Y0.9848 Z-0.014 E1.0001
G1 X0.1736 Y0.9848 Z-0.016 E1.0001
G1 X0.1736 Y0.9848 Z-0.018 E1.0002
G1 X0.1736 Y0.9848 Z-0.02 E1.0002
G1 X0.1736 Y0.9848 Z-0.022 E1.0002
G1 X0.1736 Y0.9848 Z-0.024 E1.0003
G1 X0.1736 Y0.9848 Z-0.026 E1.0003
G1 X0.1736 Y0.9848 Z-0.028 E1.0004
G1 X0.1736 Y0.9848 Z-0.03 E1.0004
G1 X0.1736 Y0.9848 Z-0.032 E1.0005
G1 X0.1736 Y0.9848 Z-0.034 E1.0006
G1 X0.1736 Y0.9848 Z-0.036 E1.0006
G1 X0.1736 Y0.9848 Z-0.038 E1.0007
G1 X1.0 Y0.0 Z0.04 E1.0008
G1 X1.0 Y0.0 Z0.038 E1.0007
G1 X1.0 Y0.0 Z0.036 E1.0006
G1 X1.0 Y0.0 Z0.034 E1.0006
G1 X1.0 Y0.0 Z0.032 E1.0005
G1 X1.0 Y0.0 Z0.03 E1.0004
G1 X1.0 Y0.0 Z0.028 E1.0004
G1 X1.0 Y0.0 Z0.026 E1.0003
G1 X1.0 Y0.0 Z0.024 E1.0003
G1 X1.0 Y0.0 Z0.022 E1.0002
G1 X1.0 Y0.0 Z0.02 E1.0002
G1 X1.0 Y0.0 Z0.018 E1.0002
G1 X1.0 Y0.0 Z0.016 E1.0001
G1 X1.0 Y0.0 Z0.014 E1.0001
G1 X1.0 Y0.0 Z0.012 E1.0001
G1 X1.0 Y0.0 Z0.01 E1.0
G1 X1.0 Y0.0 Z0.008 E1.0
G1 X1.0 Y0.0 Z0.006 E1.0
G1 X1.0 Y0.0 Z0.004 E1.0
G1 X1.0 Y0.0 Z0.002 E1.0
G1 X1.0 Y0.0 E1.0
G1 X1.0 Y0.0 Z-0.002 E1.0
G1 X1.0 Y0.0 Z-0.004 E1.0
G1 X1.0 Y0.0 Z-0.006 E1.0
G1 X1.0 Y0.0 Z-0.008 E1.0
G1 X1.0 Y0.0 Z-0.01 E1.0
G1 X1.0 Y0.0 Z-0.012 E1.0001
G1 X1.0 Y0.0 Z-0.014 E1.0001
G1 X1.0 Y0.0 Z-0.016 E1.0001
G1 X1.0 Y0.0 Z-0.018 E1.0002
G1 X1.0 Y0.0 Z-0.02 E1.0002
G1 X1.0 Y0.0 Z-0.022 E1.0002
G1 X1.0 Y0.0 Z-0.024 E1.0003
G1 X1.0 Y0.0 Z-0.026 E1.0003
G1 X1.0 Y0.0 Z-0.028 E1.0004
G1 X1.0 Y0.0 Z-0.03 E1.0004
G1 X1.0 Y0.0 Z-0.032 E1.0005
G1 X1.0 Y0.0 Z-0.034 E1.0006
G1 X1.0 Y0.0 Z-0.036 E1.0006
G1 X1.0 Y0.0 Z-0.038 E1.0007
G1 X0.1736 Y-0.9848 Z0.04 E1.0008
G1 X0.1736 Y-0.9848 Z0.038 E1.0007
G1 X0.1736 Y-0.9848 Z0.036 E1.0006
G1 X0.1736 Y-0.9848 Z0.034 E1.0006
G1 X0.1736 Y-0.9848 Z0.032 E1.0005
G1 X0.1736 Y-0.9848 Z0.03 E1.0004
G1 X0.1736 Y-0.9848 Z0.028 E1.0004
G1 X0.1736 Y-0.9848 Z0.026 E1.0003
G1 X0.1736 Y-0.9848 Z0.024 E1.0003
G1 X0.1736 Y-0.9848 Z0.022 E1.0002
G1 X0.1736 Y-0.9848 Z0.02 E1.0002
G1 X0.1736 Y-0.9848 Z0.018 E1.0002
G1 X0.1736 Y-0.9848 Z0.016 E1.0001
G1 X0.1736 Y-0.9848 Z0.014 E1.0001
G1 X0.1736 Y-0.9848 Z0.012 E1.0001
G1 X0.1736 Y-0.9848 Z0.01 E1.0
G1 X0.1736 Y-0.9848 Z0.008 E1.0
G1 X0.1736 Y-0.9848 Z0.006 E1.0
G1 X0.1736 Y-0.9848 Z0.004 E1.0
G1 X0.1736 Y-0.9848 Z0.002 E1.0
G1 X0.1736 Y-0.9848 E1.0
G1 X0.1736 Y-0.9848 Z-0.002 E1.0
G1 X0.1736 Y-0.9848 Z-0.004 E1.0
G1 X0.1736 Y-0.9848 Z-0.006 E1.0
G1 X0.1736 Y-0.9848 Z-0.008 E1.0
G1 X0.1736 Y-0.9848 Z-0.01 E1.0
G1 X0.1736 Y-0.9848 Z-0.012 E1.0001
G1 X0.1736 Y-0.9848 Z-0.014 E1.0001
G1 X0.1736 Y-0.9848 Z-0.016 E1.0001
G1 X0.1736 Y-0.9848 Z-0.018 E1.0002
G1 X0.1736 Y-0.9848 Z-0.02 E1.0002
G1 X0.1736 Y-0.9848 Z-0.022 E1.0002
G1 X0.1736 Y-0.9848 Z-0.024 E1.0003
G1 X0.1736 Y-0.9848 Z-0.026 E1.0003
G1 X0.1736 Y-0.9848 Z-0.028 E1.0004
G1 X0.1736 Y-0.9848 Z-0.03 E1.0004
G1 X0.1736 Y-0.9848 Z-0.032 E1.0005
G1 X0.1736 Y-0.9848 Z-0.034 E1.0006
G1 X0.1736 Y-0.9848 Z-0.036 E1.0006
G1 X0.1736 Y-0.9848 Z-0.038 E1.0007
G1 X-0.9397 Y-0.342 Z0.04 E1.0008
G1 X-0.9397 Y-0.342 Z0.038 E1.0007
G1 X-0.9397 Y-0.342 Z0.036 E1.0006
G1 X-0.9397 Y-0.342 Z0.034 E1.0006
G1 X-0.9397 Y-0.342 Z0.032 E1.0005
G1 X-0.9397 Y-0.342 Z0.03 E1.0004
G1 X-0.9397 Y-0.342 Z0.028 E1.0004
G1 X-0.9397 Y-0.342 Z0.026 E1.0003
G1 X-0.9397 Y-0.342 Z0.024 E1.0003
G1 X-0.9397 Y-0.342 Z0.022 E1.0002
G1 X-0.9397 Y-0.342 Z0.02 E1.0002
G1 X-0.9397 Y-0.342 Z0.018 E1.0002
G1 X-0.9397 Y-0.342 Z0.016 E1.0001
G1 X-0.9397 Y-0.342 Z0.014 E1.0001
G1 X-0.9397 Y-0.342 Z0.012 E1.0001
G1 X-0.9397 Y-0.342 Z0.01 E1.0
G1 X-0.9397 Y-0.342 Z0.008 E1.0
G1 X-0.9397 Y-0.342 Z0.006 E1.0
G1 X-0.9397 Y-0.342 Z0.004 E1.0
G1 X-0.9397 Y-0.342 Z0.002 E1.0
G1 X-0.9397 Y-0.342 E1.0
G1 X-0.9397 Y-0.342 Z-0.002 E1.0
G1 X-0.9397 Y-0.342 Z-0.004 E1.0
G1 X-0.9397 Y-0.342 Z-0.006 E1.0
G1 X-0.9397 Y-0.342 Z-0.008 E1.0
G1 X-0.9397 Y-0.342 Z-0.01 E1.0
G1 X-0.9397 Y-0.342 Z-0.012 E1.0001
G1 X-0.9397 Y-0.342 Z-0.014 E1.0001
G1 X-0.9397 Y-0.342 Z-0.016 E1.0001
G1 X-0.9397 Y-0.342 Z-0.018 E1.0002
G1 X-0.9397 Y-0.342 Z-0.02 E1.0002
G1 X-0.9397 Y-0.342 Z-0.022 E1.0002
G1 X-0.9397 Y-0.342 Z-0.024 E1.0003
G1 X-0.9397 Y-0.342 Z-0.026 E1.0003
G1 X-0.9397 Y-0.342 Z-0.028 E1.0004
G1 X-0.9397 Y-0.342 Z-0.03 E1.0004
G1 X-0.9397 Y-0.342 Z-0.032 E1.0005
G1 X-0.9397 Y-0.342 Z-0.034 E1.0006
G1 X-0.9397 Y-0.342 Z-0.036 E1.0006
G1 X-0.9397 Y-0.342 Z-0.038 E1.0007
G1 X-0.5 Y0.866 Z0.04 E1.0008
G1 X-0.5 Y0.866 Z0.038 E1.0007
G1 X-0.5 Y0.866 Z0.036 E1.0006
G1 X-0.5 Y0.866 Z0.034 E1.0006
G1 X-0.5 Y0.866 Z0.032 E1.0005
G1 X-0.5 Y0.866 Z0.03 E1.0004
G1 X-0.5 Y0.866 Z0.028 E1.0004
G1 X-0.5 Y0.866 Z0.026 E1.0003
G1 X-0.5 Y0.866 Z0.024 E1.0003
G1 X-0.5 Y0.866 Z0.022 E1.0002
G1 X-0.5 Y0.866 Z0.02 E1.0002
G1 X-0.5 Y0.866 Z0.018 E1.0002
G1 X-0.5 Y0.866 Z0.016 E1.0001
G1 X-0.5 Y0.866 Z0.014 E1.0001
G1 X-0.5 Y0.866 Z0.012 E1.0001
G1 X-0.5 Y0.866 Z0.01 E1.0
G1 X-0.5 Y0.866 Z0.008 E1.0
G1 X-0.5 Y0.866 Z0.006 E1.0
G1 X-0.5 Y0.866 Z0.004 E1.0
G1 X-0.5 Y0.866 Z0.002 E1.0
G1 X-0.5 Y0.866 E1.0
G1 X-0.5 Y0.866 Z-0.002 E1.0
G1 X-0.5 Y0.866 Z-0.004 E1.0
G1 X-0.5 Y0.866 Z-0.006 E1.0
G1 X-0.5 Y0.866 Z-0.008 E1.0
G1 X-0.5 Y0.866 Z-0.01 E1.0
G1 X-0.5 Y0.866 Z-0.012 E1.0001
G1 X-0.5 Y0.866 Z-0.014 E1.0001
G1 X-0.5 Y0.866 Z-0.016 E1.0001
G1 X-0.5 Y0.866 Z-0.018 E1.0002
G1 X-0.5 Y0.866 Z-0.02 E1.0002
G1 X-0.5 Y0.866 Z-0.022 E1.0002
G1 X-0.5 Y0.866 Z-0.024 E1.0003
G1 X-0.5 Y0.866 Z-0.026 E1.0003
G1 X-0.5 Y0.866 Z-0.028 E1.0004
G1 X-0.5 Y0.866 Z-0.03 E1.0004
G1 X-0.5 Y0.866 Z-0.032 E1.0005
G1 X-0.5 Y0.866 Z-0.034 E1.0006
G1 X-0.5 Y0.866 Z-0.036 E1.0006
G1 X-0.5 Y0.866 Z-0.038 E1.0007
G1 X0.766 Y0.6428 Z0.04 E1.0008
G1 X0.766 Y0.6428 Z0.038 E1.0007
G1 X0.766 Y0.6428 Z0.036 E1.0006
G1 X0.766 Y0.6428 Z0.034 E1.0006
G1 X0.766 Y0.6428 Z0.032 E1.0005
G1 X0.766 Y0.6428 Z0.03 E1.0004
G1 X0.766 Y0.6428 Z0.028 E1.0004
G1 X0.766 Y0.6428 Z0.026 E1.0003
G1 X0.766 Y0.6428 Z0.024 E1.0003
G1 X0.766 Y0.6428 Z0.022 E1.0002
G1 X0.766 Y0.6428 Z0.02 E1.0002
G1 X0.766 Y0.6428 Z0.018 E1.0002
G1 X0.766 Y0.6428 Z0.016 E1.0001
G1 X0.766 Y0.6428 Z0.014 E1.0001
G1 X0.766 Y0.6428 Z0.012 E1.0001
G1 X0.766 Y0.6428 Z0.01 E1.0
G1 X0.766 Y0.6428 Z0.008 E1.0
G1 X0.766 Y0.6428 Z0.006 E1.0
G1 X0.766 Y0.6428 Z0.004 E1.0
G1 X0.766 Y0.6428 Z0.002 E1.0
G1 X0.766 Y0.6428 E1.0
G1 X0.766 Y0.6428 Z-0.002 E1.0
G1 X0.766 Y0.6428 Z-0.004 E1.0
G1 X0.766 Y0.6428 Z-0.006 E1.0
G1 X0.766 Y0.6428 Z-0.008 E1.0
G1 X0.766 Y0.6428 Z-0.01 E1.0
G1 X0.766 Y0.6428 Z-0.012 E1.0001
G1 X0.766 Y0.6428 Z-0.014 E1.0001
G1 X0.766 Y0.6428 Z-0.016 E1.0001
G1 X0.766 Y0.6428 Z-0.018 E1.0002
G1 X0.766 Y0.6428 Z-0.02 E1.0002
G1 X0.766 Y0.6428 Z-0.022 E1.0002
G1 X0.766 Y0.6428 Z-0.024 E1.0003
G1 X0.766 Y0.6428 Z-0.026 E1.0003
G1 X0.766 Y0.6428 Z-0.028 E1.0004
G1 X0.766 Y0.6428 Z-0.03 E1.0004
G1 X0.766 Y0.6428 Z-0.032 E1.0005
G1 X0.766 Y0.6428 Z-0.034 E1.0006
G1 X0.766 Y0.6428 Z-0.036 E1.0006
G1 X0.766 Y0.6428 Z-0.038 E1.0007
G1 X0.766 Y-0.6428 Z0.04 E1.0008
G1 X0.766 Y-0.6428 Z0.038 E1.0007
G1 X0.766 Y-0.6428 Z0.036 E1.0006
G1 X0.766 Y-0.6428 Z0.034 E1.0006
G1 X0.766 Y-0.6428 Z0.032 E1.0005
G1 X0.766 Y-0.6428 Z0.03 E1.0004
G1 X0.766 Y-0.6428 Z0.028 E1.0004
G1 X0.766 Y-0.6428 Z0.026 E1.0003
G1 X0.766 Y-0.6428 Z0.024 E1.0003
G1 X0.766 Y-0.6428 Z0.022 E1.0002
G1 X0.766 Y-0.6428 Z0.02 E1.0002
G1 X0.766 Y-0.6428 Z0.018 E1.0002
G1 X0.766 Y-0.6428 Z0.016 E1.0001
G1 X0.766 Y-0.6428 Z0.014 E1.0001
G1 X0.766 Y-0.6428 Z0.012 E1.0001
G1 X0.766 Y-0.6428 Z0.01 E1.0
G1 X0.766 Y-0.6428 Z0.008 E1.0
G1 X0.766 Y-0.6428 Z0.006 E1.0
G1 X0.766 Y-0.6428 Z0.004 E1.0
G1 X0.766 Y-0.6428 Z0.002 E1.0
G1 X0.766 Y-0.6428 E1.0
G1 X0.766 Y-0.6428 Z-0.002 E1.0
G1 X0.766 Y-0.6428 Z-0.004 E1.0
G1 X0.766 Y-0.6428 Z-0.006 E1.0
G1 X0.766 Y-0.6428 Z-0.008 E1.0
G1 X0.766 Y-0.6428 Z-0.01 E1.0
G1 X0.766 Y-0.6428 Z-0.012 E1.0001
G1 X0.766 Y-0.6428 Z-0.014 E1.0001
G1 X0.766 Y-0.6428 Z-0.016 E1.0001
G1 X0.766 Y-0.6428 Z-0.018 E1.0002
G1 X0.766 Y-0.6428 Z-0.02 E1.0002
G1 X0.766 Y-0.6428 Z-0.022 E1.0002
G1 X0.766 Y-0.6428 Z-0.024 E1.0003
G1 X0.766 Y-0.6428 Z-0.026 E1.0003
G1 X0.766 Y-0.6428 Z-0.028 E1.0004
G1 X0.766 Y-0.6428 Z-0.03 E1.0004
G1 X0.766 Y-0.6428 Z-0.032 E1.0005
G1 X0.766 Y-0.6428 Z-0.034 E1.0006
G1 X0.766 Y-0.6428 Z-0.036 E1.0006
G1 X0.766 Y-0.6428 Z-0.038 E1.0007
G1 Z0.15
G1 X-0.5 Y-0.866 Z0.048 E1.0012
G1 X-0.5 Y-0.866 Z0.0456 E1.001
G1 X-0.5 Y-0.866 Z0.0432 E1.0009
G1 X-0.5 Y-0.866 Z0.0408 E1.0008
G1 X-0.5 Y-0.866 Z0.0384 E1.0007
G1 X-0.5 Y-0.866 Z0.036 E1.0006
G1 X-0.5 Y-0.866 Z0.0336 E1.0006
G1 X-0.5 Y-0.866 Z0.0312 E1.0005
G1 X-0.5 Y-0.866 Z0.0288 E1.0004
G1 X-0.5 Y-0.866 Z0.0264 E1.0003
G1 X-0.5 Y-0.866 Z0.024 E1.0003
G1 X-0.5 Y-0.866 Z0.0216 E1.0002
G1 X-0.5 Y-0.866 Z0.0192 E1.0002
G1 X-0.5 Y-0.866 Z0.0168 E1.0001
G1 X-0.5 Y-0.866 Z0.0144 E1.0001
G1 X-0.5 Y-0.866 Z0.012 E1.0001
G1 X-0.5 Y-0.866 Z0.0096 E1.0
G1 X-0.5 Y-0.866 Z0.0072 E1.0
G1 X-0.5 Y-0.866 Z0.0048 E1.0
G1 X-0.5 Y-0.866 Z0.0024 E1.0
G1 X-0.5 Y-0.866 E1.0
G1 X-0.5 Y-0.866 Z-0.0024 E1.0
G1 X-0.5 Y-0.866 Z-0.0048 E1.0
G1 X-0.5 Y-0.866 Z-0.0072 E1.0
G1 X-0.5 Y-0.866 Z-0.0096 E1.0
G1 X-0.5 Y-0.866 Z-0.012 E1.0001
G1 X-0.5 Y-0.866 Z-0.0144 E1.0001
G1 X-0.5 Y-0.866 Z-0.0168 E1.0001
G1 X-0.5 Y-0.866 Z-0.0192 E1.0002
G1 X-0.5 Y-0.866 Z-0.0216 E1.0002
G1 X-0.5 Y-0.866 Z-0.024 E1.0003
G1 X-0.5 Y-0.866 Z-0.0264 E1.0003
G1 X-0.5 Y-0.866 Z-0.0288 E1.0004
G1 X-0.5 Y-0.866 Z-0.0312 E1.0005
G1 X-0.5 Y-0.866 Z-0.0336 E1.0006
G1 X-0.5 Y-0.866 Z-0.036 E1.0006
G1 X-0.5 Y-0.866 Z-0.0384 E1.0007
G1 X-0.5 Y-0.866 Z-0.0408 E1.0008
G1 X-0.5 Y-0.866 Z-0.0432 E1.0009
G1 X-0.5 Y-0.866 Z-0.0456 E1.001
G1 X-0.9397 Y0.342 Z0.048 E1.0012
G1 X-0.9397 Y0.342 Z0.0456 E1.001
G1 X-0.9397 Y0.342 Z0.0432 E1.0009
G1 X-0.9397 Y0.342 Z0.0408 E1.0008
G1 X-0.9397 Y0.342 Z0.0384 E1.0007
G1 X-0.9397 Y0.342 Z0.036 E1.0006
G1 X-0.9397 Y0.342 Z0.0336 E1.0006
G1 X-0.9397 Y0.342 Z0.0312 E1.0005
G1 X-0.9397 Y0.342 Z0.0288 E1.0004
G1 X-0.9397 Y0.342 Z0.0264 E1.0003
G1 X-0.9397 Y0.342 Z0.024 E1.0003
G1 X-0.9397 Y0.342 Z0.0216 E1.0002
G1 X-0.9397 Y0.342 Z0.0192 E1.0002
G1 X-0.9397 Y0.342 Z0.0168 E1.0001
G1 X-0.9397 Y0.342 Z0.0144 E1.0001
G1 X-0.9397 Y0.342 Z0.012 E1.0001
G1 X-0.9397 Y0.342 Z0.0096 E1.0
G1 X-0.9397 Y0.342 Z0.0072 E1.0
G1 X-0.9397 Y0.342 Z0.0048 E1.0
G1 X-0.9397 Y0.342 Z0.0024 E1.0
G1 X-0.9397 Y0.342 E1.0
G1 X-0.9397 Y0.342 Z-0.0024 E1.0
G1 X-0.9397 Y0.342 Z-0.0048 E1.0
G1 X-0.9397 Y0.342 Z-0.0072 E1.0
G1 X-0.9397 Y0.342 Z-0.0096 E1.0
G1 X-0.9397 Y0.342 Z-0.012 E1.0001
G1 X-0.9397 Y0.342 Z-0.0144 E1.0001
G1 X-0.9397 Y0.342 Z-0.0168 E1.0001
G1 X-0.9397 Y0.342 Z-0.0192 E1.0002
G1 X-0.9397 Y0.342 Z-0.0216 E1.0002
G1 X-0.9397 Y0.342 Z-0.024 E1.0003
G1 X-0.9397 Y0.342 Z-0.0264 E1.0003
G1 X-0.9397 Y0.342 Z-0.0288 E1.0004
G1 X-0.9397 Y0.342 Z-0.0312 E1.0005
G1 X-0.9397 Y0.342 Z-0.0336 E1.0006
G1 X-0.9397 Y0.342 Z-0.036 E1.0006
G1 X-0.9397 Y0.342 Z-0.0384 E1.0007
G1 X-0.9397 Y0.342 Z-0.0408 E1.0008
G1 X-0.9397 Y0.342 Z-0.0432 E1.0009
G1 X-0.9397 Y0.342 Z-0.0456 E1.001
G1 X0.1736 Y0.9848 Z0.048 E1.0012
G1 X0.1736 Y0.9848 Z0.0456 E1.001
G1 X0.1736 Y0.9848 Z0.0432 E1.0009
G1 X0.1736 Y0.9848 Z0.0408 E1.0008
G1 X0.1736 Y0.9848 Z0.0384 E1.0007
G1 X0.1736 Y0.9848 Z0.036 E1.0006
G1 X0.1736 Y0.9848 Z0.0336 E1.0006
G1 X0.1736 Y0.9848 Z0.0312 E1.0005
G1 X0.1736 Y0.9848 Z0.0288 E1.0004
G1 X0.1736 Y0.9848 Z0.0264 E1.0003
G1 X0.1736 Y0.9848 Z0.024 E1.0003
G1 X0.1736 Y0.9848 Z0.0216 E1.0002
G1 X0.1736 Y0.9848 Z0.0192 E1.0002
G1 X0.1736 Y0.9848 Z0.0168 E1.0001
G1 X0.1736 Y0.9848 Z0.0144 E1.0001
G1 X0.1736 Y0.9848 Z0.012 E1.0001
G1 X0.1736 Y0.9848 Z0.0096 E1.0
G1 X0.1736 Y0.9848 Z0.0072 E1.0
G1 X0.1736 Y0.9848 Z0.0048 E1.0
G1 X0.1736 Y0.9848 Z0.0024 E1.0
G1 X0.1736 Y0.9848 E1.0
G1 X0.1736 Y0.9848 Z-0.0024 E1.0
G1 X0.1736 Y0.9848 Z-0.0048 E1.0
G1 X0.1736 Y0.9848 Z-0.0072 E1.0
G1 X0.1736 Y0.9848 Z-0.0096 E1.0
G1 X0.1736 Y0.9848 Z-0.012 E1.0001
G1 X0.1736 Y0.9848 Z-0.0144 E1.0001
G1 X0.1736 Y0.9848 Z-0.0168 E1.0001
G1 X0.1736 Y0.9848 Z-0.0192 E1.0002
G1 X0.1736 Y0.9848 Z-0.0216 E1.0002
G1 X0.1736 Y0.9848 Z-0.024 E1.0003
G1 X0.1736 Y0.9848 Z-0.0264 E1.0003
G1 X0.1736 Y0.9848 Z-0.0288 E1.0004
G1 X0.1736 Y0.9848 Z-0.0312 E1.0005
G1 X0.1736 Y0.9848 Z-0.0336 E1.0006
G1 X0.1736 Y0.9848 Z-0.036 E1.0006
G1 X0.1736 Y0.9848 Z-0.0384 E1.0007
G1 X0.1736 Y0.9848 Z-0.0408 E1.0008
G1 X0.1736 Y0.9848 Z-0.0432 E1.0009
G1 X0.1736 Y0.9848 Z-0.0456 E1.001
G1 X1.0 Y0.0 Z0.048 E1.0012
G1 X1.0 Y0.0 Z0.0456 E1.001
G1 X1.0 Y0.0 Z0.0432 E1.0009
G1 X1.0 Y0.0 Z0.0408 E1.0008
G1 X1.0 Y0.0 Z0.0384 E1.0007
G1 X1.0 Y0.0 Z0.036 E1.0006
G1 X1.0 Y0.0 Z0.0336 E1.0006
G1 X1.0 Y0.0 Z0.0312 E1.0005
G1 X1.0 Y0.0 Z0.0288 E1.0004
G1 X1.0 Y0.0 Z0.0264 E1.0003
G1 X1.0 Y0.0 Z0.024 E1.0003
G1 X1.0 Y0.0 Z0.0216 E1.0002
G1 X1.0 Y0.0 Z0.0192 E1.0002
G1 X1.0 Y0.0 Z0.0168 E1.0001
G1 X1.0 Y0.0 Z0.0144 E1.0001
G1 X1.0 Y0.0 Z0.012 E1.0001
G1 X1.0 Y0.0 Z0.0096 E1.0
G1 X1.0 Y0.0 Z0.0072 E1.0
G1 X1.0 Y0.0 Z0.0048 E1.0
G1 X1.0 Y0.0 Z0.0024 E1.0
G1 X1.0 Y0.0 E1.0
G1 X1.0 Y0.0 Z-0.0024 E1.0
G1 X1.0 Y0.0 Z-0.0048 E1.0
G1 X1.0 Y0.0 Z-0.0072 E1.0
G1 X1.0 Y0.0 Z-0.0096 E1.0
G1 X1.0 Y0.0 Z-0.012 E1.0001
G1 X1.0 Y0.0 Z-0.0144 E1.0001
G1 X1.0 Y0.0 Z-0.0168 E1.0001
G1 X1.0 Y0.0 Z-0.0192 E1.0002
G1 X1.0 Y0.0 Z-0.0216 E1.0002
G1 X1.0 Y0.0 Z-0.024 E1.0003
G1 X1.0 Y0.0 Z-0.0264 E1.0003
G1 X1.0 Y0.0 Z-0.0288 E1.0004
G1 X1.0 Y0.0 Z-0.0312 E1.0005
G1 X1.0 Y0.0 Z-0.0336 E1.0006
G1 X1.0 Y0.0 Z-0.036 E1.0006
G1 X1.0 Y0.0 Z-0.0384 E1.0007
G1 X1.0 Y0.0 Z-0.0408 E1.0008
G1 X1.0 Y0.0 Z-0.0432 E1.0009
G1 X1.0 Y0.0 Z-0.0456 E1.001
G1 X0.1736 Y-0.9848 Z0.048 E1.0012
G1 X0.1736 Y-0.9848 Z0.0456 E1.001
G1 X0.1736 Y-0.9848 Z0.0432 E1.0009
G1 X0.1736 Y-0.9848 Z0.0408 E1.0008
G1 X0.1736 Y-0.9848 Z0.0384 E1.0007
G1 X0.1736 Y-0.9848 Z0.036 E1.0006
G1 X0.1736 Y-0.9848 Z0.0336 E1.0006
G1 X0.1736 Y-0.9848 Z0.0312 E1.0005
G1 X0.1736 Y-0.9848 Z0.0288 E1.0004
G1 X0.1736 Y-0.9848 Z0.0264 E1.0003
G1 X0.1736 Y-0.9848 Z0.024 E1.0003
G1 X0.1736 Y-0.9848 Z0.0216 E1.0002
G1 X0.1736 Y-0.9848 Z0.0192 E1.0002
G1 X0.1736 Y-0.9848 Z0.0168 E1.0001
G1 X0.1736 Y-0.9848 Z0.0144 E1.0001
G1 X0.1736 Y-0.9848 Z0.012 E1.0001
G1 X0.1736 Y-0.9848 Z0.0096 E1.0
G1 X0.1736 Y-0.9848 Z0.0072 E1.0
G1 X0.1736 Y-0.9848 Z0.0048 E1.0
G1 X0.1736 Y-0.9848 Z0.0024 E1.0
G1 X0.1736 Y-0.9848 E1.0
G1 X0.1736 Y-0.9848 Z-0.0024 E1.0
G1 X0.1736 Y-0.9848 Z-0.0048 E1.0
G1 X0.1736 Y-0.9848 Z-0.0072 E1.0
G1 X0.1736 Y-0.9848 Z-0.0096 E1.0
G1 X0.1736 Y-0.9848 Z-0.012 E1.0001
G1 X0.1736 Y-0.9848 Z-0.0144 E1.0001
G1 X0.1736 Y-0.9848 Z-0.0168 E1.0001
G1 X0.1736 Y-0.9848 Z-0.0192 E1.0002
G1 X0.1736 Y-0.9848 Z-0.0216 E1.0002
G1 X0.1736 Y-0.9848 Z-0.024 E1.0003
G1 X0.1736 Y-0.9848 Z-0.0264 E1.0003
G1 X0.1736 Y-0.9848 Z-0.0288 E1.0004
G1 X0.1736 Y-0.9848 Z-0.0312 E1.0005
G1 X0.1736 Y-0.9848 Z-0.0336 E1.0006
G1 X0.1736 Y-0.9848 Z-0.036 E1.0006
G1 X0.1736 Y-0.9848 Z-0.0384 E1.0007
G1 X0.1736 Y-0.9848 Z-0.0408 E1.0008
G1 X0.1736 Y-0.9848 Z-0.0432 E1.0009
G1 X0.1736 Y-0.9848 Z-0.0456 E1.001
G1 X-0.9397 Y-0.342 Z0.048 E1.0012
G1 X-0.9397 Y-0.342 Z0.0456 E1.001
G1 X-0.9397 Y-0.342 Z0.0432 E1.0009
G1 X-0.9397 Y-0.342 Z0.0408 E1.0008
G1 X-0.9397 Y-0.342 Z0.0384 E1.0007
G1 X-0.9397 Y-0.342 Z0.036 E1.0006
G1 X-0.9397 Y-0.342 Z0.0336 E1.0006
G1 X-0.9397 Y-0.342 Z0.0312 E1.0005
G1 X-0.9397 Y-0.342 Z0.0288 E1.0004
G1 X-0.9397 Y-0.342 Z0.0264 E1.0003
G1 X-0.9397 Y-0.342 Z0.024 E1.0003
G1 X-0.9397 Y-0.342 Z0.0216 E1.0002
G1 X-0.9397 Y-0.342 Z0.0192 E1.0002
G1 X-0.9397 Y-0.342 Z0.0168 E1.0001
G1 X-0.9397 Y-0.342 Z0.0144 E1.0001
G1 X-0.9397 Y-0.342 Z0.012 E1.0001
G1 X-0.9397 Y-0.342 Z0.0096 E1.0
G1 X-0.9397 Y-0.342 Z0.0072 E1.0
G1 X-0.9397 Y-0.342 Z0.0048 E1.0
G1 X-0.9397 Y-0.342 Z0.0024 E1.0
G1 X-0.9397 Y-0.342 E1.0
G1 X-0.9397 Y-0.342 Z-0.0024 E1.0
G1 X-0.9397 Y-0.342 Z-0.0048 E1.0
G1 X-0.9397 Y-0.342 Z-0.0072 E1.0
G1 X-0.9397 Y-0.342 Z-0.0096 E1.0
G1 X-0.9397 Y-0.342 Z-0.012 E1.0001
G1 X-0.9397 Y-0.342 Z-0.0144 E1.0001
G1 X-0.9397 Y-0.342 Z-0.0168 E1.0001
G1 X-0.9397 Y-0.342 Z-0.0192 E1.0002
G1 X-0.9397 Y-0.342 Z-0.0216 E1.0002
G1 X-0.9397 Y-0.342 Z-0.024 E1.0003
G1 X-0.9397 Y-0.342 Z-0.0264 E1.0003
G1 X-0.9397 Y-0.342 Z-0.0288 E1.0004
G1 X-0.9397 Y-0.342 Z-0.0312 E1.0005
G1 X-0.9397 Y-0.342 Z-0.0336 E1.0006
G1 X-0.9397 Y-0.342 Z-0.036 E1.0006
G1 X-0.9397 Y-0.342 Z-0.0384 E1.0007
G1 X-0.9397 Y-0.342 Z-0.0408 E1.0008
G1 X-0.9397 Y-0.342 Z-0.0432 E1.0009
G1 X-0.9397 Y-0.342 Z-0.0456 E1.001
G1 X-0.5 Y0.866 Z0.048 E1.0012
G1 X-0.5 Y0.866 Z0.0456 E1.001
G1 X-0.5 Y0.866 Z0.0432 E1.0009
G1 X-0.5 Y0.866 Z0.0408 E1.0008
G1 X-0.5 Y0.866 Z0.0384 E1.0007
G1 X-0.5 Y0.866 Z0.036 E1.0006
G1 X-0.5 Y0.866 Z0.0336 E1.0006
G1 X-0.5 Y0.866 Z0.0312 E1.0005
G1 X-0.5 Y0.866 Z0.0288 E1.0004
G1 X-0.5 Y0.866 Z0.0264 E1.0003
G1 X-0.5 Y0.866 Z0.024 E1.0003
G1 X-0.5 Y0.866 Z0.0216 E1.0002
G1 X-0.5 Y0.866 Z0.0192 E1.0002
G1 X-0.5 Y0.866 Z0.0168 E1.0001
G1 X-0.5 Y0.866 Z0.0144 E1.0001
G1 X-0.5 Y0.866 Z0.012 E1.0001
G1 X-0.5 Y0.866 Z0.0096 E1.0
G1 X-0.5 Y0.866 Z0.0072 E1.0
G1 X-0.5 Y0.866 Z0.0048 E1.0
G1 X-0.5 Y0.866 Z0.0024 E1.0
G1 X-0.5 Y0.866 E1.0
G1 X-0.5 Y0.866 Z-0.0024 E1.0
G1 X-0.5 Y0.866 Z-0.0048 E1.0
G1 X-0.5 Y0.866 Z-0.0072 E1.0
G1 X-0.5 Y0.866 Z-0.0096 E1.0
G1 X-0.5 Y0.866 Z-0.012 E1.0001
G1 X-0.5 Y0.866 Z-0.0144 E1.0001
G1 X-0.5 Y0.866 Z-0.0168 E1.0001
G1 X-0.5 Y0.866 Z-0.0192 E1.0002
G1 X-0.5 Y0.866 Z-0.0216 E1.0002
G1 X-0.5 Y0.866 Z-0.024 E1.0003
G1 X-0.5 Y0.866 Z-0.0264 E1.0003
G1 X-0.5 Y0.866 Z-0.0288 E1.0004
G1 X-0.5 Y0.866 Z-0.0312 E1.0005
G1 X-0.5 Y0.866 Z-0.0336 E1.0006
G1 X-0.5 Y0.866 Z-0.036 E1.0006
G1 X-0.5 Y0.866 Z-0.0384 E1.0007
G1 X-0.5 Y0.866 Z-0.0408 E1.0008
G1 X-0.5 Y0.866 Z-0.0432 E1.0009
G1 X-0.5 Y0.866 Z-0.0456 E1.001
G1 Z0.15
G1 X0.766 Y0.6428 Z0.056 E1.0016
G1 X0.766 Y0.6428 Z0.0532 E1.0014
G1 X0.766 Y0.6428 Z0.0504 E1.0013
G1 X0.766 Y0.6428 Z0.0476 E1.0011
G1 X0.766 Y0.6428 Z0.0448 E1.001
G1 X0.766 Y0.6428 Z0.042 E1.0009
G1 X0.766 Y0.6428 Z0.0392 E1.0008
G1 X0.766 Y0.6428 Z0.0364 E1.0007
G1 X0.766 Y0.6428 Z0.0336 E1.0006
G1 X0.766 Y0.6428 Z0.0308 E1.0005
G1 X0.766 Y0.6428 Z0.028 E1.0004
G1 X0.766 Y0.6428 Z0.0252 E1.0003
G1 X0.766 Y0.6428 Z0.0224 E1.0003
G1 X0.766 Y0.6428 Z0.0196 E1.0002
G1 X0.766 Y0.6428 Z0.0168 E1.0001
G1 X0.766 Y0.6428 Z0.014 E1.0001
G1 X0.766 Y0.6428 Z0.0112 E1.0001
G1 X0.766 Y0.6428 Z0.0084 E1.0
G1 X0.766 Y0.6428 Z0.0056 E1.0
G1 X0.766 Y0.6428 Z0.0028 E1.0
G1 X0.766 Y0.6428 E1.0
G1 X0.766 Y0.6428 Z-0.0028 E1.0
G1 X0.766 Y0.6428 Z-0.0056 E1.0
G1 X0.766 Y0.6428 Z-0.0084 E1.0
G1 X0.766 Y0.6428 Z-0.0112 E1.0001
G1 X0.766 Y0.6428 Z-0.014 E1.0001
G1 X0.766 Y0.6428 Z-0.0168 E1.0001
G1 X0.766 Y0.6428 Z-0.0196 E1.0002
G1 X0.766 Y0.6428 Z-0.0224 E1.0003
G1 X0.766 Y0.6428 Z-0.0252 E1.0003
G1 X0.766 Y0.6428 Z-0.028 E1.0004
G1 X0.766 Y0.6428 Z-0.0308 E1.0005
G1 X0.766 Y0.6428 Z-0.0336 E1.0006
G1 X0.766 Y0.6428 Z-0.0364 E1.0007
G1 X0.766 Y0.6428 Z-0.0392 E1.0008
G1 X0.766 Y0.6428 Z-0.042 E1.0009
G1 X0.766 Y0.6428 Z-0.0448 E1.001
G1 X0.766 Y0.6428 Z-0.0476 E1.0011
G1 X0.766 Y0.6428 Z-0.0504 E1.0013
G1 X0.766 Y0.6428 Z-0.0532 E1.0014
G1 X0.766 Y-0.6428 Z0.056 E1.0016
G1 X0.766 Y-0.6428 Z0.0532 E1.0014
G1 X0.766 Y-0.6428 Z0.0504 E1.0013
G1 X0.766 Y-0.6428 Z0.0476 E1.0011
G1 X0.766 Y-0.6428 Z0.0448 E1.001
G1 X0.766 Y-0.6428 Z0.042 E1.0009
G1 X0.766 Y-0.6428 Z0.0392 E1.0008
G1 X0.766 Y-0.6428 Z0.0364 E1.0007
G1 X0.766 Y-0.6428 Z0.0336 E1.0006
G1 X0.766 Y-0.6428 Z0.0308 E1.0005
G1 X0.766 Y-0.6428 Z0.028 E1.0004
G1 X0.766 Y-0.6428 Z0.0252 E1.0003
G1 X0.766 Y-0.6428 Z0.0224 E1.0003
G1 X0.766 Y-0.6428 Z0.0196 E1.0002
G1 X0.766 Y-0.6428 Z0.0168 E1.0001
G1 X0.766 Y-0.6428 Z0.014 E1.0001
G1 X0.766 Y-0.6428 Z0.0112 E1.0001
G1 X0.766 Y-0.6428 Z0.0084 E1.0
G1 X0.766 Y-0.6428 Z0.0056 E1.0
G1 X0.766 Y-0.6428 Z0.0028 E1.0
G1 X0.766 Y-0.6428 E1.0
G1 X0.766 Y-0.6428 Z-0.0028 E1.0
G1 X0.766 Y-0.6428 Z-0.0056 E1.0
G1 X0.766 Y-0.6428 Z-0.0084 E1.0
G1 X0.766 Y-0.6428 Z-0.0112 E1.0001
G1 X0.766 Y-0.6428 Z-0.014 E1.0001
G1 X0.766 Y-0.6428 Z-0.0168 E1.0001
G1 X0.766 Y-0.6428 Z-0.0196 E1.0002
G1 X0.766 Y-0.6428 Z-0.0224 E1.0003
G1 X0.766 Y-0.6428 Z-0.0252 E1.0003
G1 X0.766 Y-0.6428 Z-0.028 E1.0004
G1 X0.766 Y-0.6428 Z-0.0308 E1.0005
G1 X0.766 Y-0.6428 Z-0.0336 E1.0006
G1 X0.766 Y-0.6428 Z-0.0364 E1.0007
G1 X0.766 Y-0.6428 Z-0.0392 E1.0008
G1 X0.766 Y-0.6428 Z-0.042 E1.0009
G1 X0.766 Y-0.6428 Z-0.0448 E1.001
G1 X0.766 Y-0.6428 Z-0.0476 E1.0011
G1 X0.766 Y-0.6428 Z-0.0504 E1.0013
G1 X0.766 Y-0.6428 Z-0.0532 E1.0014
G1 X-0.5 Y-0.866 Z0.056 E1.0016
G1 X-0.5 Y-0.866 Z0.0532 E1.0014
G1 X-0.5 Y-0.866 Z0.0504 E1.0013
G1 X-0.5 Y-0.866 Z0.0476 E1.0011
G1 X-0.5 Y-0.866 Z0.0448 E1.001
G1 X-0.5 Y-0.866 Z0.042 E1.0009
G1 X-0.5 Y-0.866 Z0.0392 E1.0008
G1 X-0.5 Y-0.866 Z0.0364 E1.0007
G1 X-0.5 Y-0.866 Z0.0336 E1.0006
G1 X-0.5 Y-0.866 Z0.0308 E1.0005
G1 X-0.5 Y-0.866 Z0.028 E1.0004
G1 X-0.5 Y-0.866 Z0.0252 E1.0003
G1 X-0.5 Y-0.866 Z0.0224 E1.0003
G1 X-0.5 Y-0.866 Z0.0196 E1.0002
G1 X-0.5 Y-0.866 Z0.0168 E1.0001
G1 X-0.5 Y-0.866 Z0.014 E1.0001
G1 X-0.5 Y-0.866 Z0.0112 E1.0001
G1 X-0.5 Y-0.866 Z0.0084 E1.0
G1 X-0.5 Y-0.866 Z0.0056 E1.0
G1 X-0.5 Y-0.866 Z0.0028 E1.0
G1 X-0.5 Y-0.866 E1.0
G1 X-0.5 Y-0.866 Z-0.0028 E1.0
G1 X-0.5 Y-0.866 Z-0.0056 E1.0
G1 X-0.5 Y-0.866 Z-0.0084 E1.0
G1 X-0.5 Y-0.866 Z-0.0112 E1.0001
G1 X-0.5 Y-0.866 Z-0.014 E1.0001
G1 X-0.5 Y-0.866 Z-0.0168 E1.0001
G1 X-0.5 Y-0.866 Z-0.0196 E1.0002
G1 X-0.5 Y-0.866 Z-0.0224 E1.0003
G1 X-0.5 Y-0.866 Z-0.0252 E1.0003
G1 X-0.5 Y-0.866 Z-0.028 E1.0004
G1 X-0.5 Y-0.866 Z-0.0308 E1.0005
G1 X-0.5 Y-0.866 Z-0.0336 E1.0006
G1 X-0.5 Y-0.866 Z-0.0364 E1.0007
G1 X-0.5 Y-0.866 Z-0.0392 E1.0008
G1 X-0.5 Y-0.866 Z-0.042 E1.0009
G1 X-0.5 Y-0.866 Z-0.0448 E1.001
G1 X-0.5 Y-0.866 Z-0.0476 E1.0011
G1 X-0.5 Y-0.866 Z-0.0504 E1.0013
G1 X-0.5 Y-0.866 Z-0.0532 E1.0014
G1 X-0.9397 Y0.342 Z0.056 E1.0016
G1 X-0.9397 Y0.342 Z0.0532 E1.0014
G1 X-0.9397 Y0.342 Z0.0504 E1.0013
G1 X-0.9397 Y0.342 Z0.0476 E1.0011
G1 X-0.9397 Y0.342 Z0.0448 E1.001
G1 X-0.9397 Y0.342 Z0.042 E1.0009
G1 X-0.9397 Y0.342 Z0.0392 E1.0008
G1 X-0.9397 Y0.342 Z0.0364 E1.0007
G1 X-0.9397 Y0.342 Z0.0336 E1.0006
G1 X-0.9397 Y0.342 Z0.0308 E1.0005
G1 X-0.9397 Y0.342 Z0.028 E1.0004
G1 X-0.9397 Y0.342 Z0.0252 E1.0003
G1 X-0.9397 Y0.342 Z0.0224 E1.0003
G1 X-0.9397 Y0.342 Z0.0196 E1.0002
G1 X-0.9397 Y0.342 Z0.0168 E1.0001
G1 X-0.9397 Y0.342 Z0.014 E1.0001
G1 X-0.9397 Y0.342 Z0.0112 E1.0001
G1 X-0.9397 Y0.342 Z0.0084 E1.0
G1 X-0.9397 Y0.342 Z0.0056 E1.0
G1 X-0.9397 Y0.342 Z0.0028 E1.0
G1 X-0.9397 Y0.342 E1.0
G1 X-0.9397 Y0.342 Z-0.0028 E1.0
G1 X-0.9397 Y0.342 Z-0.0056 E1.0
G1 X-0.9397 Y0.342 Z-0.0084 E1.0
G1 X-0.9397 Y0.342 Z-0.0112 E1.0001
G1 X-0.9397 Y0.342 Z-0.014 E1.0001
G1 X-0.9397 Y0.342 Z-0.0168 E1.0001
G1 X-0.9397 Y0.342 Z-0.0196 E1.0002
G1 X-0.9397 Y0.342 Z-0.0224 E1.0003
G1 X-0.9397 Y0.342 Z-0.0252 E1.0003
G1 X-0.9397 Y0.342 Z-0.028 E1.0004
G1 X-0.9397 Y0.342 Z-0.0308 E1.0005
G1 X-0.9397 Y0.342 Z-0.0336 E1.0006
G1 X-0.9397 Y0.342 Z-0.0364 E1.0007
G1 X-0.9397 Y0.342 Z-0.0392 E1.0008
G1 X-0.9397 Y0.342 Z-0.042 E1.0009
G1 X-0.9397 Y0.342 Z-0.0448 E1.001
G1 X-0.9397 Y0.342 Z-0.0476 E1.0011
G1 X-0.9397 Y0.342 Z-0.0504 E1.0013
G1 X-0.9397 Y0.342 Z-0.0532 E1.0014
G1 X0.1736 Y0.9848 Z0.056 E1.0016
G1 X0.1736 Y0.9848 Z0.0532 E1.0014
G1 X0.1736 Y0.9848 Z0.0504 E1.0013
G1 X0.1736 Y0.9848 Z0.0476 E1.0011
G1 X0.1736 Y0.9848 Z0.0448 E1.001
G1 X0.1736 Y0.9848 Z0.042 E1.0009
G1 X0.1736 Y0.9848 Z0.0392 E1.0008
G1 X0.1736 Y0.9848 Z0.0364 E1.0007
G1 X0.1736 Y0.9848 Z0.0336 E1.0006
G1 X0.1736 Y0.9848 Z0.0308 E1.0005
G1 X0.1736 Y0.9848 Z0.028 E1.0004
G1 X0.1736 Y0.9848 Z0.0252 E1.0003
G1 X0.1736 Y0.9848 Z0.0224 E1.0003
G1 X0.1736 Y0.9848 Z0.0196 E1.0002
G1 X0.1736 Y0.9848 Z0.0168 E1.0001
G1 X0.1736 Y0.9848 Z0.014 E1.0001
G1 X0.1736 Y0.9848 Z0.0112 E1.0001
G1 X0.1736 Y0.9848 Z0.0084 E1.0
G1 X0.1736 Y0.9848 Z0.0056 E1.0
G1 X0.1736 Y0.9848 Z0.0028 E1.0
G1 X0.1736 Y0.9848 E1.0
G1 X0.1736 Y0.9848 Z-0.0028 E1.0
G1 X0.1736 Y0.9848 Z-0.0056 E1.0
G1 X0.1736 Y0.9848 Z-0.0084 E1.0
G1 X0.1736 Y0.9848 Z-0.0112 E1.0001
G1 X0.1736 Y0.9848 Z-0.014 E1.0001
G1 X0.1736 Y0.9848 Z-0.0168 E1.0001
G1 X0.1736 Y0.9848 Z-0.0196 E1.0002
G1 X0.1736 Y0.9848 Z-0.0224 E1.0003
G1 X0.1736 Y0.9848 Z-0.0252 E1.0003
G1 X0.1736 Y0.9848 Z-0.028 E1.0004
G1 X0.1736 Y0.9848 Z-0.0308 E1.0005
G1 X0.1736 Y0.9848 Z-0.0336 E1.0006
G1 X0.1736 Y0.9848 Z-0.0364 E1.0007
G1 X0.1736 Y0.9848 Z-0.0392 E1.0008
G1 X0.1736 Y0.9848 Z-0.042 E1.0009
G1 X0.1736 Y0.9848 Z-0.0448 E1.001
G1 X0.1736 Y0.9848 Z-0.0476 E1.0011
G1 X0.1736 Y0.9848 Z-0.0504 E1.0013
G1 X0.1736 Y0.9848 Z-0.0532 E1.0014
G1 X1.0 Y0.0 Z0.056 E1.0016
G1 X1.0 Y0.0 Z0.0532 E1.0014
G1 X1.0 Y0.0 Z0.0504 E1.0013
G1 X1.0 Y0.0 Z0.0476 E1.0011
G1 X1.0 Y0.0 Z0.0448 E1.001
G1 X1.0 Y0.0 Z0.042 E1.0009
G1 X1.0 Y0.0 Z0.0392 E1.0008
G1 X1.0 Y0.0 Z0.0364 E1.0007
G1 X1.0 Y0.0 Z0.0336 E1.0006
G1 X1.0 Y0.0 Z0.0308 E1.0005
G1 X1.0 Y0.0 Z0.028 E1.0004
G1 X1.0 Y0.0 Z0.0252 E1.0003
G1 X1.0 Y0.0 Z0.0224 E1.0003
G1 X1.0 Y0.0 Z0.0196 E1.0002
G1 X1.0 Y0.0 Z0.0168 E1.0001
G1 X1.0 Y0.0 Z0.014 E1.0001
G1 X1.0 Y0.0 Z0.0112 E1.0001
G1 X1.0 Y0.0 Z0.0084 E1.0
G1 X1.0 Y0.0 Z0.0056 E1.0
G1 X1.0 Y0.0 Z0.0028 E1.0
G1 X1.0 Y0.0 E1.0
G1 X1.0 Y0.0 Z-0.0028 E1.0
G1 X1.0 Y0.0 Z-0.0056 E1.0
G1 X1.0 Y0.0 Z-0.0084 E1.0
G1 X1.0 Y0.0 Z-0.0112 E1.0001
G1 X1.0 Y0.0 Z-0.014 E1.0001
G1 X1.0 Y0.0 Z-0.0168 E1.0001
G1 X1.0 Y0.0 Z-0.0196 E1.0002
G1 X1.0 Y0.0 Z-0.0224 E1.0003
G1 X1.0 Y0.0 Z-0.0252 E1.0003
G1 X1.0 Y0.0 Z-0.028 E1.0004
G1 X1.0 Y0.0 Z-0.0308 E1.0005
G1 X1.0 Y0.0 Z-0.0336 E1.0006
G1 X1.0 Y0.0 Z-0.0364 E1.0007
G1 X1.0 Y0.0 Z-0.0392 E1.0008
G1 X1.0 Y0.0 Z-0.042 E1.0009
G1 X1.0 Y0.0 Z-0.0448 E1.001
G1 X1.0 Y0.0 Z-0.0476 E1.0011
G1 X1.0 Y0.0 Z-0.0504 E1.0013
G1 X1.0 Y0.0 Z-0.0532 E1.0014
G1 X0.1736 Y-0.9848 Z0.056 E1.0016
G1 X0.1736 Y-0.9848 Z0.0532 E1.0014
G1 X0.1736 Y-0.9848 Z0.0504 E1.0013
G1 X0.1736 Y-0.9848 Z0.0476 E1.0011
G1 X0.1736 Y-0.9848 Z0.0448 E1.001
G1 X0.1736 Y-0.9848 Z0.042 E1.0009
G1 X0.1736 Y-0.9848 Z0.0392 E1.0008
G1 X0.1736 Y-0.9848 Z0.0364 E1.0007
G1 X0.1736 Y-0.9848 Z0.0336 E1.0006
G1 X0.1736 Y-0.9848 Z0.0308 E1.0005
G1 X0.1736 Y-0.9848 Z0.028 E1.0004
G1 X0.1736 Y-0.9848 Z0.0252 E1.0003
G1 X0.1736 Y-0.9848 Z0.0224 E1.0003
G1 X0.1736 Y-0.9848 Z0.0196 E1.0002
G1 X0.1736 Y-0.9848 Z0.0168 E1.0001
G1 X0.1736 Y-0.9848 Z0.014 E1.0001
G1 X0.1736 Y-0.9848 Z0.0112 E1.0001
G1 X0.1736 Y-0.9848 Z0.0084 E1.0
G1 X0.1736 Y-0.9848 Z0.0056 E1.0
G1 X0.1736 Y-0.9848 Z0.0028 E1.0
G1 X0.1736 Y-0.9848 E1.0
G1 X0.1736 Y-0.9848 Z-0.0028 E1.0
G1 X0.1736 Y-0.9848 Z-0.0056 E1.0
G1 X0.1736 Y-0.9848 Z-0.0084 E1.0
G1 X0.1736 Y-0.9848 Z-0.0112 E1.0001
G1 X0.1736 Y-0.9848 Z-0.014 E1.0001
G1 X0.1736 Y-0.9848 Z-0.0168 E1.0001
G1 X0.1736 Y-0.9848 Z-0.0196 E1.0002
G1 X0.1736 Y-0.9848 Z-0.0224 E1.0003
G1 X0.1736 Y-0.9848 Z-0.0252 E1.0003
G1 X0.1736 Y-0.9848 Z-0.028 E1.0004
G1 X0.1736 Y-0.9848 Z-0.0308 E1.0005
G1 X0.1736 Y-0.9848 Z-0.0336 E1.0006
G1 X0.1736 Y-0.9848 Z-0.0364 E1.0007
G1 X0.1736 Y-0.9848 Z-0.0392 E1.0008
G1 X0.1736 Y-0.9848 Z-0.042 E1.0009
G1 X0.1736 Y-0.9848 Z-0.0448 E1.001
G1 X0.1736 Y-0.9848 Z-0.0476 E1.0011
G1 X0.1736 Y-0.9848 Z-0.0504 E1.0013
G1 X0.1736 Y-0.9848 Z-0.0532 E1.0014
G1 Z0.15
G1 X-0.9397 Y-0.342 Z0.064 E1.002
G1 X-0.9397 Y-0.342 Z0.0608 E1.0018
G1 X-0.9397 Y-0.342 Z0.0576 E1.0017
G1 X-0.9397 Y-0.342 Z0.0544 E1.0015
G1 X-0.9397 Y-0.342 Z0.0512 E1.0013
G1 X-0.9397 Y-0.342 Z0.048 E1.0012
G1 X-0.9397 Y-0.342 Z0.0448 E1.001
G1 X-0.9397 Y-0.342 Z0.0416 E1.0009
G1 X-0.9397 Y-0.342 Z0.0384 E1.0007
G1 X-0.9397 Y-0.342 Z0.0352 E1.0006
G1 X-0.9397 Y-0.342 Z0.032 E1.0005
G1 X-0.9397 Y-0.342 Z0.0288 E1.0004
G1 X-0.9397 Y-0.342 Z0.0256 E1.0003
G1 X-0.9397 Y-0.342 Z0.0224 E1.0003
G1 X-0.9397 Y-0.342 Z0.0192 E1.0002
G1 X-0.9397 Y-0.342 Z0.016 E1.0001
G1 X-0.9397 Y-0.342 Z0.0128 E1.0001
G1 X-0.9397 Y-0.342 Z0.0096 E1.0
G1 X-0.9397 Y-0.342 Z0.0064 E1.0
G1 X-0.9397 Y-0.342 Z0.0032 E1.0
G1 X-0.9397 Y-0.342 E1.0
G1 X-0.9397 Y-0.342 Z-0.0032 E1.0
G1 X-0.9397 Y-0.342 Z-0.0064 E1.0
G1 X-0.9397 Y-0.342 Z-0.0096 E1.0
G1 X-0.9397 Y-0.342 Z-0.0128 E1.0001
G1 X-0.9397 Y-0.342 Z-0.016 E1.0001
G1 X-0.9397 Y-0.342 Z-0.0192 E1.0002
G1 X-0.9397 Y-0.342 Z-0.0224 E1.0003
G1 X-0.9397 Y-0.342 Z-0.0256 E1.0003
G1 X-0.9397 Y-0.342 Z-0.0288 E1.0004
G1 X-0.9397 Y-0.342 Z-0.032 E1.0005
G1 X-0.9397 Y-0.342 Z-0.0352 E1.0006
G1 X-0.9397 Y-0.342 Z-0.0384 E1.0007
G1 X-0.9397 Y-0.342 Z-0.0416 E1.0009
G1 X-0.9397 Y-0.342 Z-0.0448 E1.001
G1 X-0.9397 Y-0.342 Z-0.048 E1.0012
G1 X-0.9397 Y-0.342 Z-0.0512 E1.0013
G1 X-0.9397 Y-0.342 Z-0.0544 E1.0015
G1 X-0.9397 Y-0.342 Z-0.0576 E1.0017
G1 X-0.9397 Y-0.342 Z-0.0608 E1.0018
G1 X-0.5 Y0.866 Z0.064 E1.002
G1 X-0.5 Y0.866 Z0.0608 E1.0018
G1 X-0.5 Y0.866 Z0.0576 E1.0017
G1 X-0.5 Y0.866 Z0.0544 E1.0015
G1 X-0.5 Y0.866 Z0.0512 E1.0013
G1 X-0.5 Y0.866 Z0.048 E1.0012
G1 X-0.5 Y0.866 Z0.0448 E1.001
G1 X-0.5 Y0.866 Z0.0416 E1.0009
G1 X-0.5 Y0.866 Z0.0384 E1.0007
G1 X-0.5 Y0.866 Z0.0352 E1.0006
G1 X-0.5 Y0.866 Z0.032 E1.0005
G1 X-0.5 Y0.866 Z0.0288 E1.0004
G1 X-0.5 Y0.866 Z0.0256 E1.0003
G1 X-0.5 Y0.866 Z0.0224 E1.0003
G1 X-0.5 Y0.866 Z0.0192 E1.0002
G1 X-0.5 Y0.866 Z0.016 E1.0001
G1 X-0.5 Y0.866 Z0.0128 E1.0001
G1 X-0.5 Y0.866 Z0.0096 E1.0
G1 X-0.5 Y0.866 Z0.0064 E1.0
G1 X-0.5 Y0.866 Z0.0032 E1.0
G1 X-0.5 Y0.866 E1.0
G1 X-0.5 Y0.866 Z-0.0032 E1.0
G1 X-0.5 Y0.866 Z-0.0064 E1.0
G1 X-0.5 Y0.866 Z-0.0096 E1.0
G1 X-0.5 Y0.866 Z-0.0128 E1.0001
G1 X-0.5 Y0.866 Z-0.016 E1.0001
G1 X-0.5 Y0.866 Z-0.0192 E1.0002
G1 X-0.5 Y0.866 Z-0.0224 E1.0003
G1 X-0.5 Y0.866 Z-0.0256 E1.0003
G1 X-0.5 Y0.866 Z-0.0288 E1.0004
G1 X-0.5 Y0.866 Z-0.032 E1.0005
G1 X-0.5 Y0.866 Z-0.0352 E1.0006
G1 X-0.5 Y0.866 Z-0.0384 E1.0007
G1 X-0.5 Y0.866 Z-0.0416 E1.0009
G1 X-0.5 Y0.866 Z-0.0448 E1.001
G1 X-0.5 Y0.866 Z-0.048 E1.0012
G1 X-0.5 Y0.866 Z-0.0512 E1.0013
G1 X-0.5 Y0.866 Z-0.0544 E1.0015
G1 X-0.5 Y0.866 Z-0.0576 E1.0017
G1 X-0.5 Y0.866 Z-0.0608 E1.0018
G1 X0.766 Y0.6428 Z0.064 E1.002
G1 X0.766 Y0.6428 Z0.0608 E1.0018
G1 X0.766 Y0.6428 Z0.0576 E1.0017
G1 X0.766 Y0.6428 Z0.0544 E1.0015
G1 X0.766 Y0.6428 Z0.0512 E1.0013
G1 X0.766 Y0.6428 Z0.048 E1.0012
G1 X0.766 Y0.6428 Z0.0448 E1.001
G1 X0.766 Y0.6428 Z0.0416 E1.0009
G1 X0.766 Y0.6428 Z0.0384 E1.0007
G1 X0.766 Y0.6428 Z0.0352 E1.0006
G1 X0.766 Y0.6428 Z0.032 E1.0005
G1 X0.766 Y0.6428 Z0.0288 E1.0004
G1 X0.766 Y0.6428 Z0.0256 E1.0003
G1 X0.766 Y0.6428 Z0.0224 E1.0003
G1 X0.766 Y0.6428 Z0.0192 E1.0002
G1 X0.766 Y0.6428 Z0.016 E1.0001
G1 X0.766 Y0.6428 Z0.0128 E1.0001
G1 X0.766 Y0.6428 Z0.0096 E1.0
G1 X0.766 Y0.6428 Z0.0064 E1.0
G1 X0.766 Y0.6428 Z0.0032 E1.0
G1 X0.766 Y0.6428 E1.0
G1 X0.766 Y0.6428 Z-0.0032 E1.0
G1 X0.766 Y0.6428 Z-0.0064 E1.0
G1 X0.766 Y0.6428 Z-0.0096 E1.0
G1 X0.766 Y0.6428 Z-0.0128 E1.0001
G1 X0.766 Y0.6428 Z-0.016 E1.0001
G1 X0.766 Y0.6428 Z-0.0192 E1.0002
G1 X0.766 Y0.6428 Z-0.0224 E1.0003
G1 X0.766 Y0.6428 Z-0.0256 E1.0003
G1 X0.766 Y0.6428 Z-0.0288 E1.0004
G1 X0.766 Y0.6428 Z-0.032 E1.0005
G1 X0.766 Y0.6428 Z-0.0352 E1.0006
G1 X0.766 Y0.6428 Z-0.0384 E1.0007
G1 X0.766 Y0.6428 Z-0.0416 E1.0009
G1 X0.766 Y0.6428 Z-0.0448 E1.001
G1 X0.766 Y0.6428 Z-0.048 E1.0012
G1 X0.766 Y0.6428 Z-0.0512 E1.0013
G1 X0.766 Y0.6428 Z-0.0544 E1.0015
G1 X0.766 Y0.6428 Z-0.0576 E1.0017
G1 X0.766 Y0.6428 Z-0.0608 E1.0018
G1 X0.766 Y-0.6428 Z0.064 E1.002
G1 X0.766 Y-0.6428 Z0.0608 E1.0018
G1 X0.766 Y-0.6428 Z0.0576 E1.0017
G1 X0.766 Y-0.6428 Z0.0544 E1.0015
G1 X0.766 Y-0.6428 Z0.0512 E1.0013
G1 X0.766 Y-0.6428 Z0.048 E1.0012
G1 X0.766 Y-0.6428 Z0.0448 E1.001
G1 X0.766 Y-0.6428 Z0.0416 E1.0009
G1 X0.766 Y-0.6428 Z0.0384 E1.0007
G1 X0.766 Y-0.6428 Z0.0352 E1.0006
G1 X0.766 Y-0.6428 Z0.032 E1.0005
G1 X0.766 Y-0.6428 Z0.0288 E1.0004
G1 X0.766 Y-0.6428 Z0.0256 E1.0003
G1 X0.766 Y-0.6428 Z0.0224 E1.0003
G1 X0.766 Y-0.6428 Z0.0192 E1.0002
G1 X0.766 Y-0.6428 Z0.016 E1.0001
G1 X0.766 Y-0.6428 Z0.0128 E1.0001
G1 X0.766 Y-0.6428 Z0.0096 E1.0
G1 X0.766 Y-0.6428 Z0.0064 E1.0
G1 X0.766 Y-0.6428 Z0.0032 E1.0
G1 X0.766 Y-0.6428 E1.0
G1 X0.766 Y-0.6428 Z-0.0032 E1.0
G1 X0.766 Y-0.6428 Z-0.0064 E1.0
G1 X0.766 Y-0.6428 Z-0.0096 E1.0
G1 X0.766 Y-0.6428 Z-0.0128 E1.0001
G1 X0.766 Y-0.6428 Z-0.016 E1.0001
G1 X0.766 Y-0.6428 Z-0.0192 E1.0002
G1 X0.766 Y-0.6428 Z-0.0224 E1.0003
G1 X0.766 Y-0.6428 Z-0.0256 E1.0003
G1 X0.766 Y-0.6428 Z-0.0288 E1.0004
G1 X0.766 Y-0.6428 Z-0.032 E1.0005
G1 X0.766 Y-0.6428 Z-0.0352 E1.0006
G1 X0.766 Y-0.6428 Z-0.0384 E1.0007
G1 X0.766 Y-0.6428 Z-0.0416 E1.0009
G1 X0.766 Y-0.6428 Z-0.0448 E1.001
G1 X0.766 Y-0.6428 Z-0.048 E1.0012
G1 X0.766 Y-0.6428 Z-0.0512 E1.0013
G1 X0.766 Y-0.6428 Z-0.0544 E1.0015
G1 X0.766 Y-0.6428 Z-0.0576 E1.0017
G1 X0.766 Y-0.6428 Z-0.0608 E1.0018
G1 X-0.5 Y-0.866 Z0.064 E1.002
G1 X-0.5 Y-0.866 Z0.0608 E1.0018
G1 X-0.5 Y-0.866 Z0.0576 E1.0017
G1 X-0.5 Y-0.866 Z0.0544 E1.0015
G1 X-0.5 Y-0.866 Z0.0512 E1.0013
G1 X-0.5 Y-0.866 Z0.048 E1.0012
G1 X-0.5 Y-0.866 Z0.0448 E1.001
G1 X-0.5 Y-0.866 Z0.0416 E1.0009
G1 X-0.5 Y-0.866 Z0.0384 E1.0007
G1 X-0.5 Y-0.866 Z0.0352 E1.0006
G1 X-0.5 Y-0.866 Z0.032 E1.0005
G1 X-0.5 Y-0.866 Z0.0288 E1.0004
G1 X-0.5 Y-0.866 Z0.0256 E1.0003
G1 X-0.5 Y-0.866 Z0.0224 E1.0003
G1 X-0.5 Y-0.866 Z0.0192 E1.0002
G1 X-0.5 Y-0.866 Z0.016 E1.0001
G1 X-0.5 Y-0.866 Z0.0128 E1.0001
G1 X-0.5 Y-0.866 Z0.0096 E1.0
G1 X-0.5 Y-0.866 Z0.0064 E1.0
G1 X-0.5 Y-0.866 Z0.0032 E1.0
G1 X-0.5 Y-0.866 E1.0
G1 X-0.5 Y-0.866 Z-0.0032 E1.0
G1 X-0.5 Y-0.866 Z-0.0064 E1.0
G1 X-0.5 Y-0.866 Z-0.0096 E1.0
G1 X-0.5 Y-0.866 Z-0.0128 E1.0001
G1 X-0.5 Y-0.866 Z-0.016 E1.0001
G1 X-0.5 Y-0.866 Z-0.0192 E1.0002
G1 X-0.5 Y-0.866 Z-0.0224 E1.0003
G1 X-0.5 Y-0.866 Z-0.0256 E1.0003
G1 X-0.5 Y-0.866 Z-0.0288 E1.0004
G1 X-0.5 Y-0.866 Z-0.032 E1.0005
G1 X-0.5 Y-0.866 Z-0.0352 E1.0006
G1 X-0.5 Y-0.866 Z-0.0384 E1.0007
G1 X-0.5 Y-0.866 Z-0.0416 E1.0009
G1 X-0.5 Y-0.866 Z-0.0448 E1.001
G1 X-0.5 Y-0.866 Z-0.048 E1.0012
G1 X-0.5 Y-0.866 Z-0.0512 E1.0013
G1 X-0.5 Y-0.866 Z-0.0544 E1.0015
G1 X-0.5 Y-0.866 Z-0.0576 E1.0017
G1 X-0.5 Y-0.866 Z-0.0608 E1.0018
G1 X-0.9397 Y0.342 Z0.064 E1.002
G1 X-0.9397 Y0.342 Z0.0608 E1.0018
G1 X-0.9397 Y0.342 Z0.0576 E1.0017
G1 X-0.9397 Y0.342 Z0.0544 E1.0015
G1 X-0.9397 Y0.342 Z0.0512 E1.0013
G1 X-0.9397 Y0.342 Z0.048 E1.0012
G1 X-0.9397 Y0.342 Z0.0448 E1.001
G1 X-0.9397 Y0.342 Z0.0416 E1.0009
G1 X-0.9397 Y0.342 Z0.0384 E1.0007
G1 X-0.9397 Y0.342 Z0.0352 E1.0006
G1 X-0.9397 Y0.342 Z0.032 E1.0005
G1 X-0.9397 Y0.342 Z0.0288 E1.0004
G1 X-0.9397 Y0.342 Z0.0256 E1.0003
G1 X-0.9397 Y0.342 Z0.0224 E1.0003
G1 X-0.9397 Y0.342 Z0.0192 E1.0002
G1 X-0.9397 Y0.342 Z0.016 E1.0001
G1 X-0.9397 Y0.342 Z0.0128 E1.0001
G1 X-0.9397 Y0.342 Z0.0096 E1.0
G1 X-0.9397 Y0.342 Z0.0064 E1.0
G1 X-0.9397 Y0.342 Z0.0032 E1.0
G1 X-0.9397 Y0.342 E1.0
G1 X-0.9397 Y0.342 Z-0.0032 E1.0
G1 X-0.9397 Y0.342 Z-0.0064 E1.0
G1 X-0.9397 Y0.342 Z-0.0096 E1.0
G1 X-0.9397 Y0.342 Z-0.0128 E1.0001
G1 X-0.9397 Y0.342 Z-0.016 E1.0001
G1 X-0.9397 Y0.342 Z-0.0192 E1.0002
G1 X-0.9397 Y0.342 Z-0.0224 E1.0003
G1 X-0.9397 Y0.342 Z-0.0256 E1.0003
G1 X-0.9397 Y0.342 Z-0.0288 E1.0004
G1 X-0.9397 Y0.342 Z-0.032 E1.0005
G1 X-0.9397 Y0.342 Z-0.0352 E1.0006
G1 X-0.9397 Y0.342 Z-0.0384 E1.0007
G1 X-0.9397 Y0.342 Z-0.0416 E1.0009
G1 X-0.9397 Y0.342 Z-0.0448 E1.001
G1 X-0.9397 Y0.342 Z-0.048 E1.0012
G1 X-0.9397 Y0.342 Z-0.0512 E1.0013
G1 X-0.9397 Y0.342 Z-0.0544 E1.0015
G1 X-0.9397 Y0.342 Z-0.0576 E1.0017
G1 X-0.9397 Y0.342 Z-0.0608 E1.0018
G1 X0.1736 Y0.9848 Z0.064 E1.002
G1 X0.1736 Y0.9848 Z0.0608 E1.0018
G1 X0.1736 Y0.9848 Z0.0576 E1.0017
G1 X0.1736 Y0.9848 Z0.0544 E1.0015
G1 X0.1736 Y0.9848 Z0.0512 E1.0013
G1 X0.1736 Y0.9848 Z0.048 E1.0012
G1 X0.1736 Y0.9848 Z0.0448 E1.001
G1 X0.1736 Y0.9848 Z0.0416 E1.0009
G1 X0.1736 Y0.9848 Z0.0384 E1.0007
G1 X0.1736 Y0.9848 Z0.0352 E1.0006
G1 X0.1736 Y0.9848 Z0.032 E1.0005
G1 X0.1736 Y0.9848 Z0.0288 E1.0004
G1 X0.1736 Y0.9848 Z0.0256 E1.0003
G1 X0.1736 Y0.9848 Z0.0224 E1.0003
G1 X0.1736 Y0.9848 Z0.0192 E1.0002
G1 X0.1736 Y0.9848 Z0.016 E1.0001
G1 X0.1736 Y0.9848 Z0.0128 E1.0001
G1 X0.1736 Y0.9848 Z0.0096 E1.0
G1 X0.1736 Y0.9848 Z0.0064 E1.0
G1 X0.1736 Y0.9848 Z0.0032 E1.0
G1 X0.1736 Y0.9848 E1.0
G1 X0.1736 Y0.9848 Z-0.0032 E1.0
G1 X0.1736 Y0.9848 Z-0.0064 E1.0
G1 X0.1736 Y0.9848 Z-0.0096 E1.0
G1 X0.1736 Y0.9848 Z-0.0128 E1.0001
G1 X0.1736 Y0.9848 Z-0.016 E1.0001
G1 X0.1736 Y0.9848 Z-0.0192 E1.0002
G1 X0.1736 Y0.9848 Z-0.0224 E1.0003
G1 X0.1736 Y0.9848 Z-0.0256 E1.0003
G1 X0.1736 Y0.9848 Z-0.0288 E1.0004
G1 X0.1736 Y0.9848 Z-0.032 E1.0005
G1 X0.1736 Y0.9848 Z-0.0352 E1.0006
G1 X0.1736 Y0.9848 Z-0.0384 E1.0007
G1 X0.1736 Y0.9848 Z-0.0416 E1.0009
G1 X0.1736 Y0.9848 Z-0.0448 E1.001
G1 X0.1736 Y0.9848 Z-0.048 E1.0012
G1 X0.1736 Y0.9848 Z-0.0512 E1.0013
G1 X0.1736 Y0.9848 Z-0.0544 E1.0015
G1 X0.1736 Y0.9848 Z-0.0576 E1.0017
G1 X0.1736 Y0.9848 Z-0.0608 E1.0018
G1 Z0.15
G1 X1.0 Y0.0 Z0.072 E1.0026
G1 X1.0 Y0.0 Z0.0684 E1.0023
G1 X1.0 Y0.0 Z0.0648 E1.0021
G1 X1.0 Y0.0 Z0.0612 E1.0019
G1 X1.0 Y0.0 Z0.0576 E1.0017
G1 X1.0 Y0.0 Z0.054 E1.0015
G1 X1.0 Y0.0 Z0.0504 E1.0013
G1 X1.0 Y0.0 Z0.0468 E1.0011
G1 X1.0 Y0.0 Z0.0432 E1.0009
G1 X1.0 Y0.0 Z0.0396 E1.0008
G1 X1.0 Y0.0 Z0.036 E1.0006
G1 X1.0 Y0.0 Z0.0324 E1.0005
G1 X1.0 Y0.0 Z0.0288 E1.0004
G1 X1.0 Y0.0 Z0.0252 E1.0003
G1 X1.0 Y0.0 Z0.0216 E1.0002
G1 X1.0 Y0.0 Z0.018 E1.0002
G1 X1.0 Y0.0 Z0.0144 E1.0001
G1 X1.0 Y0.0 Z0.0108 E1.0001
G1 X1.0 Y0.0 Z0.0072 E1.0
G1 X1.0 Y0.0 Z0.0036 E1.0
G1 X1.0 Y0.0 E1.0
G1 X1.0 Y0.0 Z-0.0036 E1.0
G1 X1.0 Y0.0 Z-0.0072 E1.0
G1 X1.0 Y0.0 Z-0.0108 E1.0001
G1 X1.0 Y0.0 Z-0.0144 E1.0001
G1 X1.0 Y0.0 Z-0.018 E1.0002
G1 X1.0 Y0.0 Z-0.0216 E1.0002
G1 X1.0 Y0.0 Z-0.0252 E1.0003
G1 X1.0 Y0.0 Z-0.0288 E1.0004
G1 X1.0 Y0.0 Z-0.0324 E1.0005
G1 X1.0 Y0.0 Z-0.036 E1.0006
G1 X1.0 Y0.0 Z-0.0396 E1.0008
G1 X1.0 Y0.0 Z-0.0432 E1.0009
G1 X1.0 Y0.0 Z-0.0468 E1.0011
G1 X1.0 Y0.0 Z-0.0504 E1.0013
G1 X1.0 Y0.0 Z-0.054 E1.0015
G1 X1.0 Y0.0 Z-0.0576 E1.0017
G1 X1.0 Y0.0 Z-0.0612 E1.0019
G1 X1.0 Y0.0 Z-0.0648 E1.0021
G1 X1.0 Y0.0 Z-0.0684 E1.0023
G1 X0.1736 Y-0.9848 Z0.072 E1.0026
G1 X0.1736 Y-0.9848 Z0.0684 E1.0023
G1 X0.1736 Y-0.9848 Z0.0648 E1.0021
G1 X0.1736 Y-0.9848 Z0.0612 E1.0019
G1 X0.1736 Y-0.9848 Z0.0576 E1.0017
G1 X0.1736 Y-0.9848 Z0.054 E1.0015
G1 X0.1736 Y-0.9848 Z0.0504 E1.0013
G1 X0.1736 Y-0.9848 Z0.0468 E1.0011
G1 X0.1736 Y-0.9848 Z0.0432 E1.0009
G1 X0.1736 Y-0.9848 Z0.0396 E1.0008
G1 X0.1736 Y-0.9848 Z0.036 E1.0006
G1 X0.1736 Y-0.9848 Z0.0324 E1.0005
G1 X0.1736 Y-0.9848 Z0.0288 E1.0004
G1 X0.1736 Y-0.9848 Z0.0252 E1.0003
G1 X0.1736 Y-0.9848 Z0.0216 E1.0002
G1 X0.1736 Y-0.9848 Z0.018 E1.0002
G1 X0.1736 Y-0.9848 Z0.0144 E1.0001
G1 X0.1736 Y-0.9848 Z0.0108 E1.0001
G1 X0.1736 Y-0.9848 Z0.0072 E1.0
G1 X0.1736 Y-0.9848 Z0.0036 E1.0
G1 X0.1736 Y-0.9848 E1.0
G1 X0.1736 Y-0.9848 Z-0.0036 E1.0
G1 X0.1736 Y-0.9848 Z-0.0072 E1.0
G1 X0.1736 Y-0.9848 Z-0.0108 E1.0001
G1 X0.1736 Y-0.9848 Z-0.0144 E1.0001
G1 X0.1736 Y-0.9848 Z-0.018 E1.0002
G1 X0.1736 Y-0.9848 Z-0.0216 E1.0002
G1 X0.1736 Y-0.9848 Z-0.0252 E1.0003
G1 X0.1736 Y-0.9848 Z-0.0288 E1.0004
G1 X0.1736 Y-0.9848 Z-0.0324 E1.0005
G1 X0.1736 Y-0.9848 Z-0.036 E1.0006
G1 X0.1736 Y-0.9848 Z-0.0396 E1.0008
G1 X0.1736 Y-0.9848 Z-0.0432 E1.0009
G1 X0.1736 Y-0.9848 Z-0.0468 E1.0011
G1 X0.1736 Y-0.9848 Z-0.0504 E1.0013
G1 X0.1736 Y-0.9848 Z-0.054 E1.0015
G1 X0.1736 Y-0.9848 Z-0.0576 E1.0017
G1 X0.1736 Y-0.9848 Z-0.0612 E1.0019
G1 X0.1736 Y-0.9848 Z-0.0648 E1.0021
G1 X0.1736 Y-0.9848 Z-0.0684 E1.0023
G1 X-0.9397 Y-0.342 Z0.072 E1.0026
G1 X-0.9397 Y-0.342 Z0.0684 E1.0023
G1 X-0.9397 Y-0.342 Z0.0648 E1.0021
G1 X-0.9397 Y-0.342 Z0.0612 E1.0019
G1 X-0.9397 Y-0.342 Z0.0576 E1.0017
G1 X-0.9397 Y-0.342 Z0.054 E1.0015
G1 X-0.9397 Y-0.342 Z0.0504 E1.0013
G1 X-0.9397 Y-0.342 Z0.0468 E1.0011
G1 X-0.9397 Y-0.342 Z0.0432 E1.0009
G1 X-0.9397 Y-0.342 Z0.0396 E1.0008
G1 X-0.9397 Y-0.342 Z0.036 E1.0006
G1 X-0.9397 Y-0.342 Z0.0324 E1.0005
G1 X-0.9397 Y-0.342 Z0.0288 E1.0004
G1 X-0.9397 Y-0.342 Z0.0252 E1.0003
G1 X-0.9397 Y-0.342 Z0.0216 E1.0002
G1 X-0.9397 Y-0.342 Z0.018 E1.0002
G1 X-0.9397 Y-0.342 Z0.0144 E1.0001
G1 X-0.9397 Y-0.342 Z0.0108 E1.0001
G1 X-0.9397 Y-0.342 Z0.0072 E1.0
G1 X-0.9397 Y-0.342 Z0.0036 E1.0
G1 X-0.9397 Y-0.342 E1.0
G1 X-0.9397 Y-0.342 Z-0.0036 E1.0
G1 X-0.9397 Y-0.342 Z-0.0072 E1.0
G1 X-0.9397 Y-0.342 Z-0.0108 E1.0001
G1 X-0.9397 Y-0.342 Z-0.0144 E1.0001
G1 X-0.9397 Y-0.342 Z-0.018 E1.0002
G1 X-0.9397 Y-0.342 Z-0.0216 E1.0002
G1 X-0.9397 Y-0.342 Z-0.0252 E1.0003
G1 X-0.9397 Y-0.342 Z-0.0288 E1.0004
G1 X-0.9397 Y-0.342 Z-0.0324 E1.0005
G1 X-0.9397 Y-0.342 Z-0.036 E1.0006
G1 X-0.9397 Y-0.342 Z-0.0396 E1.0008
G1 X-0.9397 Y-0.342 Z-0.0432 E1.0009
G1 X-0.9397 Y-0.342 Z-0.0468 E1.0011
G1 X-0.9397 Y-0.342 Z-0.0504 E1.0013
G1 X-0.9397 Y-0.342 Z-0.054 E1.0015
G1 X-0.9397 Y-0.342 Z-0.0576 E1.0017
G1 X-0.9397 Y-0.342 Z-0.0612 E1.0019
G1 X-0.9397 Y-0.342 Z-0.0648 E1.0021
G1 X-0.9397 Y-0.342 Z-0.0684 E1.0023
G1 X-0.5 Y0.866 Z0.072 E1.0026
G1 X-0.5 Y0.866 Z0.0684 E1.0023
G1 X-0.5 Y0.866 Z0.0648 E1.0021
G1 X-0.5 Y0.866 Z0.0612 E1.0019
G1 X-0.5 Y0.866 Z0.0576 E1.0017
G1 X-0.5 Y0.866 Z0.054 E1.0015
G1 X-0.5 Y0.866 Z0.0504 E1.0013
G1 X-0.5 Y0.866 Z0.0468 E1.0011
G1 X-0.5 Y0.866 Z0.0432 E1.0009
G1 X-0.5 Y0.866 Z0.0396 E1.0008
G1 X-0.5 Y0.866 Z0.036 E1.0006
G1 X-0.5 Y0.866 Z0.0324 E1.0005
G1 X-0.5 Y0.866 Z0.0288 E1.0004
G1 X-0.5 Y0.866 Z0.0252 E1.0003
G1 X-0.5 Y0.866 Z0.0216 E1.0002
G1 X-0.5 Y0.866 Z0.018 E1.0002
G1 X-0.5 Y0.866 Z0.0144 E1.0001
G1 X-0.5 Y0.866 Z0.0108 E1.0001
G1 X-0.5 Y0.866 Z0.0072 E1.0
G1 X-0.5 Y0.866 Z0.0036 E1.0
G1 X-0.5 Y0.866 E1.0
G1 X-0.5 Y0.866 Z-0.0036 E1.0
G1 X-0.5 Y0.866 Z-0.0072 E1.0
G1 X-0.5 Y0.866 Z-0.0108 E1.0001
G1 X-0.5 Y0.866 Z-0.0144 E1.0001
G1 X-0.5 Y0.866 Z-0.018 E1.0002
G1 X-0.5 Y0.866 Z-0.0216 E1.0002
G1 X-0.5 Y0.866 Z-0.0252 E1.0003
G1 X-0.5 Y0.866 Z-0.0288 E1.0004
G1 X-0.5 Y0.866 Z-0.0324 E1.0005
G1 X-0.5 Y0.866 Z-0.036 E1.0006
G1 X-0.5 Y0.866 Z-0.0396 E1.0008
G1 X-0.5 Y0.866 Z-0.0432 E1.0009
G1 X-0.5 Y0.866 Z-0.0468 E1.0011
G1 X-0.5 Y0.866 Z-0.0504 E1.0013
G1 X-0.5 Y0.866 Z-0.054 E1.0015
G1 X-0.5 Y0.866 Z-0.0576 E1.0017
G1 X-0.5 Y0.866 Z-0.0612 E1.0019
G1 X-0.5 Y0.866 Z-0.0648 E1.0021
G1 X-0.5 Y0.866 Z-0.0684 E1.0023
G1 X0.766 Y0.6428 Z0.072 E1.0026
G1 X0.766 Y0.6428 Z0.0684 E1.0023
G1 X0.766 Y0.6428 Z0.0648 E1.0021
G1 X0.766 Y0.6428 Z0.0612 E1.0019
G1 X0.766 Y0.6428 Z0.0576 E1.0017
G1 X0.766 Y0.6428 Z0.054 E1.0015
G1 X0.766 Y0.6428 Z0.0504 E1.0013
G1 X0.766 Y0.6428 Z0.0468 E1.0011
G1 X0.766 Y0.6428 Z0.0432 E1.0009
G1 X0.766 Y0.6428 Z0.0396 E1.0008
G1 X0.766 Y0.6428 Z0.036 E1.0006
G1 X0.766 Y0.6428 Z0.0324 E1.0005
G1 X0.766 Y0.6428 Z0.0288 E1.0004
G1 X0.766 Y0.6428 Z0.0252 E1.0003
G1 X0.766 Y0.6428 Z0.0216 E1.0002
G1 X0.766 Y0.6428 Z0.018 E1.0002
G1 X0.766 Y0.6428 Z0.0144 E1.0001
G1 X0.766 Y0.6428 Z0.0108 E1.0001
G1 X0.766 Y0.6428 Z0.0072 E1.0
G1 X0.766 Y0.6428 Z0.0036 E1.0
G1 X0.766 Y0.6428 E1.0
G1 X0.766 Y0.6428 Z-0.0036 E1.0
G1 X0.766 Y0.6428 Z-0.0072 E1.0
G1 X0.766 Y0.6428 Z-0.0108 E1.0001
G1 X0.766 Y0.6428 Z-0.0144 E1.0001
G1 X0.766 Y0.6428 Z-0.018 E1.0002
G1 X0.766 Y0.6428 Z-0.0216 E1.0002
G1 X0.766 Y0.6428 Z-0.0252 E1.0003
G1 X0.766 Y0.6428 Z-0.0288 E1.0004
G1 X0.766 Y0.6428 Z-0.0324 E1.0005
G1 X0.766 Y0.6428 Z-0.036 E1.0006
G1 X0.766 Y0.6428 Z-0.0396 E1.0008
G1 X0.766 Y0.6428 Z-0.0432 E1.0009
G1 X0.766 Y0.6428 Z-0.0468 E1.0011
G1 X0.766 Y0.6428 Z-0.0504 E1.0013
G1 X0.766 Y0.6428 Z-0.054 E1.0015
G1 X0.766 Y0.6428 Z-0.0576 E1.0017
G1 X0.766 Y0.6428 Z-0.0612 E1.0019
G1 X0.766 Y0.6428 Z-0.0648 E1.0021
G1 X0.766 Y0.6428 Z-0.0684 E1.0023
G1 X0.766 Y-0.6428 Z0.072 E1.0026
G1 X0.766 Y-0.6428 Z0.0684 E1.0023
G1 X0.766 Y-0.6428 Z0.0648 E1.0021
G1 X0.766 Y-0.6428 Z0.0612 E1.0019
G1 X0.766 Y-0.6428 Z0.0576 E1.0017
G1 X0.766 Y-0.6428 Z0.054 E1.0015
G1 X0.766 Y-0.6428 Z0.0504 E1.0013
G1 X0.766 Y-0.6428 Z0.0468 E1.0011
G1 X0.766 Y-0.6428 Z0.0432 E1.0009
G1 X0.766 Y-0.6428 Z0.0396 E1.0008
G1 X0.766 Y-0.6428 Z0.036 E1.0006
G1 X0.766 Y-0.6428 Z0.0324 E1.0005
G1 X0.766 Y-0.6428 Z0.0288 E1.0004
G1 X0.766 Y-0.6428 Z0.0252 E1.0003
G1 X0.766 Y-0.6428 Z0.0216 E1.0002
G1 X0.766 Y-0.6428 Z0.018 E1.0002
G1 X0.766 Y-0.6428 Z0.0144 E1.0001
G1 X0.766 Y-0.6428 Z0.0108 E1.0001
G1 X0.766 Y-0.6428 Z0.0072 E1.0
G1 X0.766 Y-0.6428 Z0.0036 E1.0
G1 X0.766 Y-0.6428 E1.0
G1 X0.766 Y-0.6428 Z-0.0036 E1.0
G1 X0.766 Y-0.6428 Z-0.0072 E1.0
G1 X0.766 Y-0.6428 Z-0.0108 E1.0001
G1 X0.766 Y-0.6428 Z-0.0144 E1.0001
G1 X0.766 Y-0.6428 Z-0.018 E1.0002
G1 X0.766 Y-0.6428 Z-0.0216 E1.0002
G1 X0.766 Y-0.6428 Z-0.0252 E1.0003
G1 X0.766 Y-0.6428 Z-0.0288 E1.0004
G1 X0.766 Y-0.6428 Z-0.0324 E1.0005
G1 X0.766 Y-0.6428 Z-0.036 E1.0006
G1 X0.766 Y-0.6428 Z-0.0396 E1.0008
G1 X0.766 Y-0.6428 Z-0.0432 E1.0009
G1 X0.766 Y-0.6428 Z-0.0468 E1.0011
G1 X0.766 Y-0.6428 Z-0.0504 E1.0013
G1 X0.766 Y-0.6428 Z-0.054 E1.0015
G1 X0.766 Y-0.6428 Z-0.0576 E1.0017
G1 X0.766 Y-0.6428 Z-0.0612 E1.0019
G1 X0.766 Y-0.6428 Z-0.0648 E1.0021
G1 X0.766 Y-0.6428 Z-0.0684 E1.0023
G1 X-0.5 Y-0.866 Z0.072 E1.0026
G1 X-0.5 Y-0.866 Z0.0684 E1.0023
G1 X-0.5 Y-0.866 Z0.0648 E1.0021
G1 X-0.5 Y-0.866 Z0.0612 E1.0019
G1 X-0.5 Y-0.866 Z0.0576 E1.0017
G1 X-0.5 Y-0.866 Z0.054 E1.0015
G1 X-0.5 Y-0.866 Z0.0504 E1.0013
G1 X-0.5 Y-0.866 Z0.0468 E1.0011
G1 X-0.5 Y-0.866 Z0.0432 E1.0009
G1 X-0.5 Y-0.866 Z0.0396 E1.0008
G1 X-0.5 Y-0.866 Z0.036 E1.0006
G1 X-0.5 Y-0.866 Z0.0324 E1.0005
G1 X-0.5 Y-0.866 Z0.0288 E1.0004
G1 X-0.5 Y-0.866 Z0.0252 E1.0003
G1 X-0.5 Y-0.866 Z0.0216 E1.0002
G1 X-0.5 Y-0.866 Z0.018 E1.0002
G1 X-0.5 Y-0.866 Z0.0144 E1.0001
G1 X-0.5 Y-0.866 Z0.0108 E1.0001
G1 X-0.5 Y-0.866 Z0.0072 E1.0
G1 X-0.5 Y-0.866 Z0.0036 E1.0
G1 X-0.5 Y-0.866 E1.0
G1 X-0.5 Y-0.866 Z-0.0036 E1.0
G1 X-0.5 Y-0.866 Z-0.0072 E1.0
G1 X-0.5 Y-0.866 Z-0.0108 E1.0001
G1 X-0.5 Y-0.866 Z-0.0144 E1.0001
G1 X-0.5 Y-0.866 Z-0.018 E1.0002
G1 X-0.5 Y-0.866 Z-0.0216 E1.0002
G1 X-0.5 Y-0.866 Z-0.0252 E1.0003
G1 X-0.5 Y-0.866 Z-0.0288 E1.0004
G1 X-0.5 Y-0.866 Z-0.0324 E1.0005
G1 X-0.5 Y-0.866 Z-0.036 E1.0006
G1 X-0.5 Y-0.866 Z-0.0396 E1.0008
G1 X-0.5 Y-0.866 Z-0.0432 E1.0009
G1 X-0.5 Y-0.866 Z-0.0468 E1.0011
G1 X-0.5 Y-0.866 Z-0.0504 E1.0013
G1 X-0.5 Y-0.866 Z-0.054 E1.0015
G1 X-0.5 Y-0.866 Z-0.0576 E1.0017
G1 X-0.5 Y-0.866 Z-0.0612 E1.0019
G1 X-0.5 Y-0.866 Z-0.0648 E1.0021
G1 X-0.5 Y-0.866 Z-0.0684 E1.0023
G1 Z0.15
G1 X-0.9397 Y0.342 Z0.08 E1.0032
G1 X-0.9397 Y0.342 Z0.076 E1.0029
G1 X-0.9397 Y0.342 Z0.072 E1.0026
G1 X-0.9397 Y0.342 Z0.068 E1.0023
G1 X-0.9397 Y0.342 Z0.064 E1.002
G1 X-0.9397 Y0.342 Z0.06 E1.0018
G1 X-0.9397 Y0.342 Z0.056 E1.0016
G1 X-0.9397 Y0.342 Z0.052 E1.0014
G1 X-0.9397 Y0.342 Z0.048 E1.0012
G1 X-0.9397 Y0.342 Z0.044 E1.001
G1 X-0.9397 Y0.342 Z0.04 E1.0008
G1 X-0.9397 Y0.342 Z0.036 E1.0006
G1 X-0.9397 Y0.342 Z0.032 E1.0005
G1 X-0.9397 Y0.342 Z0.028 E1.0004
G1 X-0.9397 Y0.342 Z0.024 E1.0003
G1 X-0.9397 Y0.342 Z0.02 E1.0002
G1 X-0.9397 Y0.342 Z0.016 E1.0001
G1 X-0.9397 Y0.342 Z0.012 E1.0001
G1 X-0.9397 Y0.342 Z0.008 E1.0
G1 X-0.9397 Y0.342 Z0.004 E1.0
G1 X-0.9397 Y0.342 E1.0
G1 X-0.9397 Y0.342 Z-0.004 E1.0
G1 X-0.9397 Y0.342 Z-0.008 E1.0
G1 X-0.9397 Y0.342 Z-0.012 E1.0001
G1 X-0.9397 Y0.342 Z-0.016 E1.0001
G1 X-0.9397 Y0.342 Z-0.02 E1.0002
G1 X-0.9397 Y0.342 Z-0.024 E1.0003
G1 X-0.9397 Y0.342 Z-0.028 E1.0004
G1 X-0.9397 Y0.342 Z-0.032 E1.0005
G1 X-0.9397 Y0.342 Z-0.036 E1.0006
G1 X-0.9397 Y0.342 Z-0.04 E1.0008
G1 X-0.9397 Y0.342 Z-0.044 E1.001
G1 X-0.9397 Y0.342 Z-0.048 E1.0012
G1 X-0.9397 Y0.342 Z-0.052 E1.0014
G1 X-0.9397 Y0.342 Z-0.056 E1.0016
G1 X-0.9397 Y0.342 Z-0.06 E1.0018
G1 X-0.9397 Y0.342 Z-0.064 E1.002
G1 X-0.9397 Y0.342 Z-0.068 E1.0023
G1 X-0.9397 Y0.342 Z-0.072 E1.0026
G1 X-0.9397 Y0.342 Z-0.076 E1.0029
G1 X0.1736 Y0.9848 Z0.08 E1.0032
G1 X0.1736 Y0.9848 Z0.076 E1.0029
G1 X0.1736 Y0.9848 Z0.072 E1.0026
G1 X0.1736 Y0.9848 Z0.068 E1.0023
G1 X0.1736 Y0.9848 Z0.064 E1.002
G1 X0.1736 Y0.9848 Z0.06 E1.0018
G1 X0.1736 Y0.9848 Z0.056 E1.0016
G1 X0.1736 Y0.9848 Z0.052 E1.0014
G1 X0.1736 Y0.9848 Z0.048 E1.0012
G1 X0.1736 Y0.9848 Z0.044 E1.001
G1 X0.1736 Y0.9848 Z0.04 E1.0008
G1 X0.1736 Y0.9848 Z0.036 E1.0006
G1 X0.1736 Y0.9848 Z0.032 E1.0005
G1 X0.1736 Y0.9848 Z0.028 E1.0004
G1 X0.1736 Y0.9848 Z0.024 E1.0003
G1 X0.1736 Y0.9848 Z0.02 E1.0002
G1 X0.1736 Y0.9848 Z0.016 E1.0001
G1 X0.1736 Y0.9848 Z0.012 E1.0001
G1 X0.1736 Y0.9848 Z0.008 E1.0
G1 X0.1736 Y0.9848 Z0.004 E1.0
G1 X0.1736 Y0.9848 E1.0
G1 X0.1736 Y0.9848 Z-0.004 E1.0
G1 X0.1736 Y0.9848 Z-0.008 E1.0
G1 X0.1736 Y0.9848 Z-0.012 E1.0001
G1 X0.1736 Y0.9848 Z-0.016 E1.0001
G1 X0.1736 Y0.9848 Z-0.02 E1.0002
G1 X0.1736 Y0.9848 Z-0.024 E1.0003
G1 X0.1736 Y0.9848 Z-0.028 E1.0004
G1 X0.1736 Y0.9848 Z-0.032 E1.0005
G1 X0.1736 Y0.9848 Z-0.036 E1.0006
G1 X0.1736 Y0.9848 Z-0.04 E1.0008
G1 X0.1736 Y0.9848 Z-0.044 E1.001
G1 X0.1736 Y0.9848 Z-0.048 E1.0012
G1 X0.1736 Y0.9848 Z-0.052 E1.0014
G1 X0.1736 Y0.9848 Z-0.056 E1.0016
G1 X0.1736 Y0.9848 Z-0.06 E1.0018
G1 X0.1736 Y0.9848 Z-0.064 E1.002
G1 X0.1736 Y0.9848 Z-0.068 E1.0023
G1 X0.1736 Y0.9848 Z-0.072 E1.0026
G1 X0.1736 Y0.9848 Z-0.076 E1.0029
G1 X1.0 Y0.0 Z0.08 E1.0032
G1 X1.0 Y0.0 Z0.076 E1.0029
G1 X1.0 Y0.0 Z0.072 E1.0026
G1 X1.0 Y0.0 Z0.068 E1.0023
G1 X1.0 Y0.0 Z0.064 E1.002
G1 X1.0 Y0.0 Z0.06 E1.0018
G1 X1.0 Y0.0 Z0.056 E1.0016
G1 X1.0 Y0.0 Z0.052 E1.0014
G1 X1.0 Y0.0 Z0.048 E1.0012
G1 X1.0 Y0.0 Z0.044 E1.001
G1 X1.0 Y0.0 Z0.04 E1.0008
G1 X1.0 Y0.0 Z0.036 E1.0006
G1 X1.0 Y0.0 Z0.032 E1.0005
G1 X1.0 Y0.0 Z0.028 E1.0004
G1 X1.0 Y0.0 Z0.024 E1.0003
G1 X1.0 Y0.0 Z0.02 E1.0002
G1 X1.0 Y0.0 Z0.016 E1.0001
G1 X1.0 Y0.0 Z0.012 E1.0001
G1 X1.0 Y0.0 Z0.008 E1.0
G1 X1.0 Y0.0 Z0.004 E1.0
G1 X1.0 Y0.0 E1.0
G1 X1.0 Y0.0 Z-0.004 E1.0
G1 X1.0 Y0.0 Z-0.008 E1.0
G1 X1.0 Y0.0 Z-0.012 E1.0001
G1 X1.0 Y0.0 Z-0.016 E1.0001
G1 X1.0 Y0.0 Z-0.02 E1.0002
G1 X1.0 Y0.0 Z-0.024 E1.0003
G1 X1.0 Y0.0 Z-0.028 E1.0004
G1 X1.0 Y0.0 Z-0.032 E1.0005
G1 X1.0 Y0.0 Z-0.036 E1.0006
G1 X1.0 Y0.0 Z-0.04 E1.0008
G1 X1.0 Y0.0 Z-0.044 E1.001
G1 X1.0 Y0.0 Z-0.048 E1.0012
G1 X1.0 Y0.0 Z-0.052 E1.0014
G1 X1.0 Y0.0 Z-0.056 E1.0016
G1 X1.0 Y0.0 Z-0.06 E1.0018
G1 X1.0 Y0.0 Z-0.064 E1.002
G1 X1.0 Y0.0 Z-0.068 E1.0023
G1 X1.0 Y0.0 Z-0.072 E1.0026
G1 X1.0 Y0.0 Z-0.076 E1.0029
G1 X0.1736 Y-0.9848 Z0.08 E1.0032
G1 X0.1736 Y-0.9848 Z0.076 E1.0029
G1 X0.1736 Y-0.9848 Z0.072 E1.0026
G1 X0.1736 Y-0.9848 Z0.068 E1.0023
G1 X0.1736 Y-0.9848 Z0.064 E1.002
G1 X0.1736 Y-0.9848 Z0.06 E1.0018
G1 X0.1736 Y-0.9848 Z0.056 E1.0016
G1 X0.1736 Y-0.9848 Z0.052 E1.0014
G1 X0.1736 Y-0.9848 Z0.048 E1.0012
G1 X0.1736 Y-0.9848 Z0.044 E1.001
G1 X0.1736 Y-0.9848 Z0.04 E1.0008
G1 X0.1736 Y-0.9848 Z0.036 E1.0006
G1 X0.1736 Y-0.9848 Z0.032 E1.0005
G1 X0.1736 Y-0.9848 Z0.028 E1.0004
G1 X0.1736 Y-0.9848 Z0.024 E1.0003
G1 X0.1736 Y-0.9848 Z0.02 E1.0002
G1 X0.1736 Y-0.9848 Z0.016 E1.0001
G1 X0.1736 Y-0.9848 Z0.012 E1.0001
G1 X0.1736 Y-0.9848 Z0.008 E1.0
G1 X0.1736 Y-0.9848 Z0.004 E1.0
G1 X0.1736 Y-0.9848 E1.0
G1 X0.1736 Y-0.9848 Z-0.004 E1.0
G1 X0.1736 Y-0.9848 Z-0.008 E1.0
G1 X0.1736 Y-0.9848 Z-0.012 E1.0001
G1 X0.1736 Y-0.9848 Z-0.016 E1.0001
G1 X0.1736 Y-0.9848 Z-0.02 E1.0002
G1 X0.1736 Y-0.9848 Z-0.024 E1.0003
G1 X0.1736 Y-0.9848 Z-0.028 E1.0004
G1 X0.1736 Y-0.9848 Z-0.032 E1.0005
G1 X0.1736 Y-0.9848 Z-0.036 E1.0006
G1 X0.1736 Y-0.9848 Z-0.04 E1.0008
G1 X0.1736 Y-0.9848 Z-0.044 E1.001
G1 X0.1736 Y-0.9848 Z-0.048 E1.0012
G1 X0.1736 Y-0.9848 Z-0.052 E1.0014
G1 X0.1736 Y-0.9848 Z-0.056 E1.0016
G1 X0.1736 Y-0.9848 Z-0.06 E1.0018
G1 X0.1736 Y-0.9848 Z-0.064 E1.002
G1 X0.1736 Y-0.9848 Z-0.068 E1.0023
G1 X0.1736 Y-0.9848 Z-0.072 E1.0026
G1 X0.1736 Y-0.9848 Z-0.076 E1.0029
G1 X-0.9397 Y-0.342 Z0.08 E1.0032
G1 X-0.9397 Y-0.342 Z0.076 E1.0029
G1 X-0.9397 Y-0.342 Z0.072 E1.0026
G1 X-0.9397 Y-0.342 Z0.068 E1.0023
G1 X-0.9397 Y-0.342 Z0.064 E1.002
G1 X-0.9397 Y-0.342 Z0.06 E1.0018
G1 X-0.9397 Y-0.342 Z0.056 E1.0016
G1 X-0.9397 Y-0.342 Z0.052 E1.0014
G1 X-0.9397 Y-0.342 Z0.048 E1.0012
G1 X-0.9397 Y-0.342 Z0.044 E1.001
G1 X-0.9397 Y-0.342 Z0.04 E1.0008
G1 X-0.9397 Y-0.342 Z0.036 E1.0006
G1 X-0.9397 Y-0.342 Z0.032 E1.0005
G1 X-0.9397 Y-0.342 Z0.028 E1.0004
G1 X-0.9397 Y-0.342 Z0.024 E1.0003
G1 X-0.9397 Y-0.342 Z0.02 E1.0002
G1 X-0.9397 Y-0.342 Z0.016 E1.0001
G1 X-0.9397 Y-0.342 Z0.012 E1.0001
G1 X-0.9397 Y-0.342 Z0.008 E1.0
G1 X-0.9397 Y-0.342 Z0.004 E1.0
G1 X-0.9397 Y-0.342 E1.0
G1 X-0.9397 Y-0.342 Z-0.004 E1.0
G1 X-0.9397 Y-0.342 Z-0.008 E1.0
G1 X-0.9397 Y-0.342 Z-0.012 E1.0001
G1 X-0.9397 Y-0.342 Z-0.016 E1.0001
G1 X-0.9397 Y-0.342 Z-0.02 E1.0002
G1 X-0.9397 Y-0.342 Z-0.024 E1.0003
G1 X-0.9397 Y-0.342 Z-0.028 E1.0004
G1 X-0.9397 Y-0.342 Z-0.032 E1.0005
G1 X-0.9397 Y-0.342 Z-0.036 E1.0006
G1 X-0.9397 Y-0.342 Z-0.04 E1.0008
G1 X-0.9397 Y-0.342 Z-0.044 E1.001
G1 X-0.9397 Y-0.342 Z-0.048 E1.0012
G1 X-0.9397 Y-0.342 Z-0.052 E1.0014
G1 X-0.9397 Y-0.342 Z-0.056 E1.0016
G1 X-0.9397 Y-0.342 Z-0.06 E1.0018
G1 X-0.9397 Y-0.342 Z-0.064 E1.002
G1 X-0.9397 Y-0.342 Z-0.068 E1.0023
G1 X-0.9397 Y-0.342 Z-0.072 E1.0026
G1 X-0.9397 Y-0.342 Z-0.076 E1.0029
