; *************************************************
; *************************************************
; ******* File generated by Extruder Turtle *******
; ******* written by Leah Buechley and  ***********
; ******* and Franklin Pezutti-Dyer ***************
; **** Hand and Machine Lab, UNM, 2021-present ****
; *************************************************
; *************************************************
; *************** Eazao initialization **************
G21	           ; Metric units
G90            ; Absolute positioning
M82            ; Absolute extrusion
M302           ; Allow cold extrusion
G28            ; Home
G1 Z15.0 F1500 ; Move down 15mm

G92 E0         ; Zero extruder
G1 F2000 E20   ; Prime Extruder: Extrude 20mm of clay
G92 E0         ; Zero extruder

; Clay mix factor
M163 S0 P0.9   ; Set Mix Factor small auger extruder
M163 S1 P0.1   ; Set Mix Factor large plunger extruder
M164 S0		   ; Finalize mix


G0 F2000 X75.0 Y88.0 Z0 ; Move to starting position
M83 					; Relative extrustion
G91                     ; Relative coordinates for X,Y,Z axes
G1 F1000
; ********** End printer initialization ***********
; *************************************************

G1 F500
; ***************** Print parameters **************
; Nozzle size: 1.5
; Extrude width: 2.25
; Layer height: 1.0
; Extrude rate: 1.0
; Speed: 1000
; Mix Factor: 0.9
; *************************************************

G1 X1.0 Y0.0 E1.0
G1 X1.0 Y0.0 E1.0
G1 X1.0 Y0.0 E1.0
G1 X1.0 Y0.0 E1.0
G1 X1.0 Y0.0 E1.0
G1 X1.0 Y0.0 E1.0
G1 X1.0 Y0.0 E1.0
G1 X1.0 Y0.0 E1.0
G1 X1.0 Y0.0 E1.0
G1 X1.0 Y0.0 E1.0
G1 X1.0 Y0.0 E1.0
G1 X1.0 Y0.0 E1.0
G1 X1.0 Y0.0 E1.0
G1 X1.0 Y0.0 E1.0
G1 X1.0 Y0.0 E1.0
G1 X1.0 Y0.0 E1.0
G1 X1.0 Y0.0 E1.0
G1 X1.0 Y0.0 E1.0
G1 X1.0 Y0.0 E1.0
G1 X1.0 Y0.0 E1.0
G1 X1.0 Y0.0 E1.0
G1 X1.0 Y0.0 E1.0
G1 X1.0 Y0.0 E1.0
G1 X1.0 Y0.0 E1.0
G1 X1.0 Y0.0 E1.0
G1 X1.0 Y0.0 E1.0
G1 X1.0 Y0.0 E1.0
G1 X1.0 Y0.0 E1.0
G1 X1.0 Y0.0 E1.0
G1 X1.0 Y0.0 E1.0
G1 X1.0 Y0.0 E1.0
G1 X1.0 Y0.0 E1.0
G1 X1.0 Y0.0 E1.0
G1 X1.0 Y0.0 E1.0
G1 X1.0 Y0.0 E1.0
G1 X1.0 Y0.0 E1.0
G1 X1.0 Y0.0 E1.0
G1 X1.0 Y0.0 E1.0
G1 X1.0 Y0.0 E1.0
G1 X1.0 Y0.0 E1.0
G1 X1.0 Y0.0 E1.0
G1 X1.0 Y0.0 E1.0
G1 X1.0 Y0.0 E1.0
G1 X1.0 Y0.0 E1.0
G1 X1.0 Y0.0 E1.0
G1 X1.0 Y0.0 E1.0
G1 X1.0 Y0.0 E1.0
G1 X1.0 Y0.0 E1.0
G1 X1.0 Y0.0 E1.0
G1 X1.0 Y0.0 E1.0
G1 X1.0 Y0.0 E1.0
G1 X0.5 Y-0.866 E1.0
G1 X0.5 Y-0.866 E1.0
G1 X0.5 Y-0.866 E1.0
G1 X0.5 Y-0.866 E1.0
G1 X0.5 Y-0.866 E1.0
G1 X0.5 Y-0.866 E1.0
G1 X0.5 Y-0.866 E1.0
G1 X0.5 Y-0.866 E1.0
G1 X0.5 Y-0.866 E1.0
G1 X0.5 Y-0.866 E1.0
G1 X0.5 Y-0.866 E1.0
G1 X0.5 Y-0.866 E1.0
G1 X0.5 Y-0.866 E1.0
G1 X0.5 Y-0.866 E1.0
G1 X0.5 Y-0.866 E1.0
G1 X0.5 Y-0.866 E1.0
G1 X0.5 Y-0.866 E1.0
G1 X0.5 Y-0.866 E1.0
G1 X0.5 Y-0.866 E1.0
G1 X0.5 Y-0.866 E1.0
G1 X0.5 Y-0.866 E1.0
G1 X0.5 Y-0.866 E1.0
G1 X0.5 Y-0.866 E1.0
G1 X0.5 Y-0.866 E1.0
G1 X0.5 Y-0.866 E1.0
G1 X0.5 Y-0.866 E1.0
G1 X0.5 Y-0.866 E1.0
G1 X0.5 Y-0.866 E1.0
G1 X0.5 Y-0.866 E1.0
G1 X0.5 Y-0.866 E1.0
G1 X0.5 Y-0.866 E1.0
G1 X0.5 Y-0.866 E1.0
G1 X0.5 Y-0.866 E1.0
G1 X0.5 Y-0.866 E1.0
G1 X0.5 Y-0.866 E1.0
G1 X0.5 Y-0.866 E1.0
G1 X0.5 Y-0.866 E1.0
G1 X0.5 Y-0.866 E1.0
G1 X0.5 Y-0.866 E1.0
G1 X0.5 Y-0.866 E1.0
G1 X0.5 Y-0.866 E1.0
G1 X0.5 Y-0.866 E1.0
G1 X0.5 Y-0.866 E1.0
G1 X0.5 Y-0.866 E1.0
G1 X0.5 Y-0.866 E1.0
G1 X0.5 Y-0.866 E1.0
G1 X0.5 Y-0.866 E1.0
G1 X0.5 Y-0.866 E1.0
G1 X0.5 Y-0.866 E1.0
G1 X0.5 Y-0.866 E1.0
G1 X0.5 Y-0.866 E1.0
G1 X-0.5 Y-0.866 E1.0
G1 X-0.5 Y-0.866 E1.0
G1 X-0.5 Y-0.866 E1.0
G1 X-0.5 Y-0.866 E1.0
G1 X-0.5 Y-0.866 E1.0
G1 X-0.5 Y-0.866 E1.0
G1 X-0.5 Y-0.866 E1.0
G1 X-0.5 Y-0.866 E1.0
G1 X-0.5 Y-0.866 E1.0
G1 X-0.5 Y-0.866 E1.0
G1 X-0.5 Y-0.866 E1.0
G1 X-0.5 Y-0.866 E1.0
G1 X-0.5 Y-0.866 E1.0
G1 X-0.5 Y-0.866 E1.0
G1 X-0.5 Y-0.866 E1.0
G1 X-0.5 Y-0.866 E1.0
G1 X-0.5 Y-0.866 E1.0
G1 X-0.5 Y-0.866 E1.0
G1 X-0.5 Y-0.866 E1.0
G1 X-0.5 Y-0.866 E1.0
G1 X-0.5 Y-0.866 E1.0
G1 X-0.5 Y-0.866 E1.0
G1 X-0.5 Y-0.866 E1.0
G1 X-0.5 Y-0.866 E1.0
G1 X-0.5 Y-0.866 E1.0
G1 X-0.5 Y-0.866 E1.0
G1 X-0.5 Y-0.866 E1.0
G1 X-0.5 Y-0.866 E1.0
G1 X-0.5 Y-0.866 E1.0
G1 X-0.5 Y-0.866 E1.0
G1 X-0.5 Y-0.866 E1.0
G1 X-0.5 Y-0.866 E1.0
G1 X-0.5 Y-0.866 E1.0
G1 X-0.5 Y-0.866 E1.0
G1 X-0.5 Y-0.866 E1.0
G1 X-0.5 Y-0.866 E1.0
G1 X-0.5 Y-0.866 E1.0
G1 X-0.5 Y-0.866 E1.0
G1 X-0.5 Y-0.866 E1.0
G1 X-0.5 Y-0.866 E1.0
G1 X-0.5 Y-0.866 E1.0
G1 X-0.5 Y-0.866 E1.0
G1 X-0.5 Y-0.866 E1.0
G1 X-0.5 Y-0.866 E1.0
G1 X-0.5 Y-0.866 E1.0
G1 X-0.5 Y-0.866 E1.0
G1 X-0.5 Y-0.866 E1.0
G1 X-0.5 Y-0.866 E1.0
G1 X-0.5 Y-0.866 E1.0
G1 X-0.5 Y-0.866 E1.0
G1 X-0.5 Y-0.866 E1.0
G1 X-1.0 Y-0.0 E1.0
G1 X-1.0 Y-0.0 E1.0
G1 X-1.0 Y-0.0 E1.0
G1 X-1.0 Y-0.0 E1.0
G1 X-1.0 Y-0.0 E1.0
G1 X-1.0 Y-0.0 E1.0
G1 X-1.0 Y-0.0 E1.0
G1 X-1.0 Y-0.0 E1.0
G1 X-1.0 Y-0.0 E1.0
G1 X-1.0 Y-0.0 E1.0
G1 X-1.0 Y-0.0 E1.0
G1 X-1.0 Y-0.0 E1.0
G1 X-1.0 Y-0.0 E1.0
G1 X-1.0 Y-0.0 E1.0
G1 X-1.0 Y-0.0 E1.0
G1 X-1.0 Y-0.0 E1.0
G1 X-1.0 Y-0.0 E1.0
G1 X-1.0 Y-0.0 E1.0
G1 X-1.0 Y-0.0 E1.0
G1 X-1.0 Y-0.0 E1.0
G1 X-1.0 Y-0.0 E1.0
G1 X-1.0 Y-0.0 E1.0
G1 X-1.0 Y-0.0 E1.0
G1 X-1.0 Y-0.0 E1.0
G1 X-1.0 Y-0.0 E1.0
G1 X-1.0 Y-0.0 E1.0
G1 X-1.0 Y-0.0 E1.0
G1 X-1.0 Y-0.0 E1.0
G1 X-1.0 Y-0.0 E1.0
G1 X-1.0 Y-0.0 E1.0
G1 X-1.0 Y-0.0 E1.0
G1 X-1.0 Y-0.0 E1.0
G1 X-1.0 Y-0.0 E1.0
G1 X-1.0 Y-0.0 E1.0
G1 X-1.0 Y-0.0 E1.0
G1 X-1.0 Y-0.0 E1.0
G1 X-1.0 Y-0.0 E1.0
G1 X-1.0 Y-0.0 E1.0
G1 X-1.0 Y-0.0 E1.0
G1 X-1.0 Y-0.0 E1.0
G1 X-1.0 Y-0.0 E1.0
G1 X-1.0 Y-0.0 E1.0
G1 X-1.0 Y-0.0 E1.0
G1 X-1.0 Y-0.0 E1.0
G1 X-1.0 Y-0.0 E1.0
G1 X-1.0 Y-0.0 E1.0
G1 X-1.0 Y-0.0 E1.0
G1 X-1.0 Y-0.0 E1.0
G1 X-1.0 Y-0.0 E1.0
G1 X-1.0 Y-0.0 E1.0
G1 X-1.0 Y-0.0 E1.0
G1 X-0.5 Y0.866 E1.0
G1 X-0.5 Y0.866 E1.0
G1 X-0.5 Y0.866 E1.0
G1 X-0.5 Y0.866 E1.0
G1 X-0.5 Y0.866 E1.0
G1 X-0.5 Y0.866 E1.0
G1 X-0.5 Y0.866 E1.0
G1 X-0.5 Y0.866 E1.0
G1 X-0.5 Y0.866 E1.0
G1 X-0.5 Y0.866 E1.0
G1 X-0.5 Y0.866 E1.0
G1 X-0.5 Y0.866 E1.0
G1 X-0.5 Y0.866 E1.0
G1 X-0.5 Y0.866 E1.0
G1 X-0.5 Y0.866 E1.0
G1 X-0.5 Y0.866 E1.0
G1 X-0.5 Y0.866 E1.0
G1 X-0.5 Y0.866 E1.0
G1 X-0.5 Y0.866 E1.0
G1 X-0.5 Y0.866 E1.0
G1 X-0.5 Y0.866 E1.0
G1 X-0.5 Y0.866 E1.0
G1 X-0.5 Y0.866 E1.0
G1 X-0.5 Y0.866 E1.0
G1 X-0.5 Y0.866 E1.0
G1 X-0.5 Y0.866 E1.0
G1 X-0.5 Y0.866 E1.0
G1 X-0.5 Y0.866 E1.0
G1 X-0.5 Y0.866 E1.0
G1 X-0.5 Y0.866 E1.0
G1 X-0.5 Y0.866 E1.0
G1 X-0.5 Y0.866 E1.0
G1 X-0.5 Y0.866 E1.0
G1 X-0.5 Y0.866 E1.0
G1 X-0.5 Y0.866 E1.0
G1 X-0.5 Y0.866 E1.0
G1 X-0.5 Y0.866 E1.0
G1 X-0.5 Y0.866 E1.0
G1 X-0.5 Y0.866 E1.0
G1 X-0.5 Y0.866 E1.0
G1 X-0.5 Y0.866 E1.0
G1 X-0.5 Y0.866 E1.0
G1 X-0.5 Y0.866 E1.0
G1 X-0.5 Y0.866 E1.0
G1 X-0.5 Y0.866 E1.0
G1 X-0.5 Y0.866 E1.0
G1 X-0.5 Y0.866 E1.0
G1 X-0.5 Y0.866 E1.0
G1 X-0.5 Y0.866 E1.0
G1 X-0.5 Y0.866 E1.0
G1 X-0.5 Y0.866 E1.0
G1 Z0.15
G1 X0.5 Y0.866 Z0.0333 E1.0006
G1 X0.5 Y0.866 Z0.032 E1.0005
G1 X0.5 Y0.866 Z0.0307 E1.0005
G1 X0.5 Y0.866 Z0.0293 E1.0004
G1 X0.5 Y0.866 Z0.028 E1.0004
G1 X0.5 Y0.866 Z0.0267 E1.0004
G1 X0.5 Y0.866 Z0.0253 E1.0003
G1 X0.5 Y0.866 Z0.024 E1.0003
G1 X0.5 Y0.866 Z0.0227 E1.0003
G1 X0.5 Y0.866 Z0.0213 E1.0002
G1 X0.5 Y0.866 Z0.02 E1.0002
G1 X0.5 Y0.866 Z0.0187 E1.0002
G1 X0.5 Y0.866 Z0.0173 E1.0002
G1 X0.5 Y0.866 Z0.016 E1.0001
G1 X0.5 Y0.866 Z0.0147 E1.0001
G1 X0.5 Y0.866 Z0.0133 E1.0001
G1 X0.5 Y0.866 Z0.012 E1.0001
G1 X0.5 Y0.866 Z0.0107 E1.0001
G1 X0.5 Y0.866 Z0.0093 E1.0
G1 X0.5 Y0.866 Z0.008 E1.0
G1 X0.5 Y0.866 Z0.0067 E1.0
G1 X0.5 Y0.866 Z0.0053 E1.0
G1 X0.5 Y0.866 Z0.004 E1.0
G1 X0.5 Y0.866 Z0.0027 E1.0
G1 X0.5 Y0.866 Z0.0013 E1.0
G1 X0.5 Y0.866 E1.0
G1 X0.5 Y0.866 Z-0.0013 E1.0
G1 X0.5 Y0.866 Z-0.0027 E1.0
G1 X0.5 Y0.866 Z-0.004 E1.0
G1 X0.5 Y0.866 Z-0.0053 E1.0
G1 X0.5 Y0.866 Z-0.0067 E1.0
G1 X0.5 Y0.866 Z-0.008 E1.0
G1 X0.5 Y0.866 Z-0.0093 E1.0
G1 X0.5 Y0.866 Z-0.0107 E1.0001
G1 X0.5 Y0.866 Z-0.012 E1.0001
G1 X0.5 Y0.866 Z-0.0133 E1.0001
G1 X0.5 Y0.866 Z-0.0147 E1.0001
G1 X0.5 Y0.866 Z-0.016 E1.0001
G1 X0.5 Y0.866 Z-0.0173 E1.0002
G1 X0.5 Y0.866 Z-0.0187 E1.0002
G1 X0.5 Y0.866 Z-0.02 E1.0002
G1 X0.5 Y0.866 Z-0.0213 E1.0002
G1 X0.5 Y0.866 Z-0.0227 E1.0003
G1 X0.5 Y0.866 Z-0.024 E1.0003
G1 X0.5 Y0.866 Z-0.0253 E1.0003
G1 X0.5 Y0.866 Z-0.0267 E1.0004
G1 X0.5 Y0.866 Z-0.028 E1.0004
G1 X0.5 Y0.866 Z-0.0293 E1.0004
G1 X0.5 Y0.866 Z-0.0307 E1.0005
G1 X0.5 Y0.866 Z-0.032 E1.0005
G1 X0.5 Y0.866 Z-0.0333 E1.0006
G1 X1.0 Y0.0 Z0.0333 E1.0006
G1 X1.0 Y0.0 Z0.032 E1.0005
G1 X1.0 Y0.0 Z0.0307 E1.0005
G1 X1.0 Y0.0 Z0.0293 E1.0004
G1 X1.0 Y0.0 Z0.028 E1.0004
G1 X1.0 Y0.0 Z0.0267 E1.0004
G1 X1.0 Y0.0 Z0.0253 E1.0003
G1 X1.0 Y0.0 Z0.024 E1.0003
G1 X1.0 Y0.0 Z0.0227 E1.0003
G1 X1.0 Y0.0 Z0.0213 E1.0002
G1 X1.0 Y0.0 Z0.02 E1.0002
G1 X1.0 Y0.0 Z0.0187 E1.0002
G1 X1.0 Y0.0 Z0.0173 E1.0002
G1 X1.0 Y0.0 Z0.016 E1.0001
G1 X1.0 Y0.0 Z0.0147 E1.0001
G1 X1.0 Y0.0 Z0.0133 E1.0001
G1 X1.0 Y0.0 Z0.012 E1.0001
G1 X1.0 Y0.0 Z0.0107 E1.0001
G1 X1.0 Y0.0 Z0.0093 E1.0
G1 X1.0 Y0.0 Z0.008 E1.0
G1 X1.0 Y0.0 Z0.0067 E1.0
G1 X1.0 Y0.0 Z0.0053 E1.0
G1 X1.0 Y0.0 Z0.004 E1.0
G1 X1.0 Y0.0 Z0.0027 E1.0
G1 X1.0 Y0.0 Z0.0013 E1.0
G1 X1.0 Y0.0 E1.0
G1 X1.0 Y0.0 Z-0.0013 E1.0
G1 X1.0 Y0.0 Z-0.0027 E1.0
G1 X1.0 Y0.0 Z-0.004 E1.0
G1 X1.0 Y0.0 Z-0.0053 E1.0
G1 X1.0 Y0.0 Z-0.0067 E1.0
G1 X1.0 Y0.0 Z-0.008 E1.0
G1 X1.0 Y0.0 Z-0.0093 E1.0
G1 X1.0 Y0.0 Z-0.0107 E1.0001
G1 X1.0 Y0.0 Z-0.012 E1.0001
G1 X1.0 Y0.0 Z-0.0133 E1.0001
G1 X1.0 Y0.0 Z-0.0147 E1.0001
G1 X1.0 Y0.0 Z-0.016 E1.0001
G1 X1.0 Y0.0 Z-0.0173 E1.0002
G1 X1.0 Y0.0 Z-0.0187 E1.0002
G1 X1.0 Y0.0 Z-0.02 E1.0002
G1 X1.0 Y0.0 Z-0.0213 E1.0002
G1 X1.0 Y0.0 Z-0.0227 E1.0003
G1 X1.0 Y0.0 Z-0.024 E1.0003
G1 X1.0 Y0.0 Z-0.0253 E1.0003
G1 X1.0 Y0.0 Z-0.0267 E1.0004
G1 X1.0 Y0.0 Z-0.028 E1.0004
G1 X1.0 Y0.0 Z-0.0293 E1.0004
G1 X1.0 Y0.0 Z-0.0307 E1.0005
G1 X1.0 Y0.0 Z-0.032 E1.0005
G1 X1.0 Y0.0 Z-0.0333 E1.0006
G1 X0.5 Y-0.866 Z0.0333 E1.0006
G1 X0.5 Y-0.866 Z0.032 E1.0005
G1 X0.5 Y-0.866 Z0.0307 E1.0005
G1 X0.5 Y-0.866 Z0.0293 E1.0004
G1 X0.5 Y-0.866 Z0.028 E1.0004
G1 X0.5 Y-0.866 Z0.0267 E1.0004
G1 X0.5 Y-0.866 Z0.0253 E1.0003
G1 X0.5 Y-0.866 Z0.024 E1.0003
G1 X0.5 Y-0.866 Z0.0227 E1.0003
G1 X0.5 Y-0.866 Z0.0213 E1.0002
G1 X0.5 Y-0.866 Z0.02 E1.0002
G1 X0.5 Y-0.866 Z0.0187 E1.0002
G1 X0.5 Y-0.866 Z0.0173 E1.0002
G1 X0.5 Y-0.866 Z0.016 E1.0001
G1 X0.5 Y-0.866 Z0.0147 E1.0001
G1 X0.5 Y-0.866 Z0.0133 E1.0001
G1 X0.5 Y-0.866 Z0.012 E1.0001
G1 X0.5 Y-0.866 Z0.0107 E1.0001
G1 X0.5 Y-0.866 Z0.0093 E1.0
G1 X0.5 Y-0.866 Z0.008 E1.0
G1 X0.5 Y-0.866 Z0.0067 E1.0
G1 X0.5 Y-0.866 Z0.0053 E1.0
G1 X0.5 Y-0.866 Z0.004 E1.0
G1 X0.5 Y-0.866 Z0.0027 E1.0
G1 X0.5 Y-0.866 Z0.0013 E1.0
G1 X0.5 Y-0.866 E1.0
G1 X0.5 Y-0.866 Z-0.0013 E1.0
G1 X0.5 Y-0.866 Z-0.0027 E1.0
G1 X0.5 Y-0.866 Z-0.004 E1.0
G1 X0.5 Y-0.866 Z-0.0053 E1.0
G1 X0.5 Y-0.866 Z-0.0067 E1.0
G1 X0.5 Y-0.866 Z-0.008 E1.0
G1 X0.5 Y-0.866 Z-0.0093 E1.0
G1 X0.5 Y-0.866 Z-0.0107 E1.0001
G1 X0.5 Y-0.866 Z-0.012 E1.0001
G1 X0.5 Y-0.866 Z-0.0133 E1.0001
G1 X0.5 Y-0.866 Z-0.0147 E1.0001
G1 X0.5 Y-0.866 Z-0.016 E1.0001
G1 X0.5 Y-0.866 Z-0.0173 E1.0002
G1 X0.5 Y-0.866 Z-0.0187 E1.0002
G1 X0.5 Y-0.866 Z-0.02 E1.0002
G1 X0.5 Y-0.866 Z-0.0213 E1.0002
G1 X0.5 Y-0.866 Z-0.0227 E1.0003
G1 X0.5 Y-0.866 Z-0.024 E1.0003
G1 X0.5 Y-0.866 Z-0.0253 E1.0003
G1 X0.5 Y-0.866 Z-0.0267 E1.0004
G1 X0.5 Y-0.866 Z-0.028 E1.0004
G1 X0.5 Y-0.866 Z-0.0293 E1.0004
G1 X0.5 Y-0.866 Z-0.0307 E1.0005
G1 X0.5 Y-0.866 Z-0.032 E1.0005
G1 X0.5 Y-0.866 Z-0.0333 E1.0006
G1 X-0.5 Y-0.866 Z0.0333 E1.0006
G1 X-0.5 Y-0.866 Z0.032 E1.0005
G1 X-0.5 Y-0.866 Z0.0307 E1.0005
G1 X-0.5 Y-0.866 Z0.0293 E1.0004
G1 X-0.5 Y-0.866 Z0.028 E1.0004
G1 X-0.5 Y-0.866 Z0.0267 E1.0004
G1 X-0.5 Y-0.866 Z0.0253 E1.0003
G1 X-0.5 Y-0.866 Z0.024 E1.0003
G1 X-0.5 Y-0.866 Z0.0227 E1.0003
G1 X-0.5 Y-0.866 Z0.0213 E1.0002
G1 X-0.5 Y-0.866 Z0.02 E1.0002
G1 X-0.5 Y-0.866 Z0.0187 E1.0002
G1 X-0.5 Y-0.866 Z0.0173 E1.0002
G1 X-0.5 Y-0.866 Z0.016 E1.0001
G1 X-0.5 Y-0.866 Z0.0147 E1.0001
G1 X-0.5 Y-0.866 Z0.0133 E1.0001
G1 X-0.5 Y-0.866 Z0.012 E1.0001
G1 X-0.5 Y-0.866 Z0.0107 E1.0001
G1 X-0.5 Y-0.866 Z0.0093 E1.0
G1 X-0.5 Y-0.866 Z0.008 E1.0
G1 X-0.5 Y-0.866 Z0.0067 E1.0
G1 X-0.5 Y-0.866 Z0.0053 E1.0
G1 X-0.5 Y-0.866 Z0.004 E1.0
G1 X-0.5 Y-0.866 Z0.0027 E1.0
G1 X-0.5 Y-0.866 Z0.0013 E1.0
G1 X-0.5 Y-0.866 E1.0
G1 X-0.5 Y-0.866 Z-0.0013 E1.0
G1 X-0.5 Y-0.866 Z-0.0027 E1.0
G1 X-0.5 Y-0.866 Z-0.004 E1.0
G1 X-0.5 Y-0.866 Z-0.0053 E1.0
G1 X-0.5 Y-0.866 Z-0.0067 E1.0
G1 X-0.5 Y-0.866 Z-0.008 E1.0
G1 X-0.5 Y-0.866 Z-0.0093 E1.0
G1 X-0.5 Y-0.866 Z-0.0107 E1.0001
G1 X-0.5 Y-0.866 Z-0.012 E1.0001
G1 X-0.5 Y-0.866 Z-0.0133 E1.0001
G1 X-0.5 Y-0.866 Z-0.0147 E1.0001
G1 X-0.5 Y-0.866 Z-0.016 E1.0001
G1 X-0.5 Y-0.866 Z-0.0173 E1.0002
G1 X-0.5 Y-0.866 Z-0.0187 E1.0002
G1 X-0.5 Y-0.866 Z-0.02 E1.0002
G1 X-0.5 Y-0.866 Z-0.0213 E1.0002
G1 X-0.5 Y-0.866 Z-0.0227 E1.0003
G1 X-0.5 Y-0.866 Z-0.024 E1.0003
G1 X-0.5 Y-0.866 Z-0.0253 E1.0003
G1 X-0.5 Y-0.866 Z-0.0267 E1.0004
G1 X-0.5 Y-0.866 Z-0.028 E1.0004
G1 X-0.5 Y-0.866 Z-0.0293 E1.0004
G1 X-0.5 Y-0.866 Z-0.0307 E1.0005
G1 X-0.5 Y-0.866 Z-0.032 E1.0005
G1 X-0.5 Y-0.866 Z-0.0333 E1.0006
G1 X-1.0 Y-0.0 Z0.0333 E1.0006
G1 X-1.0 Y-0.0 Z0.032 E1.0005
G1 X-1.0 Y-0.0 Z0.0307 E1.0005
G1 X-1.0 Y-0.0 Z0.0293 E1.0004
G1 X-1.0 Y-0.0 Z0.028 E1.0004
G1 X-1.0 Y-0.0 Z0.0267 E1.0004
G1 X-1.0 Y-0.0 Z0.0253 E1.0003
G1 X-1.0 Y-0.0 Z0.024 E1.0003
G1 X-1.0 Y-0.0 Z0.0227 E1.0003
G1 X-1.0 Y-0.0 Z0.0213 E1.0002
G1 X-1.0 Y-0.0 Z0.02 E1.0002
G1 X-1.0 Y-0.0 Z0.0187 E1.0002
G1 X-1.0 Y-0.0 Z0.0173 E1.0002
G1 X-1.0 Y-0.0 Z0.016 E1.0001
G1 X-1.0 Y-0.0 Z0.0147 E1.0001
G1 X-1.0 Y-0.0 Z0.0133 E1.0001
G1 X-1.0 Y-0.0 Z0.012 E1.0001
G1 X-1.0 Y-0.0 Z0.0107 E1.0001
G1 X-1.0 Y-0.0 Z0.0093 E1.0
G1 X-1.0 Y-0.0 Z0.008 E1.0
G1 X-1.0 Y-0.0 Z0.0067 E1.0
G1 X-1.0 Y-0.0 Z0.0053 E1.0
G1 X-1.0 Y-0.0 Z0.004 E1.0
G1 X-1.0 Y-0.0 Z0.0027 E1.0
G1 X-1.0 Y-0.0 Z0.0013 E1.0
G1 X-1.0 Y-0.0 E1.0
G1 X-1.0 Y-0.0 Z-0.0013 E1.0
G1 X-1.0 Y-0.0 Z-0.0027 E1.0
G1 X-1.0 Y-0.0 Z-0.004 E1.0
G1 X-1.0 Y-0.0 Z-0.0053 E1.0
G1 X-1.0 Y-0.0 Z-0.0067 E1.0
G1 X-1.0 Y-0.0 Z-0.008 E1.0
G1 X-1.0 Y-0.0 Z-0.0093 E1.0
G1 X-1.0 Y-0.0 Z-0.0107 E1.0001
G1 X-1.0 Y-0.0 Z-0.012 E1.0001
G1 X-1.0 Y-0.0 Z-0.0133 E1.0001
G1 X-1.0 Y-0.0 Z-0.0147 E1.0001
G1 X-1.0 Y-0.0 Z-0.016 E1.0001
G1 X-1.0 Y-0.0 Z-0.0173 E1.0002
G1 X-1.0 Y-0.0 Z-0.0187 E1.0002
G1 X-1.0 Y-0.0 Z-0.02 E1.0002
G1 X-1.0 Y-0.0 Z-0.0213 E1.0002
G1 X-1.0 Y-0.0 Z-0.0227 E1.0003
G1 X-1.0 Y-0.0 Z-0.024 E1.0003
G1 X-1.0 Y-0.0 Z-0.0253 E1.0003
G1 X-1.0 Y-0.0 Z-0.0267 E1.0004
G1 X-1.0 Y-0.0 Z-0.028 E1.0004
G1 X-1.0 Y-0.0 Z-0.0293 E1.0004
G1 X-1.0 Y-0.0 Z-0.0307 E1.0005
G1 X-1.0 Y-0.0 Z-0.032 E1.0005
G1 X-1.0 Y-0.0 Z-0.0333 E1.0006
G1 Z0.15
G1 X-0.5 Y0.866 Z0.0667 E1.0022
G1 X-0.5 Y0.866 Z0.064 E1.002
G1 X-0.5 Y0.866 Z0.0613 E1.0019
G1 X-0.5 Y0.866 Z0.0587 E1.0017
G1 X-0.5 Y0.866 Z0.056 E1.0016
G1 X-0.5 Y0.866 Z0.0533 E1.0014
G1 X-0.5 Y0.866 Z0.0507 E1.0013
G1 X-0.5 Y0.866 Z0.048 E1.0012
G1 X-0.5 Y0.866 Z0.0453 E1.001
G1 X-0.5 Y0.866 Z0.0427 E1.0009
G1 X-0.5 Y0.866 Z0.04 E1.0008
G1 X-0.5 Y0.866 Z0.0373 E1.0007
G1 X-0.5 Y0.866 Z0.0347 E1.0006
G1 X-0.5 Y0.866 Z0.032 E1.0005
G1 X-0.5 Y0.866 Z0.0293 E1.0004
G1 X-0.5 Y0.866 Z0.0267 E1.0004
G1 X-0.5 Y0.866 Z0.024 E1.0003
G1 X-0.5 Y0.866 Z0.0213 E1.0002
G1 X-0.5 Y0.866 Z0.0187 E1.0002
G1 X-0.5 Y0.866 Z0.016 E1.0001
G1 X-0.5 Y0.866 Z0.0133 E1.0001
G1 X-0.5 Y0.866 Z0.0107 E1.0001
G1 X-0.5 Y0.866 Z0.008 E1.0
G1 X-0.5 Y0.866 Z0.0053 E1.0
G1 X-0.5 Y0.866 Z0.0027 E1.0
G1 X-0.5 Y0.866 E1.0
G1 X-0.5 Y0.866 Z-0.0027 E1.0
G1 X-0.5 Y0.866 Z-0.0053 E1.0
G1 X-0.5 Y0.866 Z-0.008 E1.0
G1 X-0.5 Y0.866 Z-0.0107 E1.0001
G1 X-0.5 Y0.866 Z-0.0133 E1.0001
G1 X-0.5 Y0.866 Z-0.016 E1.0001
G1 X-0.5 Y0.866 Z-0.0187 E1.0002
G1 X-0.5 Y0.866 Z-0.0213 E1.0002
G1 X-0.5 Y0.866 Z-0.024 E1.0003
G1 X-0.5 Y0.866 Z-0.0267 E1.0004
G1 X-0.5 Y0.866 Z-0.0293 E1.0004
G1 X-0.5 Y0.866 Z-0.032 E1.0005
G1 X-0.5 Y0.866 Z-0.0347 E1.0006
G1 X-0.5 Y0.866 Z-0.0373 E1.0007
G1 X-0.5 Y0.866 Z-0.04 E1.0008
G1 X-0.5 Y0.866 Z-0.0427 E1.0009
G1 X-0.5 Y0.866 Z-0.0453 E1.001
G1 X-0.5 Y0.866 Z-0.048 E1.0012
G1 X-0.5 Y0.866 Z-0.0507 E1.0013
G1 X-0.5 Y0.866 Z-0.0533 E1.0014
G1 X-0.5 Y0.866 Z-0.056 E1.0016
G1 X-0.5 Y0.866 Z-0.0587 E1.0017
G1 X-0.5 Y0.866 Z-0.0613 E1.0019
G1 X-0.5 Y0.866 Z-0.064 E1.002
G1 X-0.5 Y0.866 Z-0.0667 E1.0022
G1 X0.5 Y0.866 Z0.0667 E1.0022
G1 X0.5 Y0.866 Z0.064 E1.002
G1 X0.5 Y0.866 Z0.0613 E1.0019
G1 X0.5 Y0.866 Z0.0587 E1.0017
G1 X0.5 Y0.866 Z0.056 E1.0016
G1 X0.5 Y0.866 Z0.0533 E1.0014
G1 X0.5 Y0.866 Z0.0507 E1.0013
G1 X0.5 Y0.866 Z0.048 E1.0012
G1 X0.5 Y0.866 Z0.0453 E1.001
G1 X0.5 Y0.866 Z0.0427 E1.0009
G1 X0.5 Y0.866 Z0.04 E1.0008
G1 X0.5 Y0.866 Z0.0373 E1.0007
G1 X0.5 Y0.866 Z0.0347 E1.0006
G1 X0.5 Y0.866 Z0.032 E1.0005
G1 X0.5 Y0.866 Z0.0293 E1.0004
G1 X0.5 Y0.866 Z0.0267 E1.0004
G1 X0.5 Y0.866 Z0.024 E1.0003
G1 X0.5 Y0.866 Z0.0213 E1.0002
G1 X0.5 Y0.866 Z0.0187 E1.0002
G1 X0.5 Y0.866 Z0.016 E1.0001
G1 X0.5 Y0.866 Z0.0133 E1.0001
G1 X0.5 Y0.866 Z0.0107 E1.0001
G1 X0.5 Y0.866 Z0.008 E1.0
G1 X0.5 Y0.866 Z0.0053 E1.0
G1 X0.5 Y0.866 Z0.0027 E1.0
G1 X0.5 Y0.866 E1.0
G1 X0.5 Y0.866 Z-0.0027 E1.0
G1 X0.5 Y0.866 Z-0.0053 E1.0
G1 X0.5 Y0.866 Z-0.008 E1.0
G1 X0.5 Y0.866 Z-0.0107 E1.0001
G1 X0.5 Y0.866 Z-0.0133 E1.0001
G1 X0.5 Y0.866 Z-0.016 E1.0001
G1 X0.5 Y0.866 Z-0.0187 E1.0002
G1 X0.5 Y0.866 Z-0.0213 E1.0002
G1 X0.5 Y0.866 Z-0.024 E1.0003
G1 X0.5 Y0.866 Z-0.0267 E1.0004
G1 X0.5 Y0.866 Z-0.0293 E1.0004
G1 X0.5 Y0.866 Z-0.032 E1.0005
G1 X0.5 Y0.866 Z-0.0347 E1.0006
G1 X0.5 Y0.866 Z-0.0373 E1.0007
G1 X0.5 Y0.866 Z-0.04 E1.0008
G1 X0.5 Y0.866 Z-0.0427 E1.0009
G1 X0.5 Y0.866 Z-0.0453 E1.001
G1 X0.5 Y0.866 Z-0.048 E1.0012
G1 X0.5 Y0.866 Z-0.0507 E1.0013
G1 X0.5 Y0.866 Z-0.0533 E1.0014
G1 X0.5 Y0.866 Z-0.056 E1.0016
G1 X0.5 Y0.866 Z-0.0587 E1.0017
G1 X0.5 Y0.866 Z-0.0613 E1.0019
G1 X0.5 Y0.866 Z-0.064 E1.002
G1 X0.5 Y0.866 Z-0.0667 E1.0022
G1 X1.0 Y0.0 Z0.0667 E1.0022
G1 X1.0 Y0.0 Z0.064 E1.002
G1 X1.0 Y0.0 Z0.0613 E1.0019
G1 X1.0 Y0.0 Z0.0587 E1.0017
G1 X1.0 Y0.0 Z0.056 E1.0016
G1 X1.0 Y0.0 Z0.0533 E1.0014
G1 X1.0 Y0.0 Z0.0507 E1.0013
G1 X1.0 Y0.0 Z0.048 E1.0012
G1 X1.0 Y0.0 Z0.0453 E1.001
G1 X1.0 Y0.0 Z0.0427 E1.0009
G1 X1.0 Y0.0 Z0.04 E1.0008
G1 X1.0 Y0.0 Z0.0373 E1.0007
G1 X1.0 Y0.0 Z0.0347 E1.0006
G1 X1.0 Y0.0 Z0.032 E1.0005
G1 X1.0 Y0.0 Z0.0293 E1.0004
G1 X1.0 Y0.0 Z0.0267 E1.0004
G1 X1.0 Y0.0 Z0.024 E1.0003
G1 X1.0 Y0.0 Z0.0213 E1.0002
G1 X1.0 Y0.0 Z0.0187 E1.0002
G1 X1.0 Y0.0 Z0.016 E1.0001
G1 X1.0 Y0.0 Z0.0133 E1.0001
G1 X1.0 Y0.0 Z0.0107 E1.0001
G1 X1.0 Y0.0 Z0.008 E1.0
G1 X1.0 Y0.0 Z0.0053 E1.0
G1 X1.0 Y0.0 Z0.0027 E1.0
G1 X1.0 Y0.0 E1.0
G1 X1.0 Y0.0 Z-0.0027 E1.0
G1 X1.0 Y0.0 Z-0.0053 E1.0
G1 X1.0 Y0.0 Z-0.008 E1.0
G1 X1.0 Y0.0 Z-0.0107 E1.0001
G1 X1.0 Y0.0 Z-0.0133 E1.0001
G1 X1.0 Y0.0 Z-0.016 E1.0001
G1 X1.0 Y0.0 Z-0.0187 E1.0002
G1 X1.0 Y0.0 Z-0.0213 E1.0002
G1 X1.0 Y0.0 Z-0.024 E1.0003
G1 X1.0 Y0.0 Z-0.0267 E1.0004
G1 X1.0 Y0.0 Z-0.0293 E1.0004
G1 X1.0 Y0.0 Z-0.032 E1.0005
G1 X1.0 Y0.0 Z-0.0347 E1.0006
G1 X1.0 Y0.0 Z-0.0373 E1.0007
G1 X1.0 Y0.0 Z-0.04 E1.0008
G1 X1.0 Y0.0 Z-0.0427 E1.0009
G1 X1.0 Y0.0 Z-0.0453 E1.001
G1 X1.0 Y0.0 Z-0.048 E1.0012
G1 X1.0 Y0.0 Z-0.0507 E1.0013
G1 X1.0 Y0.0 Z-0.0533 E1.0014
G1 X1.0 Y0.0 Z-0.056 E1.0016
G1 X1.0 Y0.0 Z-0.0587 E1.0017
G1 X1.0 Y0.0 Z-0.0613 E1.0019
G1 X1.0 Y0.0 Z-0.064 E1.002
G1 X1.0 Y0.0 Z-0.0667 E1.0022
G1 X0.5 Y-0.866 Z0.0667 E1.0022
G1 X0.5 Y-0.866 Z0.064 E1.002
G1 X0.5 Y-0.866 Z0.0613 E1.0019
G1 X0.5 Y-0.866 Z0.0587 E1.0017
G1 X0.5 Y-0.866 Z0.056 E1.0016
G1 X0.5 Y-0.866 Z0.0533 E1.0014
G1 X0.5 Y-0.866 Z0.0507 E1.0013
G1 X0.5 Y-0.866 Z0.048 E1.0012
G1 X0.5 Y-0.866 Z0.0453 E1.001
G1 X0.5 Y-0.866 Z0.0427 E1.0009
G1 X0.5 Y-0.866 Z0.04 E1.0008
G1 X0.5 Y-0.866 Z0.0373 E1.0007
G1 X0.5 Y-0.866 Z0.0347 E1.0006
G1 X0.5 Y-0.866 Z0.032 E1.0005
G1 X0.5 Y-0.866 Z0.0293 E1.0004
G1 X0.5 Y-0.866 Z0.0267 E1.0004
G1 X0.5 Y-0.866 Z0.024 E1.0003
G1 X0.5 Y-0.866 Z0.0213 E1.0002
G1 X0.5 Y-0.866 Z0.0187 E1.0002
G1 X0.5 Y-0.866 Z0.016 E1.0001
G1 X0.5 Y-0.866 Z0.0133 E1.0001
G1 X0.5 Y-0.866 Z0.0107 E1.0001
G1 X0.5 Y-0.866 Z0.008 E1.0
G1 X0.5 Y-0.866 Z0.0053 E1.0
G1 X0.5 Y-0.866 Z0.0027 E1.0
G1 X0.5 Y-0.866 E1.0
G1 X0.5 Y-0.866 Z-0.0027 E1.0
G1 X0.5 Y-0.866 Z-0.0053 E1.0
G1 X0.5 Y-0.866 Z-0.008 E1.0
G1 X0.5 Y-0.866 Z-0.0107 E1.0001
G1 X0.5 Y-0.866 Z-0.0133 E1.0001
G1 X0.5 Y-0.866 Z-0.016 E1.0001
G1 X0.5 Y-0.866 Z-0.0187 E1.0002
G1 X0.5 Y-0.866 Z-0.0213 E1.0002
G1 X0.5 Y-0.866 Z-0.024 E1.0003
G1 X0.5 Y-0.866 Z-0.0267 E1.0004
G1 X0.5 Y-0.866 Z-0.0293 E1.0004
G1 X0.5 Y-0.866 Z-0.032 E1.0005
G1 X0.5 Y-0.866 Z-0.0347 E1.0006
G1 X0.5 Y-0.866 Z-0.0373 E1.0007
G1 X0.5 Y-0.866 Z-0.04 E1.0008
G1 X0.5 Y-0.866 Z-0.0427 E1.0009
G1 X0.5 Y-0.866 Z-0.0453 E1.001
G1 X0.5 Y-0.866 Z-0.048 E1.0012
G1 X0.5 Y-0.866 Z-0.0507 E1.0013
G1 X0.5 Y-0.866 Z-0.0533 E1.0014
G1 X0.5 Y-0.866 Z-0.056 E1.0016
G1 X0.5 Y-0.866 Z-0.0587 E1.0017
G1 X0.5 Y-0.866 Z-0.0613 E1.0019
G1 X0.5 Y-0.866 Z-0.064 E1.002
G1 X0.5 Y-0.866 Z-0.0667 E1.0022
G1 X-0.5 Y-0.866 Z0.0667 E1.0022
G1 X-0.5 Y-0.866 Z0.064 E1.002
G1 X-0.5 Y-0.866 Z0.0613 E1.0019
G1 X-0.5 Y-0.866 Z0.0587 E1.0017
G1 X-0.5 Y-0.866 Z0.056 E1.0016
G1 X-0.5 Y-0.866 Z0.0533 E1.0014
G1 X-0.5 Y-0.866 Z0.0507 E1.0013
G1 X-0.5 Y-0.866 Z0.048 E1.0012
G1 X-0.5 Y-0.866 Z0.0453 E1.001
G1 X-0.5 Y-0.866 Z0.0427 E1.0009
G1 X-0.5 Y-0.866 Z0.04 E1.0008
G1 X-0.5 Y-0.866 Z0.0373 E1.0007
G1 X-0.5 Y-0.866 Z0.0347 E1.0006
G1 X-0.5 Y-0.866 Z0.032 E1.0005
G1 X-0.5 Y-0.866 Z0.0293 E1.0004
G1 X-0.5 Y-0.866 Z0.0267 E1.0004
G1 X-0.5 Y-0.866 Z0.024 E1.0003
G1 X-0.5 Y-0.866 Z0.0213 E1.0002
G1 X-0.5 Y-0.866 Z0.0187 E1.0002
G1 X-0.5 Y-0.866 Z0.016 E1.0001
G1 X-0.5 Y-0.866 Z0.0133 E1.0001
G1 X-0.5 Y-0.866 Z0.0107 E1.0001
G1 X-0.5 Y-0.866 Z0.008 E1.0
G1 X-0.5 Y-0.866 Z0.0053 E1.0
G1 X-0.5 Y-0.866 Z0.0027 E1.0
G1 X-0.5 Y-0.866 E1.0
G1 X-0.5 Y-0.866 Z-0.0027 E1.0
G1 X-0.5 Y-0.866 Z-0.0053 E1.0
G1 X-0.5 Y-0.866 Z-0.008 E1.0
G1 X-0.5 Y-0.866 Z-0.0107 E1.0001
G1 X-0.5 Y-0.866 Z-0.0133 E1.0001
G1 X-0.5 Y-0.866 Z-0.016 E1.0001
G1 X-0.5 Y-0.866 Z-0.0187 E1.0002
G1 X-0.5 Y-0.866 Z-0.0213 E1.0002
G1 X-0.5 Y-0.866 Z-0.024 E1.0003
G1 X-0.5 Y-0.866 Z-0.0267 E1.0004
G1 X-0.5 Y-0.866 Z-0.0293 E1.0004
G1 X-0.5 Y-0.866 Z-0.032 E1.0005
G1 X-0.5 Y-0.866 Z-0.0347 E1.0006
G1 X-0.5 Y-0.866 Z-0.0373 E1.0007
G1 X-0.5 Y-0.866 Z-0.04 E1.0008
G1 X-0.5 Y-0.866 Z-0.0427 E1.0009
G1 X-0.5 Y-0.866 Z-0.0453 E1.001
G1 X-0.5 Y-0.866 Z-0.048 E1.0012
G1 X-0.5 Y-0.866 Z-0.0507 E1.0013
G1 X-0.5 Y-0.866 Z-0.0533 E1.0014
G1 X-0.5 Y-0.866 Z-0.056 E1.0016
G1 X-0.5 Y-0.866 Z-0.0587 E1.0017
G1 X-0.5 Y-0.866 Z-0.0613 E1.0019
G1 X-0.5 Y-0.866 Z-0.064 E1.002
G1 X-0.5 Y-0.866 Z-0.0667 E1.0022
G1 Z0.15
G1 X-1.0 Y-0.0 Z0.1 E1.005
G1 X-1.0 Y-0.0 Z0.096 E1.0046
G1 X-1.0 Y-0.0 Z0.092 E1.0042
G1 X-1.0 Y-0.0 Z0.088 E1.0039
G1 X-1.0 Y-0.0 Z0.084 E1.0035
G1 X-1.0 Y-0.0 Z0.08 E1.0032
G1 X-1.0 Y-0.0 Z0.076 E1.0029
G1 X-1.0 Y-0.0 Z0.072 E1.0026
G1 X-1.0 Y-0.0 Z0.068 E1.0023
G1 X-1.0 Y-0.0 Z0.064 E1.002
G1 X-1.0 Y-0.0 Z0.06 E1.0018
G1 X-1.0 Y-0.0 Z0.056 E1.0016
G1 X-1.0 Y-0.0 Z0.052 E1.0014
G1 X-1.0 Y-0.0 Z0.048 E1.0012
G1 X-1.0 Y-0.0 Z0.044 E1.001
G1 X-1.0 Y-0.0 Z0.04 E1.0008
G1 X-1.0 Y-0.0 Z0.036 E1.0006
G1 X-1.0 Y-0.0 Z0.032 E1.0005
G1 X-1.0 Y-0.0 Z0.028 E1.0004
G1 X-1.0 Y-0.0 Z0.024 E1.0003
G1 X-1.0 Y-0.0 Z0.02 E1.0002
G1 X-1.0 Y-0.0 Z0.016 E1.0001
G1 X-1.0 Y-0.0 Z0.012 E1.0001
G1 X-1.0 Y-0.0 Z0.008 E1.0
G1 X-1.0 Y-0.0 Z0.004 E1.0
G1 X-1.0 Y-0.0 E1.0
G1 X-1.0 Y-0.0 Z-0.004 E1.0
G1 X-1.0 Y-0.0 Z-0.008 E1.0
G1 X-1.0 Y-0.0 Z-0.012 E1.0001
G1 X-1.0 Y-0.0 Z-0.016 E1.0001
G1 X-1.0 Y-0.0 Z-0.02 E1.0002
G1 X-1.0 Y-0.0 Z-0.024 E1.0003
G1 X-1.0 Y-0.0 Z-0.028 E1.0004
G1 X-1.0 Y-0.0 Z-0.032 E1.0005
G1 X-1.0 Y-0.0 Z-0.036 E1.0006
G1 X-1.0 Y-0.0 Z-0.04 E1.0008
G1 X-1.0 Y-0.0 Z-0.044 E1.001
G1 X-1.0 Y-0.0 Z-0.048 E1.0012
G1 X-1.0 Y-0.0 Z-0.052 E1.0014
G1 X-1.0 Y-0.0 Z-0.056 E1.0016
G1 X-1.0 Y-0.0 Z-0.06 E1.0018
G1 X-1.0 Y-0.0 Z-0.064 E1.002
G1 X-1.0 Y-0.0 Z-0.068 E1.0023
G1 X-1.0 Y-0.0 Z-0.072 E1.0026
G1 X-1.0 Y-0.0 Z-0.076 E1.0029
G1 X-1.0 Y-0.0 Z-0.08 E1.0032
G1 X-1.0 Y-0.0 Z-0.084 E1.0035
G1 X-1.0 Y-0.0 Z-0.088 E1.0039
G1 X-1.0 Y-0.0 Z-0.092 E1.0042
G1 X-1.0 Y-0.0 Z-0.096 E1.0046
G1 X-1.0 Y-0.0 Z-0.1 E1.005
G1 X-0.5 Y0.866 Z0.1 E1.005
G1 X-0.5 Y0.866 Z0.096 E1.0046
G1 X-0.5 Y0.866 Z0.092 E1.0042
G1 X-0.5 Y0.866 Z0.088 E1.0039
G1 X-0.5 Y0.866 Z0.084 E1.0035
G1 X-0.5 Y0.866 Z0.08 E1.0032
G1 X-0.5 Y0.866 Z0.076 E1.0029
G1 X-0.5 Y0.866 Z0.072 E1.0026
G1 X-0.5 Y0.866 Z0.068 E1.0023
G1 X-0.5 Y0.866 Z0.064 E1.002
G1 X-0.5 Y0.866 Z0.06 E1.0018
G1 X-0.5 Y0.866 Z0.056 E1.0016
G1 X-0.5 Y0.866 Z0.052 E1.0014
G1 X-0.5 Y0.866 Z0.048 E1.0012
G1 X-0.5 Y0.866 Z0.044 E1.001
G1 X-0.5 Y0.866 Z0.04 E1.0008
G1 X-0.5 Y0.866 Z0.036 E1.0006
G1 X-0.5 Y0.866 Z0.032 E1.0005
G1 X-0.5 Y0.866 Z0.028 E1.0004
G1 X-0.5 Y0.866 Z0.024 E1.0003
G1 X-0.5 Y0.866 Z0.02 E1.0002
G1 X-0.5 Y0.866 Z0.016 E1.0001
G1 X-0.5 Y0.866 Z0.012 E1.0001
G1 X-0.5 Y0.866 Z0.008 E1.0
G1 X-0.5 Y0.866 Z0.004 E1.0
G1 X-0.5 Y0.866 E1.0
G1 X-0.5 Y0.866 Z-0.004 E1.0
G1 X-0.5 Y0.866 Z-0.008 E1.0
G1 X-0.5 Y0.866 Z-0.012 E1.0001
G1 X-0.5 Y0.866 Z-0.016 E1.0001
G1 X-0.5 Y0.866 Z-0.02 E1.0002
G1 X-0.5 Y0.866 Z-0.024 E1.0003
G1 X-0.5 Y0.866 Z-0.028 E1.0004
G1 X-0.5 Y0.866 Z-0.032 E1.0005
G1 X-0.5 Y0.866 Z-0.036 E1.0006
G1 X-0.5 Y0.866 Z-0.04 E1.0008
G1 X-0.5 Y0.866 Z-0.044 E1.001
G1 X-0.5 Y0.866 Z-0.048 E1.0012
G1 X-0.5 Y0.866 Z-0.052 E1.0014
G1 X-0.5 Y0.866 Z-0.056 E1.0016
G1 X-0.5 Y0.866 Z-0.06 E1.0018
G1 X-0.5 Y0.866 Z-0.064 E1.002
G1 X-0.5 Y0.866 Z-0.068 E1.0023
G1 X-0.5 Y0.866 Z-0.072 E1.0026
G1 X-0.5 Y0.866 Z-0.076 E1.0029
G1 X-0.5 Y0.866 Z-0.08 E1.0032
G1 X-0.5 Y0.866 Z-0.084 E1.0035
G1 X-0.5 Y0.866 Z-0.088 E1.0039
G1 X-0.5 Y0.866 Z-0.092 E1.0042
G1 X-0.5 Y0.866 Z-0.096 E1.0046
G1 X-0.5 Y0.866 Z-0.1 E1.005
G1 X0.5 Y0.866 Z0.1 E1.005
G1 X0.5 Y0.866 Z0.096 E1.0046
G1 X0.5 Y0.866 Z0.092 E1.0042
G1 X0.5 Y0.866 Z0.088 E1.0039
G1 X0.5 Y0.866 Z0.084 E1.0035
G1 X0.5 Y0.866 Z0.08 E1.0032
G1 X0.5 Y0.866 Z0.076 E1.0029
G1 X0.5 Y0.866 Z0.072 E1.0026
G1 X0.5 Y0.866 Z0.068 E1.0023
G1 X0.5 Y0.866 Z0.064 E1.002
G1 X0.5 Y0.866 Z0.06 E1.0018
G1 X0.5 Y0.866 Z0.056 E1.0016
G1 X0.5 Y0.866 Z0.052 E1.0014
G1 X0.5 Y0.866 Z0.048 E1.0012
G1 X0.5 Y0.866 Z0.044 E1.001
G1 X0.5 Y0.866 Z0.04 E1.0008
G1 X0.5 Y0.866 Z0.036 E1.0006
G1 X0.5 Y0.866 Z0.032 E1.0005
G1 X0.5 Y0.866 Z0.028 E1.0004
G1 X0.5 Y0.866 Z0.024 E1.0003
G1 X0.5 Y0.866 Z0.02 E1.0002
G1 X0.5 Y0.866 Z0.016 E1.0001
G1 X0.5 Y0.866 Z0.012 E1.0001
G1 X0.5 Y0.866 Z0.008 E1.0
G1 X0.5 Y0.866 Z0.004 E1.0
G1 X0.5 Y0.866 E1.0
G1 X0.5 Y0.866 Z-0.004 E1.0
G1 X0.5 Y0.866 Z-0.008 E1.0
G1 X0.5 Y0.866 Z-0.012 E1.0001
G1 X0.5 Y0.866 Z-0.016 E1.0001
G1 X0.5 Y0.866 Z-0.02 E1.0002
G1 X0.5 Y0.866 Z-0.024 E1.0003
G1 X0.5 Y0.866 Z-0.028 E1.0004
G1 X0.5 Y0.866 Z-0.032 E1.0005
G1 X0.5 Y0.866 Z-0.036 E1.0006
G1 X0.5 Y0.866 Z-0.04 E1.0008
G1 X0.5 Y0.866 Z-0.044 E1.001
G1 X0.5 Y0.866 Z-0.048 E1.0012
G1 X0.5 Y0.866 Z-0.052 E1.0014
G1 X0.5 Y0.866 Z-0.056 E1.0016
G1 X0.5 Y0.866 Z-0.06 E1.0018
G1 X0.5 Y0.866 Z-0.064 E1.002
G1 X0.5 Y0.866 Z-0.068 E1.0023
G1 X0.5 Y0.866 Z-0.072 E1.0026
G1 X0.5 Y0.866 Z-0.076 E1.0029
G1 X0.5 Y0.866 Z-0.08 E1.0032
G1 X0.5 Y0.866 Z-0.084 E1.0035
G1 X0.5 Y0.866 Z-0.088 E1.0039
G1 X0.5 Y0.866 Z-0.092 E1.0042
G1 X0.5 Y0.866 Z-0.096 E1.0046
G1 X0.5 Y0.866 Z-0.1 E1.005
G1 X1.0 Y0.0 Z0.1 E1.005
G1 X1.0 Y0.0 Z0.096 E1.0046
G1 X1.0 Y0.0 Z0.092 E1.0042
G1 X1.0 Y0.0 Z0.088 E1.0039
G1 X1.0 Y0.0 Z0.084 E1.0035
G1 X1.0 Y0.0 Z0.08 E1.0032
G1 X1.0 Y0.0 Z0.076 E1.0029
G1 X1.0 Y0.0 Z0.072 E1.0026
G1 X1.0 Y0.0 Z0.068 E1.0023
G1 X1.0 Y0.0 Z0.064 E1.002
G1 X1.0 Y0.0 Z0.06 E1.0018
G1 X1.0 Y0.0 Z0.056 E1.0016
G1 X1.0 Y0.0 Z0.052 E1.0014
G1 X1.0 Y0.0 Z0.048 E1.0012
G1 X1.0 Y0.0 Z0.044 E1.001
G1 X1.0 Y0.0 Z0.04 E1.0008
G1 X1.0 Y0.0 Z0.036 E1.0006
G1 X1.0 Y0.0 Z0.032 E1.0005
G1 X1.0 Y0.0 Z0.028 E1.0004
G1 X1.0 Y0.0 Z0.024 E1.0003
G1 X1.0 Y0.0 Z0.02 E1.0002
G1 X1.0 Y0.0 Z0.016 E1.0001
G1 X1.0 Y0.0 Z0.012 E1.0001
G1 X1.0 Y0.0 Z0.008 E1.0
G1 X1.0 Y0.0 Z0.004 E1.0
G1 X1.0 Y0.0 E1.0
G1 X1.0 Y0.0 Z-0.004 E1.0
G1 X1.0 Y0.0 Z-0.008 E1.0
G1 X1.0 Y0.0 Z-0.012 E1.0001
G1 X1.0 Y0.0 Z-0.016 E1.0001
G1 X1.0 Y0.0 Z-0.02 E1.0002
G1 X1.0 Y0.0 Z-0.024 E1.0003
G1 X1.0 Y0.0 Z-0.028 E1.0004
G1 X1.0 Y0.0 Z-0.032 E1.0005
G1 X1.0 Y0.0 Z-0.036 E1.0006
G1 X1.0 Y0.0 Z-0.04 E1.0008
G1 X1.0 Y0.0 Z-0.044 E1.001
G1 X1.0 Y0.0 Z-0.048 E1.0012
G1 X1.0 Y0.0 Z-0.052 E1.0014
G1 X1.0 Y0.0 Z-0.056 E1.0016
G1 X1.0 Y0.0 Z-0.06 E1.0018
G1 X1.0 Y0.0 Z-0.064 E1.002
G1 X1.0 Y0.0 Z-0.068 E1.0023
G1 X1.0 Y0.0 Z-0.072 E1.0026
G1 X1.0 Y0.0 Z-0.076 E1.0029
G1 X1.0 Y0.0 Z-0.08 E1.0032
G1 X1.0 Y0.0 Z-0.084 E1.0035
G1 X1.0 Y0.0 Z-0.088 E1.0039
G1 X1.0 Y0.0 Z-0.092 E1.0042
G1 X1.0 Y0.0 Z-0.096 E1.0046
G1 X1.0 Y0.0 Z-0.1 E1.005
G1 X0.5 Y-0.866 Z0.1 E1.005
G1 X0.5 Y-0.866 Z0.096 E1.0046
G1 X0.5 Y-0.866 Z0.092 E1.0042
G1 X0.5 Y-0.866 Z0.088 E1.0039
G1 X0.5 Y-0.866 Z0.084 E1.0035
G1 X0.5 Y-0.866 Z0.08 E1.0032
G1 X0.5 Y-0.866 Z0.076 E1.0029
G1 X0.5 Y-0.866 Z0.072 E1.0026
G1 X0.5 Y-0.866 Z0.068 E1.0023
G1 X0.5 Y-0.866 Z0.064 E1.002
G1 X0.5 Y-0.866 Z0.06 E1.0018
G1 X0.5 Y-0.866 Z0.056 E1.0016
G1 X0.5 Y-0.866 Z0.052 E1.0014
G1 X0.5 Y-0.866 Z0.048 E1.0012
G1 X0.5 Y-0.866 Z0.044 E1.001
G1 X0.5 Y-0.866 Z0.04 E1.0008
G1 X0.5 Y-0.866 Z0.036 E1.0006
G1 X0.5 Y-0.866 Z0.032 E1.0005
G1 X0.5 Y-0.866 Z0.028 E1.0004
G1 X0.5 Y-0.866 Z0.024 E1.0003
G1 X0.5 Y-0.866 Z0.02 E1.0002
G1 X0.5 Y-0.866 Z0.016 E1.0001
G1 X0.5 Y-0.866 Z0.012 E1.0001
G1 X0.5 Y-0.866 Z0.008 E1.0
G1 X0.5 Y-0.866 Z0.004 E1.0
G1 X0.5 Y-0.866 E1.0
G1 X0.5 Y-0.866 Z-0.004 E1.0
G1 X0.5 Y-0.866 Z-0.008 E1.0
G1 X0.5 Y-0.866 Z-0.012 E1.0001
G1 X0.5 Y-0.866 Z-0.016 E1.0001
G1 X0.5 Y-0.866 Z-0.02 E1.0002
G1 X0.5 Y-0.866 Z-0.024 E1.0003
G1 X0.5 Y-0.866 Z-0.028 E1.0004
G1 X0.5 Y-0.866 Z-0.032 E1.0005
G1 X0.5 Y-0.866 Z-0.036 E1.0006
G1 X0.5 Y-0.866 Z-0.04 E1.0008
G1 X0.5 Y-0.866 Z-0.044 E1.001
G1 X0.5 Y-0.866 Z-0.048 E1.0012
G1 X0.5 Y-0.866 Z-0.052 E1.0014
G1 X0.5 Y-0.866 Z-0.056 E1.0016
G1 X0.5 Y-0.866 Z-0.06 E1.0018
G1 X0.5 Y-0.866 Z-0.064 E1.002
G1 X0.5 Y-0.866 Z-0.068 E1.0023
G1 X0.5 Y-0.866 Z-0.072 E1.0026
G1 X0.5 Y-0.866 Z-0.076 E1.0029
G1 X0.5 Y-0.866 Z-0.08 E1.0032
G1 X0.5 Y-0.866 Z-0.084 E1.0035
G1 X0.5 Y-0.866 Z-0.088 E1.0039
G1 X0.5 Y-0.866 Z-0.092 E1.0042
G1 X0.5 Y-0.866 Z-0.096 E1.0046
G1 X0.5 Y-0.866 Z-0.1 E1.005
G1 Z0.15
G1 X-0.5 Y-0.866 Z0.1333 E1.0088
G1 X-0.5 Y-0.866 Z0.128 E1.0082
G1 X-0.5 Y-0.866 Z0.1227 E1.0075
G1 X-0.5 Y-0.866 Z0.1173 E1.0069
G1 X-0.5 Y-0.866 Z0.112 E1.0063
G1 X-0.5 Y-0.866 Z0.1067 E1.0057
G1 X-0.5 Y-0.866 Z0.1013 E1.0051
G1 X-0.5 Y-0.866 Z0.096 E1.0046
G1 X-0.5 Y-0.866 Z0.0907 E1.0041
G1 X-0.5 Y-0.866 Z0.0853 E1.0036
G1 X-0.5 Y-0.866 Z0.08 E1.0032
G1 X-0.5 Y-0.866 Z0.0747 E1.0028
G1 X-0.5 Y-0.866 Z0.0693 E1.0024
G1 X-0.5 Y-0.866 Z0.064 E1.002
G1 X-0.5 Y-0.866 Z0.0587 E1.0017
G1 X-0.5 Y-0.866 Z0.0533 E1.0014
G1 X-0.5 Y-0.866 Z0.048 E1.0012
G1 X-0.5 Y-0.866 Z0.0427 E1.0009
G1 X-0.5 Y-0.866 Z0.0373 E1.0007
G1 X-0.5 Y-0.866 Z0.032 E1.0005
G1 X-0.5 Y-0.866 Z0.0267 E1.0004
G1 X-0.5 Y-0.866 Z0.0213 E1.0002
G1 X-0.5 Y-0.866 Z0.016 E1.0001
G1 X-0.5 Y-0.866 Z0.0107 E1.0001
G1 X-0.5 Y-0.866 Z0.0053 E1.0
G1 X-0.5 Y-0.866 E1.0
G1 X-0.5 Y-0.866 Z-0.0053 E1.0
G1 X-0.5 Y-0.866 Z-0.0107 E1.0001
G1 X-0.5 Y-0.866 Z-0.016 E1.0001
G1 X-0.5 Y-0.866 Z-0.0213 E1.0002
G1 X-0.5 Y-0.866 Z-0.0267 E1.0004
G1 X-0.5 Y-0.866 Z-0.032 E1.0005
G1 X-0.5 Y-0.866 Z-0.0373 E1.0007
G1 X-0.5 Y-0.866 Z-0.0427 E1.0009
G1 X-0.5 Y-0.866 Z-0.048 E1.0012
G1 X-0.5 Y-0.866 Z-0.0533 E1.0014
G1 X-0.5 Y-0.866 Z-0.0587 E1.0017
G1 X-0.5 Y-0.866 Z-0.064 E1.002
G1 X-0.5 Y-0.866 Z-0.0693 E1.0024
G1 X-0.5 Y-0.866 Z-0.0747 E1.0028
G1 X-0.5 Y-0.866 Z-0.08 E1.0032
G1 X-0.5 Y-0.866 Z-0.0853 E1.0036
G1 X-0.5 Y-0.866 Z-0.0907 E1.0041
G1 X-0.5 Y-0.866 Z-0.096 E1.0046
G1 X-0.5 Y-0.866 Z-0.1013 E1.0051
G1 X-0.5 Y-0.866 Z-0.1067 E1.0057
G1 X-0.5 Y-0.866 Z-0.112 E1.0063
G1 X-0.5 Y-0.866 Z-0.1173 E1.0069
G1 X-0.5 Y-0.866 Z-0.1227 E1.0075
G1 X-0.5 Y-0.866 Z-0.128 E1.0082
G1 X-0.5 Y-0.866 Z-0.1333 E1.0088
G1 X-1.0 Y-0.0 Z0.1333 E1.0088
G1 X-1.0 Y-0.0 Z0.128 E1.0082
G1 X-1.0 Y-0.0 Z0.1227 E1.0075
G1 X-1.0 Y-0.0 Z0.1173 E1.0069
G1 X-1.0 Y-0.0 Z0.112 E1.0063
G1 X-1.0 Y-0.0 Z0.1067 E1.0057
G1 X-1.0 Y-0.0 Z0.1013 E1.0051
G1 X-1.0 Y-0.0 Z0.096 E1.0046
G1 X-1.0 Y-0.0 Z0.0907 E1.0041
G1 X-1.0 Y-0.0 Z0.0853 E1.0036
G1 X-1.0 Y-0.0 Z0.08 E1.0032
G1 X-1.0 Y-0.0 Z0.0747 E1.0028
G1 X-1.0 Y-0.0 Z0.0693 E1.0024
G1 X-1.0 Y-0.0 Z0.064 E1.002
G1 X-1.0 Y-0.0 Z0.0587 E1.0017
G1 X-1.0 Y-0.0 Z0.0533 E1.0014
G1 X-1.0 Y-0.0 Z0.048 E1.0012
G1 X-1.0 Y-0.0 Z0.0427 E1.0009
G1 X-1.0 Y-0.0 Z0.0373 E1.0007
G1 X-1.0 Y-0.0 Z0.032 E1.0005
G1 X-1.0 Y-0.0 Z0.0267 E1.0004
G1 X-1.0 Y-0.0 Z0.0213 E1.0002
G1 X-1.0 Y-0.0 Z0.016 E1.0001
G1 X-1.0 Y-0.0 Z0.0107 E1.0001
G1 X-1.0 Y-0.0 Z0.0053 E1.0
G1 X-1.0 Y-0.0 E1.0
G1 X-1.0 Y-0.0 Z-0.0053 E1.0
G1 X-1.0 Y-0.0 Z-0.0107 E1.0001
G1 X-1.0 Y-0.0 Z-0.016 E1.0001
G1 X-1.0 Y-0.0 Z-0.0213 E1.0002
G1 X-1.0 Y-0.0 Z-0.0267 E1.0004
G1 X-1.0 Y-0.0 Z-0.032 E1.0005
G1 X-1.0 Y-0.0 Z-0.0373 E1.0007
G1 X-1.0 Y-0.0 Z-0.0427 E1.0009
G1 X-1.0 Y-0.0 Z-0.048 E1.0012
G1 X-1.0 Y-0.0 Z-0.0533 E1.0014
G1 X-1.0 Y-0.0 Z-0.0587 E1.0017
G1 X-1.0 Y-0.0 Z-0.064 E1.002
G1 X-1.0 Y-0.0 Z-0.0693 E1.0024
G1 X-1.0 Y-0.0 Z-0.0747 E1.0028
G1 X-1.0 Y-0.0 Z-0.08 E1.0032
G1 X-1.0 Y-0.0 Z-0.0853 E1.0036
G1 X-1.0 Y-0.0 Z-0.0907 E1.0041
G1 X-1.0 Y-0.0 Z-0.096 E1.0046
G1 X-1.0 Y-0.0 Z-0.1013 E1.0051
G1 X-1.0 Y-0.0 Z-0.1067 E1.0057
G1 X-1.0 Y-0.0 Z-0.112 E1.0063
G1 X-1.0 Y-0.0 Z-0.1173 E1.0069
G1 X-1.0 Y-0.0 Z-0.1227 E1.0075
G1 X-1.0 Y-0.0 Z-0.128 E1.0082
G1 X-1.0 Y-0.0 Z-0.1333 E1.0088
G1 X-0.5 Y0.866 Z0.1333 E1.0088
G1 X-0.5 Y0.866 Z0.128 E1.0082
G1 X-0.5 Y0.866 Z0.1227 E1.0075
G1 X-0.5 Y0.866 Z0.1173 E1.0069
G1 X-0.5 Y0.866 Z0.112 E1.0063
G1 X-0.5 Y0.866 Z0.1067 E1.0057
G1 X-0.5 Y0.866 Z0.1013 E1.0051
G1 X-0.5 Y0.866 Z0.096 E1.0046
G1 X-0.5 Y0.866 Z0.0907 E1.0041
G1 X-0.5 Y0.866 Z0.0853 E1.0036
G1 X-0.5 Y0.866 Z0.08 E1.0032
G1 X-0.5 Y0.866 Z0.0747 E1.0028
G1 X-0.5 Y0.866 Z0.0693 E1.0024
G1 X-0.5 Y0.866 Z0.064 E1.002
G1 X-0.5 Y0.866 Z0.0587 E1.0017
G1 X-0.5 Y0.866 Z0.0533 E1.0014
G1 X-0.5 Y0.866 Z0.048 E1.0012
G1 X-0.5 Y0.866 Z0.0427 E1.0009
G1 X-0.5 Y0.866 Z0.0373 E1.0007
G1 X-0.5 Y0.866 Z0.032 E1.0005
G1 X-0.5 Y0.866 Z0.0267 E1.0004
G1 X-0.5 Y0.866 Z0.0213 E1.0002
G1 X-0.5 Y0.866 Z0.016 E1.0001
G1 X-0.5 Y0.866 Z0.0107 E1.0001
G1 X-0.5 Y0.866 Z0.0053 E1.0
G1 X-0.5 Y0.866 E1.0
G1 X-0.5 Y0.866 Z-0.0053 E1.0
G1 X-0.5 Y0.866 Z-0.0107 E1.0001
G1 X-0.5 Y0.866 Z-0.016 E1.0001
G1 X-0.5 Y0.866 Z-0.0213 E1.0002
G1 X-0.5 Y0.866 Z-0.0267 E1.0004
G1 X-0.5 Y0.866 Z-0.032 E1.0005
G1 X-0.5 Y0.866 Z-0.0373 E1.0007
G1 X-0.5 Y0.866 Z-0.0427 E1.0009
G1 X-0.5 Y0.866 Z-0.048 E1.0012
G1 X-0.5 Y0.866 Z-0.0533 E1.0014
G1 X-0.5 Y0.866 Z-0.0587 E1.0017
G1 X-0.5 Y0.866 Z-0.064 E1.002
G1 X-0.5 Y0.866 Z-0.0693 E1.0024
G1 X-0.5 Y0.866 Z-0.0747 E1.0028
G1 X-0.5 Y0.866 Z-0.08 E1.0032
G1 X-0.5 Y0.866 Z-0.0853 E1.0036
G1 X-0.5 Y0.866 Z-0.0907 E1.0041
G1 X-0.5 Y0.866 Z-0.096 E1.0046
G1 X-0.5 Y0.866 Z-0.1013 E1.0051
G1 X-0.5 Y0.866 Z-0.1067 E1.0057
G1 X-0.5 Y0.866 Z-0.112 E1.0063
G1 X-0.5 Y0.866 Z-0.1173 E1.0069
G1 X-0.5 Y0.866 Z-0.1227 E1.0075
G1 X-0.5 Y0.866 Z-0.128 E1.0082
G1 X-0.5 Y0.866 Z-0.1333 E1.0088
G1 X0.5 Y0.866 Z0.1333 E1.0088
G1 X0.5 Y0.866 Z0.128 E1.0082
G1 X0.5 Y0.866 Z0.1227 E1.0075
G1 X0.5 Y0.866 Z0.1173 E1.0069
G1 X0.5 Y0.866 Z0.112 E1.0063
G1 X0.5 Y0.866 Z0.1067 E1.0057
G1 X0.5 Y0.866 Z0.1013 E1.0051
G1 X0.5 Y0.866 Z0.096 E1.0046
G1 X0.5 Y0.866 Z0.0907 E1.0041
G1 X0.5 Y0.866 Z0.0853 E1.0036
G1 X0.5 Y0.866 Z0.08 E1.0032
G1 X0.5 Y0.866 Z0.0747 E1.0028
G1 X0.5 Y0.866 Z0.0693 E1.0024
G1 X0.5 Y0.866 Z0.064 E1.002
G1 X0.5 Y0.866 Z0.0587 E1.0017
G1 X0.5 Y0.866 Z0.0533 E1.0014
G1 X0.5 Y0.866 Z0.048 E1.0012
G1 X0.5 Y0.866 Z0.0427 E1.0009
G1 X0.5 Y0.866 Z0.0373 E1.0007
G1 X0.5 Y0.866 Z0.032 E1.0005
G1 X0.5 Y0.866 Z0.0267 E1.0004
G1 X0.5 Y0.866 Z0.0213 E1.0002
G1 X0.5 Y0.866 Z0.016 E1.0001
G1 X0.5 Y0.866 Z0.0107 E1.0001
G1 X0.5 Y0.866 Z0.0053 E1.0
G1 X0.5 Y0.866 E1.0
G1 X0.5 Y0.866 Z-0.0053 E1.0
G1 X0.5 Y0.866 Z-0.0107 E1.0001
G1 X0.5 Y0.866 Z-0.016 E1.0001
G1 X0.5 Y0.866 Z-0.0213 E1.0002
G1 X0.5 Y0.866 Z-0.0267 E1.0004
G1 X0.5 Y0.866 Z-0.032 E1.0005
G1 X0.5 Y0.866 Z-0.0373 E1.0007
G1 X0.5 Y0.866 Z-0.0427 E1.0009
G1 X0.5 Y0.866 Z-0.048 E1.0012
G1 X0.5 Y0.866 Z-0.0533 E1.0014
G1 X0.5 Y0.866 Z-0.0587 E1.0017
G1 X0.5 Y0.866 Z-0.064 E1.002
G1 X0.5 Y0.866 Z-0.0693 E1.0024
G1 X0.5 Y0.866 Z-0.0747 E1.0028
G1 X0.5 Y0.866 Z-0.08 E1.0032
G1 X0.5 Y0.866 Z-0.0853 E1.0036
G1 X0.5 Y0.866 Z-0.0907 E1.0041
G1 X0.5 Y0.866 Z-0.096 E1.0046
G1 X0.5 Y0.866 Z-0.1013 E1.0051
G1 X0.5 Y0.866 Z-0.1067 E1.0057
G1 X0.5 Y0.866 Z-0.112 E1.0063
G1 X0.5 Y0.866 Z-0.1173 E1.0069
G1 X0.5 Y0.866 Z-0.1227 E1.0075
G1 X0.5 Y0.866 Z-0.128 E1.0082
G1 X0.5 Y0.866 Z-0.1333 E1.0088
G1 X1.0 Y0.0 Z0.1333 E1.0088
G1 X1.0 Y0.0 Z0.128 E1.0082
G1 X1.0 Y0.0 Z0.1227 E1.0075
G1 X1.0 Y0.0 Z0.1173 E1.0069
G1 X1.0 Y0.0 Z0.112 E1.0063
G1 X1.0 Y0.0 Z0.1067 E1.0057
G1 X1.0 Y0.0 Z0.1013 E1.0051
G1 X1.0 Y0.0 Z0.096 E1.0046
G1 X1.0 Y0.0 Z0.0907 E1.0041
G1 X1.0 Y0.0 Z0.0853 E1.0036
G1 X1.0 Y0.0 Z0.08 E1.0032
G1 X1.0 Y0.0 Z0.0747 E1.0028
G1 X1.0 Y0.0 Z0.0693 E1.0024
G1 X1.0 Y0.0 Z0.064 E1.002
G1 X1.0 Y0.0 Z0.0587 E1.0017
G1 X1.0 Y0.0 Z0.0533 E1.0014
G1 X1.0 Y0.0 Z0.048 E1.0012
G1 X1.0 Y0.0 Z0.0427 E1.0009
G1 X1.0 Y0.0 Z0.0373 E1.0007
G1 X1.0 Y0.0 Z0.032 E1.0005
G1 X1.0 Y0.0 Z0.0267 E1.0004
G1 X1.0 Y0.0 Z0.0213 E1.0002
G1 X1.0 Y0.0 Z0.016 E1.0001
G1 X1.0 Y0.0 Z0.0107 E1.0001
G1 X1.0 Y0.0 Z0.0053 E1.0
G1 X1.0 Y0.0 E1.0
G1 X1.0 Y0.0 Z-0.0053 E1.0
G1 X1.0 Y0.0 Z-0.0107 E1.0001
G1 X1.0 Y0.0 Z-0.016 E1.0001
G1 X1.0 Y0.0 Z-0.0213 E1.0002
G1 X1.0 Y0.0 Z-0.0267 E1.0004
G1 X1.0 Y0.0 Z-0.032 E1.0005
G1 X1.0 Y0.0 Z-0.0373 E1.0007
G1 X1.0 Y0.0 Z-0.0427 E1.0009
G1 X1.0 Y0.0 Z-0.048 E1.0012
G1 X1.0 Y0.0 Z-0.0533 E1.0014
G1 X1.0 Y0.0 Z-0.0587 E1.0017
G1 X1.0 Y0.0 Z-0.064 E1.002
G1 X1.0 Y0.0 Z-0.0693 E1.0024
G1 X1.0 Y0.0 Z-0.0747 E1.0028
G1 X1.0 Y0.0 Z-0.08 E1.0032
G1 X1.0 Y0.0 Z-0.0853 E1.0036
G1 X1.0 Y0.0 Z-0.0907 E1.0041
G1 X1.0 Y0.0 Z-0.096 E1.0046
G1 X1.0 Y0.0 Z-0.1013 E1.0051
G1 X1.0 Y0.0 Z-0.1067 E1.0057
G1 X1.0 Y0.0 Z-0.112 E1.0063
G1 X1.0 Y0.0 Z-0.1173 E1.0069
G1 X1.0 Y0.0 Z-0.1227 E1.0075
G1 X1.0 Y0.0 Z-0.128 E1.0082
G1 X1.0 Y0.0 Z-0.1333 E1.0088
G1 Z0.15
G1 X0.5 Y-0.866 Z0.1667 E1.0138
G1 X0.5 Y-0.866 Z0.16 E1.0127
G1 X0.5 Y-0.866 Z0.1533 E1.0117
G1 X0.5 Y-0.866 Z0.1467 E1.0107
G1 X0.5 Y-0.866 Z0.14 E1.0098
G1 X0.5 Y-0.866 Z0.1333 E1.0088
G1 X0.5 Y-0.866 Z0.1267 E1.008
G1 X0.5 Y-0.866 Z0.12 E1.0072
G1 X0.5 Y-0.866 Z0.1133 E1.0064
G1 X0.5 Y-0.866 Z0.1067 E1.0057
G1 X0.5 Y-0.866 Z0.1 E1.005
G1 X0.5 Y-0.866 Z0.0933 E1.0043
G1 X0.5 Y-0.866 Z0.0867 E1.0037
G1 X0.5 Y-0.866 Z0.08 E1.0032
G1 X0.5 Y-0.866 Z0.0733 E1.0027
G1 X0.5 Y-0.866 Z0.0667 E1.0022
G1 X0.5 Y-0.866 Z0.06 E1.0018
G1 X0.5 Y-0.866 Z0.0533 E1.0014
G1 X0.5 Y-0.866 Z0.0467 E1.0011
G1 X0.5 Y-0.866 Z0.04 E1.0008
G1 X0.5 Y-0.866 Z0.0333 E1.0006
G1 X0.5 Y-0.866 Z0.0267 E1.0004
G1 X0.5 Y-0.866 Z0.02 E1.0002
G1 X0.5 Y-0.866 Z0.0133 E1.0001
G1 X0.5 Y-0.866 Z0.0067 E1.0
G1 X0.5 Y-0.866 E1.0
G1 X0.5 Y-0.866 Z-0.0067 E1.0
G1 X0.5 Y-0.866 Z-0.0133 E1.0001
G1 X0.5 Y-0.866 Z-0.02 E1.0002
G1 X0.5 Y-0.866 Z-0.0267 E1.0004
G1 X0.5 Y-0.866 Z-0.0333 E1.0006
G1 X0.5 Y-0.866 Z-0.04 E1.0008
G1 X0.5 Y-0.866 Z-0.0467 E1.0011
G1 X0.5 Y-0.866 Z-0.0533 E1.0014
G1 X0.5 Y-0.866 Z-0.06 E1.0018
G1 X0.5 Y-0.866 Z-0.0667 E1.0022
G1 X0.5 Y-0.866 Z-0.0733 E1.0027
G1 X0.5 Y-0.866 Z-0.08 E1.0032
G1 X0.5 Y-0.866 Z-0.0867 E1.0037
G1 X0.5 Y-0.866 Z-0.0933 E1.0043
G1 X0.5 Y-0.866 Z-0.1 E1.005
G1 X0.5 Y-0.866 Z-0.1067 E1.0057
G1 X0.5 Y-0.866 Z-0.1133 E1.0064
G1 X0.5 Y-0.866 Z-0.12 E1.0072
G1 X0.5 Y-0.866 Z-0.1267 E1.008
G1 X0.5 Y-0.866 Z-0.1333 E1.0088
G1 X0.5 Y-0.866 Z-0.14 E1.0098
G1 X0.5 Y-0.866 Z-0.1467 E1.0107
G1 X0.5 Y-0.866 Z-0.1533 E1.0117
G1 X0.5 Y-0.866 Z-0.16 E1.0127
G1 X0.5 Y-0.866 Z-0.1667 E1.0138
G1 X-0.5 Y-0.866 Z0.1667 E1.0138
G1 X-0.5 Y-0.866 Z0.16 E1.0127
G1 X-0.5 Y-0.866 Z0.1533 E1.0117
G1 X-0.5 Y-0.866 Z0.1467 E1.0107
G1 X-0.5 Y-0.866 Z0.14 E1.0098
G1 X-0.5 Y-0.866 Z0.1333 E1.0088
G1 X-0.5 Y-0.866 Z0.1267 E1.008
G1 X-0.5 Y-0.866 Z0.12 E1.0072
G1 X-0.5 Y-0.866 Z0.1133 E1.0064
G1 X-0.5 Y-0.866 Z0.1067 E1.0057
G1 X-0.5 Y-0.866 Z0.1 E1.005
G1 X-0.5 Y-0.866 Z0.0933 E1.0043
G1 X-0.5 Y-0.866 Z0.0867 E1.0037
G1 X-0.5 Y-0.866 Z0.08 E1.0032
G1 X-0.5 Y-0.866 Z0.0733 E1.0027
G1 X-0.5 Y-0.866 Z0.0667 E1.0022
G1 X-0.5 Y-0.866 Z0.06 E1.0018
G1 X-0.5 Y-0.866 Z0.0533 E1.0014
G1 X-0.5 Y-0.866 Z0.0467 E1.0011
G1 X-0.5 Y-0.866 Z0.04 E1.0008
G1 X-0.5 Y-0.866 Z0.0333 E1.0006
G1 X-0.5 Y-0.866 Z0.0267 E1.0004
G1 X-0.5 Y-0.866 Z0.02 E1.0002
G1 X-0.5 Y-0.866 Z0.0133 E1.0001
G1 X-0.5 Y-0.866 Z0.0067 E1.0
G1 X-0.5 Y-0.866 E1.0
G1 X-0.5 Y-0.866 Z-0.0067 E1.0
G1 X-0.5 Y-0.866 Z-0.0133 E1.0001
G1 X-0.5 Y-0.866 Z-0.02 E1.0002
G1 X-0.5 Y-0.866 Z-0.0267 E1.0004
G1 X-0.5 Y-0.866 Z-0.0333 E1.0006
G1 X-0.5 Y-0.866 Z-0.04 E1.0008
G1 X-0.5 Y-0.866 Z-0.0467 E1.0011
G1 X-0.5 Y-0.866 Z-0.0533 E1.0014
G1 X-0.5 Y-0.866 Z-0.06 E1.0018
G1 X-0.5 Y-0.866 Z-0.0667 E1.0022
G1 X-0.5 Y-0.866 Z-0.0733 E1.0027
G1 X-0.5 Y-0.866 Z-0.08 E1.0032
G1 X-0.5 Y-0.866 Z-0.0867 E1.0037
G1 X-0.5 Y-0.866 Z-0.0933 E1.0043
G1 X-0.5 Y-0.866 Z-0.1 E1.005
G1 X-0.5 Y-0.866 Z-0.1067 E1.0057
G1 X-0.5 Y-0.866 Z-0.1133 E1.0064
G1 X-0.5 Y-0.866 Z-0.12 E1.0072
G1 X-0.5 Y-0.866 Z-0.1267 E1.008
G1 X-0.5 Y-0.866 Z-0.1333 E1.0088
G1 X-0.5 Y-0.866 Z-0.14 E1.0098
G1 X-0.5 Y-0.866 Z-0.1467 E1.0107
G1 X-0.5 Y-0.866 Z-0.1533 E1.0117
G1 X-0.5 Y-0.866 Z-0.16 E1.0127
G1 X-0.5 Y-0.866 Z-0.1667 E1.0138
G1 X-1.0 Y-0.0 Z0.1667 E1.0138
G1 X-1.0 Y-0.0 Z0.16 E1.0127
G1 X-1.0 Y-0.0 Z0.1533 E1.0117
G1 X-1.0 Y-0.0 Z0.1467 E1.0107
G1 X-1.0 Y-0.0 Z0.14 E1.0098
G1 X-1.0 Y-0.0 Z0.1333 E1.0088
G1 X-1.0 Y-0.0 Z0.1267 E1.008
G1 X-1.0 Y-0.0 Z0.12 E1.0072
G1 X-1.0 Y-0.0 Z0.1133 E1.0064
G1 X-1.0 Y-0.0 Z0.1067 E1.0057
G1 X-1.0 Y-0.0 Z0.1 E1.005
G1 X-1.0 Y-0.0 Z0.0933 E1.0043
G1 X-1.0 Y-0.0 Z0.0867 E1.0037
G1 X-1.0 Y-0.0 Z0.08 E1.0032
G1 X-1.0 Y-0.0 Z0.0733 E1.0027
G1 X-1.0 Y-0.0 Z0.0667 E1.0022
G1 X-1.0 Y-0.0 Z0.06 E1.0018
G1 X-1.0 Y-0.0 Z0.0533 E1.0014
G1 X-1.0 Y-0.0 Z0.0467 E1.0011
G1 X-1.0 Y-0.0 Z0.04 E1.0008
G1 X-1.0 Y-0.0 Z0.0333 E1.0006
G1 X-1.0 Y-0.0 Z0.0267 E1.0004
G1 X-1.0 Y-0.0 Z0.02 E1.0002
G1 X-1.0 Y-0.0 Z0.0133 E1.0001
G1 X-1.0 Y-0.0 Z0.0067 E1.0
G1 X-1.0 Y-0.0 E1.0
G1 X-1.0 Y-0.0 Z-0.0067 E1.0
G1 X-1.0 Y-0.0 Z-0.0133 E1.0001
G1 X-1.0 Y-0.0 Z-0.02 E1.0002
G1 X-1.0 Y-0.0 Z-0.0267 E1.0004
G1 X-1.0 Y-0.0 Z-0.0333 E1.0006
G1 X-1.0 Y-0.0 Z-0.04 E1.0008
G1 X-1.0 Y-0.0 Z-0.0467 E1.0011
G1 X-1.0 Y-0.0 Z-0.0533 E1.0014
G1 X-1.0 Y-0.0 Z-0.06 E1.0018
G1 X-1.0 Y-0.0 Z-0.0667 E1.0022
G1 X-1.0 Y-0.0 Z-0.0733 E1.0027
G1 X-1.0 Y-0.0 Z-0.08 E1.0032
G1 X-1.0 Y-0.0 Z-0.0867 E1.0037
G1 X-1.0 Y-0.0 Z-0.0933 E1.0043
G1 X-1.0 Y-0.0 Z-0.1 E1.005
G1 X-1.0 Y-0.0 Z-0.1067 E1.0057
G1 X-1.0 Y-0.0 Z-0.1133 E1.0064
G1 X-1.0 Y-0.0 Z-0.12 E1.0072
G1 X-1.0 Y-0.0 Z-0.1267 E1.008
G1 X-1.0 Y-0.0 Z-0.1333 E1.0088
G1 X-1.0 Y-0.0 Z-0.14 E1.0098
G1 X-1.0 Y-0.0 Z-0.1467 E1.0107
G1 X-1.0 Y-0.0 Z-0.1533 E1.0117
G1 X-1.0 Y-0.0 Z-0.16 E1.0127
G1 X-1.0 Y-0.0 Z-0.1667 E1.0138
G1 X-0.5 Y0.866 Z0.1667 E1.0138
G1 X-0.5 Y0.866 Z0.16 E1.0127
G1 X-0.5 Y0.866 Z0.1533 E1.0117
G1 X-0.5 Y0.866 Z0.1467 E1.0107
G1 X-0.5 Y0.866 Z0.14 E1.0098
G1 X-0.5 Y0.866 Z0.1333 E1.0088
G1 X-0.5 Y0.866 Z0.1267 E1.008
G1 X-0.5 Y0.866 Z0.12 E1.0072
G1 X-0.5 Y0.866 Z0.1133 E1.0064
G1 X-0.5 Y0.866 Z0.1067 E1.0057
G1 X-0.5 Y0.866 Z0.1 E1.005
G1 X-0.5 Y0.866 Z0.0933 E1.0043
G1 X-0.5 Y0.866 Z0.0867 E1.0037
G1 X-0.5 Y0.866 Z0.08 E1.0032
G1 X-0.5 Y0.866 Z0.0733 E1.0027
G1 X-0.5 Y0.866 Z0.0667 E1.0022
G1 X-0.5 Y0.866 Z0.06 E1.0018
G1 X-0.5 Y0.866 Z0.0533 E1.0014
G1 X-0.5 Y0.866 Z0.0467 E1.0011
G1 X-0.5 Y0.866 Z0.04 E1.0008
G1 X-0.5 Y0.866 Z0.0333 E1.0006
G1 X-0.5 Y0.866 Z0.0267 E1.0004
G1 X-0.5 Y0.866 Z0.02 E1.0002
G1 X-0.5 Y0.866 Z0.0133 E1.0001
G1 X-0.5 Y0.866 Z0.0067 E1.0
G1 X-0.5 Y0.866 E1.0
G1 X-0.5 Y0.866 Z-0.0067 E1.0
G1 X-0.5 Y0.866 Z-0.0133 E1.0001
G1 X-0.5 Y0.866 Z-0.02 E1.0002
G1 X-0.5 Y0.866 Z-0.0267 E1.0004
G1 X-0.5 Y0.866 Z-0.0333 E1.0006
G1 X-0.5 Y0.866 Z-0.04 E1.0008
G1 X-0.5 Y0.866 Z-0.0467 E1.0011
G1 X-0.5 Y0.866 Z-0.0533 E1.0014
G1 X-0.5 Y0.866 Z-0.06 E1.0018
G1 X-0.5 Y0.866 Z-0.0667 E1.0022
G1 X-0.5 Y0.866 Z-0.0733 E1.0027
G1 X-0.5 Y0.866 Z-0.08 E1.0032
G1 X-0.5 Y0.866 Z-0.0867 E1.0037
G1 X-0.5 Y0.866 Z-0.0933 E1.0043
G1 X-0.5 Y0.866 Z-0.1 E1.005
G1 X-0.5 Y0.866 Z-0.1067 E1.0057
G1 X-0.5 Y0.866 Z-0.1133 E1.0064
G1 X-0.5 Y0.866 Z-0.12 E1.0072
G1 X-0.5 Y0.866 Z-0.1267 E1.008
G1 X-0.5 Y0.866 Z-0.1333 E1.0088
G1 X-0.5 Y0.866 Z-0.14 E1.0098
G1 X-0.5 Y0.866 Z-0.1467 E1.0107
G1 X-0.5 Y0.866 Z-0.1533 E1.0117
G1 X-0.5 Y0.866 Z-0.16 E1.0127
G1 X-0.5 Y0.866 Z-0.1667 E1.0138
G1 X0.5 Y0.866 Z0.1667 E1.0138
G1 X0.5 Y0.866 Z0.16 E1.0127
G1 X0.5 Y0.866 Z0.1533 E1.0117
G1 X0.5 Y0.866 Z0.1467 E1.0107
G1 X0.5 Y0.866 Z0.14 E1.0098
G1 X0.5 Y0.866 Z0.1333 E1.0088
G1 X0.5 Y0.866 Z0.1267 E1.008
G1 X0.5 Y0.866 Z0.12 E1.0072
G1 X0.5 Y0.866 Z0.1133 E1.0064
G1 X0.5 Y0.866 Z0.1067 E1.0057
G1 X0.5 Y0.866 Z0.1 E1.005
G1 X0.5 Y0.866 Z0.0933 E1.0043
G1 X0.5 Y0.866 Z0.0867 E1.0037
G1 X0.5 Y0.866 Z0.08 E1.0032
G1 X0.5 Y0.866 Z0.0733 E1.0027
G1 X0.5 Y0.866 Z0.0667 E1.0022
G1 X0.5 Y0.866 Z0.06 E1.0018
G1 X0.5 Y0.866 Z0.0533 E1.0014
G1 X0.5 Y0.866 Z0.0467 E1.0011
G1 X0.5 Y0.866 Z0.04 E1.0008
G1 X0.5 Y0.866 Z0.0333 E1.0006
G1 X0.5 Y0.866 Z0.0267 E1.0004
G1 X0.5 Y0.866 Z0.02 E1.0002
G1 X0.5 Y0.866 Z0.0133 E1.0001
G1 X0.5 Y0.866 Z0.0067 E1.0
G1 X0.5 Y0.866 E1.0
G1 X0.5 Y0.866 Z-0.0067 E1.0
G1 X0.5 Y0.866 Z-0.0133 E1.0001
G1 X0.5 Y0.866 Z-0.02 E1.0002
G1 X0.5 Y0.866 Z-0.0267 E1.0004
G1 X0.5 Y0.866 Z-0.0333 E1.0006
G1 X0.5 Y0.866 Z-0.04 E1.0008
G1 X0.5 Y0.866 Z-0.0467 E1.0011
G1 X0.5 Y0.866 Z-0.0533 E1.0014
G1 X0.5 Y0.866 Z-0.06 E1.0018
G1 X0.5 Y0.866 Z-0.0667 E1.0022
G1 X0.5 Y0.866 Z-0.0733 E1.0027
G1 X0.5 Y0.866 Z-0.08 E1.0032
G1 X0.5 Y0.866 Z-0.0867 E1.0037
G1 X0.5 Y0.866 Z-0.0933 E1.0043
G1 X0.5 Y0.866 Z-0.1 E1.005
G1 X0.5 Y0.866 Z-0.1067 E1.0057
G1 X0.5 Y0.866 Z-0.1133 E1.0064
G1 X0.5 Y0.866 Z-0.12 E1.0072
G1 X0.5 Y0.866 Z-0.1267 E1.008
G1 X0.5 Y0.866 Z-0.1333 E1.0088
G1 X0.5 Y0.866 Z-0.14 E1.0098
G1 X0.5 Y0.866 Z-0.1467 E1.0107
G1 X0.5 Y0.866 Z-0.1533 E1.0117
G1 X0.5 Y0.866 Z-0.16 E1.0127
G1 X0.5 Y0.866 Z-0.1667 E1.0138
G1 Z0.15
G1 X1.0 Y0.0 Z0.2 E1.0198
G1 X1.0 Y0.0 Z0.192 E1.0183
G1 X1.0 Y0.0 Z0.184 E1.0168
G1 X1.0 Y0.0 Z0.176 E1.0154
G1 X1.0 Y0.0 Z0.168 E1.014
G1 X1.0 Y0.0 Z0.16 E1.0127
G1 X1.0 Y0.0 Z0.152 E1.0115
G1 X1.0 Y0.0 Z0.144 E1.0103
G1 X1.0 Y0.0 Z0.136 E1.0092
G1 X1.0 Y0.0 Z0.128 E1.0082
G1 X1.0 Y0.0 Z0.12 E1.0072
G1 X1.0 Y0.0 Z0.112 E1.0063
G1 X1.0 Y0.0 Z0.104 E1.0054
G1 X1.0 Y0.0 Z0.096 E1.0046
G1 X1.0 Y0.0 Z0.088 E1.0039
G1 X1.0 Y0.0 Z0.08 E1.0032
G1 X1.0 Y0.0 Z0.072 E1.0026
G1 X1.0 Y0.0 Z0.064 E1.002
G1 X1.0 Y0.0 Z0.056 E1.0016
G1 X1.0 Y0.0 Z0.048 E1.0012
G1 X1.0 Y0.0 Z0.04 E1.0008
G1 X1.0 Y0.0 Z0.032 E1.0005
G1 X1.0 Y0.0 Z0.024 E1.0003
G1 X1.0 Y0.0 Z0.016 E1.0001
G1 X1.0 Y0.0 Z0.008 E1.0
G1 X1.0 Y0.0 E1.0
G1 X1.0 Y0.0 Z-0.008 E1.0
G1 X1.0 Y0.0 Z-0.016 E1.0001
G1 X1.0 Y0.0 Z-0.024 E1.0003
G1 X1.0 Y0.0 Z-0.032 E1.0005
G1 X1.0 Y0.0 Z-0.04 E1.0008
G1 X1.0 Y0.0 Z-0.048 E1.0012
G1 X1.0 Y0.0 Z-0.056 E1.0016
G1 X1.0 Y0.0 Z-0.064 E1.002
G1 X1.0 Y0.0 Z-0.072 E1.0026
G1 X1.0 Y0.0 Z-0.08 E1.0032
G1 X1.0 Y0.0 Z-0.088 E1.0039
G1 X1.0 Y0.0 Z-0.096 E1.0046
G1 X1.0 Y0.0 Z-0.104 E1.0054
G1 X1.0 Y0.0 Z-0.112 E1.0063
G1 X1.0 Y0.0 Z-0.12 E1.0072
G1 X1.0 Y0.0 Z-0.128 E1.0082
G1 X1.0 Y0.0 Z-0.136 E1.0092
G1 X1.0 Y0.0 Z-0.144 E1.0103
G1 X1.0 Y0.0 Z-0.152 E1.0115
G1 X1.0 Y0.0 Z-0.16 E1.0127
G1 X1.0 Y0.0 Z-0.168 E1.014
G1 X1.0 Y0.0 Z-0.176 E1.0154
G1 X1.0 Y0.0 Z-0.184 E1.0168
G1 X1.0 Y0.0 Z-0.192 E1.0183
G1 X1.0 Y0.0 Z-0.2 E1.0198
G1 X0.5 Y-0.866 Z0.2 E1.0198
G1 X0.5 Y-0.866 Z0.192 E1.0183
G1 X0.5 Y-0.866 Z0.184 E1.0168
G1 X0.5 Y-0.866 Z0.176 E1.0154
G1 X0.5 Y-0.866 Z0.168 E1.014
G1 X0.5 Y-0.866 Z0.16 E1.0127
G1 X0.5 Y-0.866 Z0.152 E1.0115
G1 X0.5 Y-0.866 Z0.144 E1.0103
G1 X0.5 Y-0.866 Z0.136 E1.0092
G1 X0.5 Y-0.866 Z0.128 E1.0082
G1 X0.5 Y-0.866 Z0.12 E1.0072
G1 X0.5 Y-0.866 Z0.112 E1.0063
G1 X0.5 Y-0.866 Z0.104 E1.0054
G1 X0.5 Y-0.866 Z0.096 E1.0046
G1 X0.5 Y-0.866 Z0.088 E1.0039
G1 X0.5 Y-0.866 Z0.08 E1.0032
G1 X0.5 Y-0.866 Z0.072 E1.0026
G1 X0.5 Y-0.866 Z0.064 E1.002
G1 X0.5 Y-0.866 Z0.056 E1.0016
G1 X0.5 Y-0.866 Z0.048 E1.0012
G1 X0.5 Y-0.866 Z0.04 E1.0008
G1 X0.5 Y-0.866 Z0.032 E1.0005
G1 X0.5 Y-0.866 Z0.024 E1.0003
G1 X0.5 Y-0.866 Z0.016 E1.0001
G1 X0.5 Y-0.866 Z0.008 E1.0
G1 X0.5 Y-0.866 E1.0
G1 X0.5 Y-0.866 Z-0.008 E1.0
G1 X0.5 Y-0.866 Z-0.016 E1.0001
G1 X0.5 Y-0.866 Z-0.024 E1.0003
G1 X0.5 Y-0.866 Z-0.032 E1.0005
G1 X0.5 Y-0.866 Z-0.04 E1.0008
G1 X0.5 Y-0.866 Z-0.048 E1.0012
G1 X0.5 Y-0.866 Z-0.056 E1.0016
G1 X0.5 Y-0.866 Z-0.064 E1.002
G1 X0.5 Y-0.866 Z-0.072 E1.0026
G1 X0.5 Y-0.866 Z-0.08 E1.0032
G1 X0.5 Y-0.866 Z-0.088 E1.0039
G1 X0.5 Y-0.866 Z-0.096 E1.0046
G1 X0.5 Y-0.866 Z-0.104 E1.0054
G1 X0.5 Y-0.866 Z-0.112 E1.0063
G1 X0.5 Y-0.866 Z-0.12 E1.0072
G1 X0.5 Y-0.866 Z-0.128 E1.0082
G1 X0.5 Y-0.866 Z-0.136 E1.0092
G1 X0.5 Y-0.866 Z-0.144 E1.0103
G1 X0.5 Y-0.866 Z-0.152 E1.0115
G1 X0.5 Y-0.866 Z-0.16 E1.0127
G1 X0.5 Y-0.866 Z-0.168 E1.014
G1 X0.5 Y-0.866 Z-0.176 E1.0154
G1 X0.5 Y-0.866 Z-0.184 E1.0168
G1 X0.5 Y-0.866 Z-0.192 E1.0183
G1 X0.5 Y-0.866 Z-0.2 E1.0198
G1 X-0.5 Y-0.866 Z0.2 E1.0198
G1 X-0.5 Y-0.866 Z0.192 E1.0183
G1 X-0.5 Y-0.866 Z0.184 E1.0168
G1 X-0.5 Y-0.866 Z0.176 E1.0154
G1 X-0.5 Y-0.866 Z0.168 E1.014
G1 X-0.5 Y-0.866 Z0.16 E1.0127
G1 X-0.5 Y-0.866 Z0.152 E1.0115
G1 X-0.5 Y-0.866 Z0.144 E1.0103
G1 X-0.5 Y-0.866 Z0.136 E1.0092
G1 X-0.5 Y-0.866 Z0.128 E1.0082
G1 X-0.5 Y-0.866 Z0.12 E1.0072
G1 X-0.5 Y-0.866 Z0.112 E1.0063
G1 X-0.5 Y-0.866 Z0.104 E1.0054
G1 X-0.5 Y-0.866 Z0.096 E1.0046
G1 X-0.5 Y-0.866 Z0.088 E1.0039
G1 X-0.5 Y-0.866 Z0.08 E1.0032
G1 X-0.5 Y-0.866 Z0.072 E1.0026
G1 X-0.5 Y-0.866 Z0.064 E1.002
G1 X-0.5 Y-0.866 Z0.056 E1.0016
G1 X-0.5 Y-0.866 Z0.048 E1.0012
G1 X-0.5 Y-0.866 Z0.04 E1.0008
G1 X-0.5 Y-0.866 Z0.032 E1.0005
G1 X-0.5 Y-0.866 Z0.024 E1.0003
G1 X-0.5 Y-0.866 Z0.016 E1.0001
G1 X-0.5 Y-0.866 Z0.008 E1.0
G1 X-0.5 Y-0.866 E1.0
G1 X-0.5 Y-0.866 Z-0.008 E1.0
G1 X-0.5 Y-0.866 Z-0.016 E1.0001
G1 X-0.5 Y-0.866 Z-0.024 E1.0003
G1 X-0.5 Y-0.866 Z-0.032 E1.0005
G1 X-0.5 Y-0.866 Z-0.04 E1.0008
G1 X-0.5 Y-0.866 Z-0.048 E1.0012
G1 X-0.5 Y-0.866 Z-0.056 E1.0016
G1 X-0.5 Y-0.866 Z-0.064 E1.002
G1 X-0.5 Y-0.866 Z-0.072 E1.0026
G1 X-0.5 Y-0.866 Z-0.08 E1.0032
G1 X-0.5 Y-0.866 Z-0.088 E1.0039
G1 X-0.5 Y-0.866 Z-0.096 E1.0046
G1 X-0.5 Y-0.866 Z-0.104 E1.0054
G1 X-0.5 Y-0.866 Z-0.112 E1.0063
G1 X-0.5 Y-0.866 Z-0.12 E1.0072
G1 X-0.5 Y-0.866 Z-0.128 E1.0082
G1 X-0.5 Y-0.866 Z-0.136 E1.0092
G1 X-0.5 Y-0.866 Z-0.144 E1.0103
G1 X-0.5 Y-0.866 Z-0.152 E1.0115
G1 X-0.5 Y-0.866 Z-0.16 E1.0127
G1 X-0.5 Y-0.866 Z-0.168 E1.014
G1 X-0.5 Y-0.866 Z-0.176 E1.0154
G1 X-0.5 Y-0.866 Z-0.184 E1.0168
G1 X-0.5 Y-0.866 Z-0.192 E1.0183
G1 X-0.5 Y-0.866 Z-0.2 E1.0198
G1 X-1.0 Y-0.0 Z0.2 E1.0198
G1 X-1.0 Y-0.0 Z0.192 E1.0183
G1 X-1.0 Y-0.0 Z0.184 E1.0168
G1 X-1.0 Y-0.0 Z0.176 E1.0154
G1 X-1.0 Y-0.0 Z0.168 E1.014
G1 X-1.0 Y-0.0 Z0.16 E1.0127
G1 X-1.0 Y-0.0 Z0.152 E1.0115
G1 X-1.0 Y-0.0 Z0.144 E1.0103
G1 X-1.0 Y-0.0 Z0.136 E1.0092
G1 X-1.0 Y-0.0 Z0.128 E1.0082
G1 X-1.0 Y-0.0 Z0.12 E1.0072
G1 X-1.0 Y-0.0 Z0.112 E1.0063
G1 X-1.0 Y-0.0 Z0.104 E1.0054
G1 X-1.0 Y-0.0 Z0.096 E1.0046
G1 X-1.0 Y-0.0 Z0.088 E1.0039
G1 X-1.0 Y-0.0 Z0.08 E1.0032
G1 X-1.0 Y-0.0 Z0.072 E1.0026
G1 X-1.0 Y-0.0 Z0.064 E1.002
G1 X-1.0 Y-0.0 Z0.056 E1.0016
G1 X-1.0 Y-0.0 Z0.048 E1.0012
G1 X-1.0 Y-0.0 Z0.04 E1.0008
G1 X-1.0 Y-0.0 Z0.032 E1.0005
G1 X-1.0 Y-0.0 Z0.024 E1.0003
G1 X-1.0 Y-0.0 Z0.016 E1.0001
G1 X-1.0 Y-0.0 Z0.008 E1.0
G1 X-1.0 Y-0.0 E1.0
G1 X-1.0 Y-0.0 Z-0.008 E1.0
G1 X-1.0 Y-0.0 Z-0.016 E1.0001
G1 X-1.0 Y-0.0 Z-0.024 E1.0003
G1 X-1.0 Y-0.0 Z-0.032 E1.0005
G1 X-1.0 Y-0.0 Z-0.04 E1.0008
G1 X-1.0 Y-0.0 Z-0.048 E1.0012
G1 X-1.0 Y-0.0 Z-0.056 E1.0016
G1 X-1.0 Y-0.0 Z-0.064 E1.002
G1 X-1.0 Y-0.0 Z-0.072 E1.0026
G1 X-1.0 Y-0.0 Z-0.08 E1.0032
G1 X-1.0 Y-0.0 Z-0.088 E1.0039
G1 X-1.0 Y-0.0 Z-0.096 E1.0046
G1 X-1.0 Y-0.0 Z-0.104 E1.0054
G1 X-1.0 Y-0.0 Z-0.112 E1.0063
G1 X-1.0 Y-0.0 Z-0.12 E1.0072
G1 X-1.0 Y-0.0 Z-0.128 E1.0082
G1 X-1.0 Y-0.0 Z-0.136 E1.0092
G1 X-1.0 Y-0.0 Z-0.144 E1.0103
G1 X-1.0 Y-0.0 Z-0.152 E1.0115
G1 X-1.0 Y-0.0 Z-0.16 E1.0127
G1 X-1.0 Y-0.0 Z-0.168 E1.014
G1 X-1.0 Y-0.0 Z-0.176 E1.0154
G1 X-1.0 Y-0.0 Z-0.184 E1.0168
G1 X-1.0 Y-0.0 Z-0.192 E1.0183
G1 X-1.0 Y-0.0 Z-0.2 E1.0198
G1 X-0.5 Y0.866 Z0.2 E1.0198
G1 X-0.5 Y0.866 Z0.192 E1.0183
G1 X-0.5 Y0.866 Z0.184 E1.0168
G1 X-0.5 Y0.866 Z0.176 E1.0154
G1 X-0.5 Y0.866 Z0.168 E1.014
G1 X-0.5 Y0.866 Z0.16 E1.0127
G1 X-0.5 Y0.866 Z0.152 E1.0115
G1 X-0.5 Y0.866 Z0.144 E1.0103
G1 X-0.5 Y0.866 Z0.136 E1.0092
G1 X-0.5 Y0.866 Z0.128 E1.0082
G1 X-0.5 Y0.866 Z0.12 E1.0072
G1 X-0.5 Y0.866 Z0.112 E1.0063
G1 X-0.5 Y0.866 Z0.104 E1.0054
G1 X-0.5 Y0.866 Z0.096 E1.0046
G1 X-0.5 Y0.866 Z0.088 E1.0039
G1 X-0.5 Y0.866 Z0.08 E1.0032
G1 X-0.5 Y0.866 Z0.072 E1.0026
G1 X-0.5 Y0.866 Z0.064 E1.002
G1 X-0.5 Y0.866 Z0.056 E1.0016
G1 X-0.5 Y0.866 Z0.048 E1.0012
G1 X-0.5 Y0.866 Z0.04 E1.0008
G1 X-0.5 Y0.866 Z0.032 E1.0005
G1 X-0.5 Y0.866 Z0.024 E1.0003
G1 X-0.5 Y0.866 Z0.016 E1.0001
G1 X-0.5 Y0.866 Z0.008 E1.0
G1 X-0.5 Y0.866 E1.0
G1 X-0.5 Y0.866 Z-0.008 E1.0
G1 X-0.5 Y0.866 Z-0.016 E1.0001
G1 X-0.5 Y0.866 Z-0.024 E1.0003
G1 X-0.5 Y0.866 Z-0.032 E1.0005
G1 X-0.5 Y0.866 Z-0.04 E1.0008
G1 X-0.5 Y0.866 Z-0.048 E1.0012
G1 X-0.5 Y0.866 Z-0.056 E1.0016
G1 X-0.5 Y0.866 Z-0.064 E1.002
G1 X-0.5 Y0.866 Z-0.072 E1.0026
G1 X-0.5 Y0.866 Z-0.08 E1.0032
G1 X-0.5 Y0.866 Z-0.088 E1.0039
G1 X-0.5 Y0.866 Z-0.096 E1.0046
G1 X-0.5 Y0.866 Z-0.104 E1.0054
G1 X-0.5 Y0.866 Z-0.112 E1.0063
G1 X-0.5 Y0.866 Z-0.12 E1.0072
G1 X-0.5 Y0.866 Z-0.128 E1.0082
G1 X-0.5 Y0.866 Z-0.136 E1.0092
G1 X-0.5 Y0.866 Z-0.144 E1.0103
G1 X-0.5 Y0.866 Z-0.152 E1.0115
G1 X-0.5 Y0.866 Z-0.16 E1.0127
G1 X-0.5 Y0.866 Z-0.168 E1.014
G1 X-0.5 Y0.866 Z-0.176 E1.0154
G1 X-0.5 Y0.866 Z-0.184 E1.0168
G1 X-0.5 Y0.866 Z-0.192 E1.0183
G1 X-0.5 Y0.866 Z-0.2 E1.0198
G1 Z0.15
G1 X0.5 Y0.866 Z0.2333 E1.0269
G1 X0.5 Y0.866 Z0.224 E1.0248
G1 X0.5 Y0.866 Z0.2147 E1.0228
G1 X0.5 Y0.866 Z0.2053 E1.0209
G1 X0.5 Y0.866 Z0.196 E1.019
G1 X0.5 Y0.866 Z0.1867 E1.0173
G1 X0.5 Y0.866 Z0.1773 E1.0156
G1 X0.5 Y0.866 Z0.168 E1.014
G1 X0.5 Y0.866 Z0.1587 E1.0125
G1 X0.5 Y0.866 Z0.1493 E1.0111
G1 X0.5 Y0.866 Z0.14 E1.0098
G1 X0.5 Y0.866 Z0.1307 E1.0085
G1 X0.5 Y0.866 Z0.1213 E1.0073
G1 X0.5 Y0.866 Z0.112 E1.0063
G1 X0.5 Y0.866 Z0.1027 E1.0053
G1 X0.5 Y0.866 Z0.0933 E1.0043
G1 X0.5 Y0.866 Z0.084 E1.0035
G1 X0.5 Y0.866 Z0.0747 E1.0028
G1 X0.5 Y0.866 Z0.0653 E1.0021
G1 X0.5 Y0.866 Z0.056 E1.0016
G1 X0.5 Y0.866 Z0.0467 E1.0011
G1 X0.5 Y0.866 Z0.0373 E1.0007
G1 X0.5 Y0.866 Z0.028 E1.0004
G1 X0.5 Y0.866 Z0.0187 E1.0002
G1 X0.5 Y0.866 Z0.0093 E1.0
G1 X0.5 Y0.866 E1.0
G1 X0.5 Y0.866 Z-0.0093 E1.0
G1 X0.5 Y0.866 Z-0.0187 E1.0002
G1 X0.5 Y0.866 Z-0.028 E1.0004
G1 X0.5 Y0.866 Z-0.0373 E1.0007
G1 X0.5 Y0.866 Z-0.0467 E1.0011
G1 X0.5 Y0.866 Z-0.056 E1.0016
G1 X0.5 Y0.866 Z-0.0653 E1.0021
G1 X0.5 Y0.866 Z-0.0747 E1.0028
G1 X0.5 Y0.866 Z-0.084 E1.0035
G1 X0.5 Y0.866 Z-0.0933 E1.0043
G1 X0.5 Y0.866 Z-0.1027 E1.0053
G1 X0.5 Y0.866 Z-0.112 E1.0063
G1 X0.5 Y0.866 Z-0.1213 E1.0073
G1 X0.5 Y0.866 Z-0.1307 E1.0085
G1 X0.5 Y0.866 Z-0.14 E1.0098
G1 X0.5 Y0.866 Z-0.1493 E1.0111
G1 X0.5 Y0.866 Z-0.1587 E1.0125
G1 X0.5 Y0.866 Z-0.168 E1.014
G1 X0.5 Y0.866 Z-0.1773 E1.0156
G1 X0.5 Y0.866 Z-0.1867 E1.0173
G1 X0.5 Y0.866 Z-0.196 E1.019
G1 X0.5 Y0.866 Z-0.2053 E1.0209
G1 X0.5 Y0.866 Z-0.2147 E1.0228
G1 X0.5 Y0.866 Z-0.224 E1.0248
G1 X0.5 Y0.866 Z-0.2333 E1.0269
G1 X1.0 Y0.0 Z0.2333 E1.0269
G1 X1.0 Y0.0 Z0.224 E1.0248
G1 X1.0 Y0.0 Z0.2147 E1.0228
G1 X1.0 Y0.0 Z0.2053 E1.0209
G1 X1.0 Y0.0 Z0.196 E1.019
G1 X1.0 Y0.0 Z0.1867 E1.0173
G1 X1.0 Y0.0 Z0.1773 E1.0156
G1 X1.0 Y0.0 Z0.168 E1.014
G1 X1.0 Y0.0 Z0.1587 E1.0125
G1 X1.0 Y0.0 Z0.1493 E1.0111
G1 X1.0 Y0.0 Z0.14 E1.0098
G1 X1.0 Y0.0 Z0.1307 E1.0085
G1 X1.0 Y0.0 Z0.1213 E1.0073
G1 X1.0 Y0.0 Z0.112 E1.0063
G1 X1.0 Y0.0 Z0.1027 E1.0053
G1 X1.0 Y0.0 Z0.0933 E1.0043
G1 X1.0 Y0.0 Z0.084 E1.0035
G1 X1.0 Y0.0 Z0.0747 E1.0028
G1 X1.0 Y0.0 Z0.0653 E1.0021
G1 X1.0 Y0.0 Z0.056 E1.0016
G1 X1.0 Y0.0 Z0.0467 E1.0011
G1 X1.0 Y0.0 Z0.0373 E1.0007
G1 X1.0 Y0.0 Z0.028 E1.0004
G1 X1.0 Y0.0 Z0.0187 E1.0002
G1 X1.0 Y0.0 Z0.0093 E1.0
G1 X1.0 Y0.0 E1.0
G1 X1.0 Y0.0 Z-0.0093 E1.0
G1 X1.0 Y0.0 Z-0.0187 E1.0002
G1 X1.0 Y0.0 Z-0.028 E1.0004
G1 X1.0 Y0.0 Z-0.0373 E1.0007
G1 X1.0 Y0.0 Z-0.0467 E1.0011
G1 X1.0 Y0.0 Z-0.056 E1.0016
G1 X1.0 Y0.0 Z-0.0653 E1.0021
G1 X1.0 Y0.0 Z-0.0747 E1.0028
G1 X1.0 Y0.0 Z-0.084 E1.0035
G1 X1.0 Y0.0 Z-0.0933 E1.0043
G1 X1.0 Y0.0 Z-0.1027 E1.0053
G1 X1.0 Y0.0 Z-0.112 E1.0063
G1 X1.0 Y0.0 Z-0.1213 E1.0073
G1 X1.0 Y0.0 Z-0.1307 E1.0085
G1 X1.0 Y0.0 Z-0.14 E1.0098
G1 X1.0 Y0.0 Z-0.1493 E1.0111
G1 X1.0 Y0.0 Z-0.1587 E1.0125
G1 X1.0 Y0.0 Z-0.168 E1.014
G1 X1.0 Y0.0 Z-0.1773 E1.0156
G1 X1.0 Y0.0 Z-0.1867 E1.0173
G1 X1.0 Y0.0 Z-0.196 E1.019
G1 X1.0 Y0.0 Z-0.2053 E1.0209
G1 X1.0 Y0.0 Z-0.2147 E1.0228
G1 X1.0 Y0.0 Z-0.224 E1.0248
G1 X1.0 Y0.0 Z-0.2333 E1.0269
G1 X0.5 Y-0.866 Z0.2333 E1.0269
G1 X0.5 Y-0.866 Z0.224 E1.0248
G1 X0.5 Y-0.866 Z0.2147 E1.0228
G1 X0.5 Y-0.866 Z0.2053 E1.0209
G1 X0.5 Y-0.866 Z0.196 E1.019
G1 X0.5 Y-0.866 Z0.1867 E1.0173
G1 X0.5 Y-0.866 Z0.1773 E1.0156
G1 X0.5 Y-0.866 Z0.168 E1.014
G1 X0.5 Y-0.866 Z0.1587 E1.0125
G1 X0.5 Y-0.866 Z0.1493 E1.0111
G1 X0.5 Y-0.866 Z0.14 E1.0098
G1 X0.5 Y-0.866 Z0.1307 E1.0085
G1 X0.5 Y-0.866 Z0.1213 E1.0073
G1 X0.5 Y-0.866 Z0.112 E1.0063
G1 X0.5 Y-0.866 Z0.1027 E1.0053
G1 X0.5 Y-0.866 Z0.0933 E1.0043
G1 X0.5 Y-0.866 Z0.084 E1.0035
G1 X0.5 Y-0.866 Z0.0747 E1.0028
G1 X0.5 Y-0.866 Z0.0653 E1.0021
G1 X0.5 Y-0.866 Z0.056 E1.0016
G1 X0.5 Y-0.866 Z0.0467 E1.0011
G1 X0.5 Y-0.866 Z0.0373 E1.0007
G1 X0.5 Y-0.866 Z0.028 E1.0004
G1 X0.5 Y-0.866 Z0.0187 E1.0002
G1 X0.5 Y-0.866 Z0.0093 E1.0
G1 X0.5 Y-0.866 E1.0
G1 X0.5 Y-0.866 Z-0.0093 E1.0
G1 X0.5 Y-0.866 Z-0.0187 E1.0002
G1 X0.5 Y-0.866 Z-0.028 E1.0004
G1 X0.5 Y-0.866 Z-0.0373 E1.0007
G1 X0.5 Y-0.866 Z-0.0467 E1.0011
G1 X0.5 Y-0.866 Z-0.056 E1.0016
G1 X0.5 Y-0.866 Z-0.0653 E1.0021
G1 X0.5 Y-0.866 Z-0.0747 E1.0028
G1 X0.5 Y-0.866 Z-0.084 E1.0035
G1 X0.5 Y-0.866 Z-0.0933 E1.0043
G1 X0.5 Y-0.866 Z-0.1027 E1.0053
G1 X0.5 Y-0.866 Z-0.112 E1.0063
G1 X0.5 Y-0.866 Z-0.1213 E1.0073
G1 X0.5 Y-0.866 Z-0.1307 E1.0085
G1 X0.5 Y-0.866 Z-0.14 E1.0098
G1 X0.5 Y-0.866 Z-0.1493 E1.0111
G1 X0.5 Y-0.866 Z-0.1587 E1.0125
G1 X0.5 Y-0.866 Z-0.168 E1.014
G1 X0.5 Y-0.866 Z-0.1773 E1.0156
G1 X0.5 Y-0.866 Z-0.1867 E1.0173
G1 X0.5 Y-0.866 Z-0.196 E1.019
G1 X0.5 Y-0.866 Z-0.2053 E1.0209
G1 X0.5 Y-0.866 Z-0.2147 E1.0228
G1 X0.5 Y-0.866 Z-0.224 E1.0248
G1 X0.5 Y-0.866 Z-0.2333 E1.0269
G1 X-0.5 Y-0.866 Z0.2333 E1.0269
G1 X-0.5 Y-0.866 Z0.224 E1.0248
G1 X-0.5 Y-0.866 Z0.2147 E1.0228
G1 X-0.5 Y-0.866 Z0.2053 E1.0209
G1 X-0.5 Y-0.866 Z0.196 E1.019
G1 X-0.5 Y-0.866 Z0.1867 E1.0173
G1 X-0.5 Y-0.866 Z0.1773 E1.0156
G1 X-0.5 Y-0.866 Z0.168 E1.014
G1 X-0.5 Y-0.866 Z0.1587 E1.0125
G1 X-0.5 Y-0.866 Z0.1493 E1.0111
G1 X-0.5 Y-0.866 Z0.14 E1.0098
G1 X-0.5 Y-0.866 Z0.1307 E1.0085
G1 X-0.5 Y-0.866 Z0.1213 E1.0073
G1 X-0.5 Y-0.866 Z0.112 E1.0063
G1 X-0.5 Y-0.866 Z0.1027 E1.0053
G1 X-0.5 Y-0.866 Z0.0933 E1.0043
G1 X-0.5 Y-0.866 Z0.084 E1.0035
G1 X-0.5 Y-0.866 Z0.0747 E1.0028
G1 X-0.5 Y-0.866 Z0.0653 E1.0021
G1 X-0.5 Y-0.866 Z0.056 E1.0016
G1 X-0.5 Y-0.866 Z0.0467 E1.0011
G1 X-0.5 Y-0.866 Z0.0373 E1.0007
G1 X-0.5 Y-0.866 Z0.028 E1.0004
G1 X-0.5 Y-0.866 Z0.0187 E1.0002
G1 X-0.5 Y-0.866 Z0.0093 E1.0
G1 X-0.5 Y-0.866 E1.0
G1 X-0.5 Y-0.866 Z-0.0093 E1.0
G1 X-0.5 Y-0.866 Z-0.0187 E1.0002
G1 X-0.5 Y-0.866 Z-0.028 E1.0004
G1 X-0.5 Y-0.866 Z-0.0373 E1.0007
G1 X-0.5 Y-0.866 Z-0.0467 E1.0011
G1 X-0.5 Y-0.866 Z-0.056 E1.0016
G1 X-0.5 Y-0.866 Z-0.0653 E1.0021
G1 X-0.5 Y-0.866 Z-0.0747 E1.0028
G1 X-0.5 Y-0.866 Z-0.084 E1.0035
G1 X-0.5 Y-0.866 Z-0.0933 E1.0043
G1 X-0.5 Y-0.866 Z-0.1027 E1.0053
G1 X-0.5 Y-0.866 Z-0.112 E1.0063
G1 X-0.5 Y-0.866 Z-0.1213 E1.0073
G1 X-0.5 Y-0.866 Z-0.1307 E1.0085
G1 X-0.5 Y-0.866 Z-0.14 E1.0098
G1 X-0.5 Y-0.866 Z-0.1493 E1.0111
G1 X-0.5 Y-0.866 Z-0.1587 E1.0125
G1 X-0.5 Y-0.866 Z-0.168 E1.014
G1 X-0.5 Y-0.866 Z-0.1773 E1.0156
G1 X-0.5 Y-0.866 Z-0.1867 E1.0173
G1 X-0.5 Y-0.866 Z-0.196 E1.019
G1 X-0.5 Y-0.866 Z-0.2053 E1.0209
G1 X-0.5 Y-0.866 Z-0.2147 E1.0228
G1 X-0.5 Y-0.866 Z-0.224 E1.0248
G1 X-0.5 Y-0.866 Z-0.2333 E1.0269
G1 X-1.0 Y-0.0 Z0.2333 E1.0269
G1 X-1.0 Y-0.0 Z0.224 E1.0248
G1 X-1.0 Y-0.0 Z0.2147 E1.0228
G1 X-1.0 Y-0.0 Z0.2053 E1.0209
G1 X-1.0 Y-0.0 Z0.196 E1.019
G1 X-1.0 Y-0.0 Z0.1867 E1.0173
G1 X-1.0 Y-0.0 Z0.1773 E1.0156
G1 X-1.0 Y-0.0 Z0.168 E1.014
G1 X-1.0 Y-0.0 Z0.1587 E1.0125
G1 X-1.0 Y-0.0 Z0.1493 E1.0111
G1 X-1.0 Y-0.0 Z0.14 E1.0098
G1 X-1.0 Y-0.0 Z0.1307 E1.0085
G1 X-1.0 Y-0.0 Z0.1213 E1.0073
G1 X-1.0 Y-0.0 Z0.112 E1.0063
G1 X-1.0 Y-0.0 Z0.1027 E1.0053
G1 X-1.0 Y-0.0 Z0.0933 E1.0043
G1 X-1.0 Y-0.0 Z0.084 E1.0035
G1 X-1.0 Y-0.0 Z0.0747 E1.0028
G1 X-1.0 Y-0.0 Z0.0653 E1.0021
G1 X-1.0 Y-0.0 Z0.056 E1.0016
G1 X-1.0 Y-0.0 Z0.0467 E1.0011
G1 X-1.0 Y-0.0 Z0.0373 E1.0007
G1 X-1.0 Y-0.0 Z0.028 E1.0004
G1 X-1.0 Y-0.0 Z0.0187 E1.0002
G1 X-1.0 Y-0.0 Z0.0093 E1.0
G1 X-1.0 Y-0.0 E1.0
G1 X-1.0 Y-0.0 Z-0.0093 E1.0
G1 X-1.0 Y-0.0 Z-0.0187 E1.0002
G1 X-1.0 Y-0.0 Z-0.028 E1.0004
G1 X-1.0 Y-0.0 Z-0.0373 E1.0007
G1 X-1.0 Y-0.0 Z-0.0467 E1.0011
G1 X-1.0 Y-0.0 Z-0.056 E1.0016
G1 X-1.0 Y-0.0 Z-0.0653 E1.0021
G1 X-1.0 Y-0.0 Z-0.0747 E1.0028
G1 X-1.0 Y-0.0 Z-0.084 E1.0035
G1 X-1.0 Y-0.0 Z-0.0933 E1.0043
G1 X-1.0 Y-0.0 Z-0.1027 E1.0053
G1 X-1.0 Y-0.0 Z-0.112 E1.0063
G1 X-1.0 Y-0.0 Z-0.1213 E1.0073
G1 X-1.0 Y-0.0 Z-0.1307 E1.0085
G1 X-1.0 Y-0.0 Z-0.14 E1.0098
G1 X-1.0 Y-0.0 Z-0.1493 E1.0111
G1 X-1.0 Y-0.0 Z-0.1587 E1.0125
G1 X-1.0 Y-0.0 Z-0.168 E1.014
G1 X-1.0 Y-0.0 Z-0.1773 E1.0156
G1 X-1.0 Y-0.0 Z-0.1867 E1.0173
G1 X-1.0 Y-0.0 Z-0.196 E1.019
G1 X-1.0 Y-0.0 Z-0.2053 E1.0209
G1 X-1.0 Y-0.0 Z-0.2147 E1.0228
G1 X-1.0 Y-0.0 Z-0.224 E1.0248
G1 X-1.0 Y-0.0 Z-0.2333 E1.0269
G1 Z0.15
G1 X-0.5 Y0.866 Z0.2667 E1.0349
G1 X-0.5 Y0.866 Z0.256 E1.0322
G1 X-0.5 Y0.866 Z0.2453 E1.0297
G1 X-0.5 Y0.866 Z0.2347 E1.0272
G1 X-0.5 Y0.866 Z0.224 E1.0248
G1 X-0.5 Y0.866 Z0.2133 E1.0225
G1 X-0.5 Y0.866 Z0.2027 E1.0203
G1 X-0.5 Y0.866 Z0.192 E1.0183
G1 X-0.5 Y0.866 Z0.1813 E1.0163
G1 X-0.5 Y0.866 Z0.1707 E1.0145
G1 X-0.5 Y0.866 Z0.16 E1.0127
G1 X-0.5 Y0.866 Z0.1493 E1.0111
G1 X-0.5 Y0.866 Z0.1387 E1.0096
G1 X-0.5 Y0.866 Z0.128 E1.0082
G1 X-0.5 Y0.866 Z0.1173 E1.0069
G1 X-0.5 Y0.866 Z0.1067 E1.0057
G1 X-0.5 Y0.866 Z0.096 E1.0046
G1 X-0.5 Y0.866 Z0.0853 E1.0036
G1 X-0.5 Y0.866 Z0.0747 E1.0028
G1 X-0.5 Y0.866 Z0.064 E1.002
G1 X-0.5 Y0.866 Z0.0533 E1.0014
G1 X-0.5 Y0.866 Z0.0427 E1.0009
G1 X-0.5 Y0.866 Z0.032 E1.0005
G1 X-0.5 Y0.866 Z0.0213 E1.0002
G1 X-0.5 Y0.866 Z0.0107 E1.0001
G1 X-0.5 Y0.866 E1.0
G1 X-0.5 Y0.866 Z-0.0107 E1.0001
G1 X-0.5 Y0.866 Z-0.0213 E1.0002
G1 X-0.5 Y0.866 Z-0.032 E1.0005
G1 X-0.5 Y0.866 Z-0.0427 E1.0009
G1 X-0.5 Y0.866 Z-0.0533 E1.0014
G1 X-0.5 Y0.866 Z-0.064 E1.002
G1 X-0.5 Y0.866 Z-0.0747 E1.0028
G1 X-0.5 Y0.866 Z-0.0853 E1.0036
G1 X-0.5 Y0.866 Z-0.096 E1.0046
G1 X-0.5 Y0.866 Z-0.1067 E1.0057
G1 X-0.5 Y0.866 Z-0.1173 E1.0069
G1 X-0.5 Y0.866 Z-0.128 E1.0082
G1 X-0.5 Y0.866 Z-0.1387 E1.0096
G1 X-0.5 Y0.866 Z-0.1493 E1.0111
G1 X-0.5 Y0.866 Z-0.16 E1.0127
G1 X-0.5 Y0.866 Z-0.1707 E1.0145
G1 X-0.5 Y0.866 Z-0.1813 E1.0163
G1 X-0.5 Y0.866 Z-0.192 E1.0183
G1 X-0.5 Y0.866 Z-0.2027 E1.0203
G1 X-0.5 Y0.866 Z-0.2133 E1.0225
G1 X-0.5 Y0.866 Z-0.224 E1.0248
G1 X-0.5 Y0.866 Z-0.2347 E1.0272
G1 X-0.5 Y0.866 Z-0.2453 E1.0297
G1 X-0.5 Y0.866 Z-0.256 E1.0322
G1 X-0.5 Y0.866 Z-0.2667 E1.0349
G1 X0.5 Y0.866 Z0.2667 E1.0349
G1 X0.5 Y0.866 Z0.256 E1.0322
G1 X0.5 Y0.866 Z0.2453 E1.0297
G1 X0.5 Y0.866 Z0.2347 E1.0272
G1 X0.5 Y0.866 Z0.224 E1.0248
G1 X0.5 Y0.866 Z0.2133 E1.0225
G1 X0.5 Y0.866 Z0.2027 E1.0203
G1 X0.5 Y0.866 Z0.192 E1.0183
G1 X0.5 Y0.866 Z0.1813 E1.0163
G1 X0.5 Y0.866 Z0.1707 E1.0145
G1 X0.5 Y0.866 Z0.16 E1.0127
G1 X0.5 Y0.866 Z0.1493 E1.0111
G1 X0.5 Y0.866 Z0.1387 E1.0096
G1 X0.5 Y0.866 Z0.128 E1.0082
G1 X0.5 Y0.866 Z0.1173 E1.0069
G1 X0.5 Y0.866 Z0.1067 E1.0057
G1 X0.5 Y0.866 Z0.096 E1.0046
G1 X0.5 Y0.866 Z0.0853 E1.0036
G1 X0.5 Y0.866 Z0.0747 E1.0028
G1 X0.5 Y0.866 Z0.064 E1.002
G1 X0.5 Y0.866 Z0.0533 E1.0014
G1 X0.5 Y0.866 Z0.0427 E1.0009
G1 X0.5 Y0.866 Z0.032 E1.0005
G1 X0.5 Y0.866 Z0.0213 E1.0002
G1 X0.5 Y0.866 Z0.0107 E1.0001
G1 X0.5 Y0.866 E1.0
G1 X0.5 Y0.866 Z-0.0107 E1.0001
G1 X0.5 Y0.866 Z-0.0213 E1.0002
G1 X0.5 Y0.866 Z-0.032 E1.0005
G1 X0.5 Y0.866 Z-0.0427 E1.0009
G1 X0.5 Y0.866 Z-0.0533 E1.0014
G1 X0.5 Y0.866 Z-0.064 E1.002
G1 X0.5 Y0.866 Z-0.0747 E1.0028
G1 X0.5 Y0.866 Z-0.0853 E1.0036
G1 X0.5 Y0.866 Z-0.096 E1.0046
G1 X0.5 Y0.866 Z-0.1067 E1.0057
G1 X0.5 Y0.866 Z-0.1173 E1.0069
G1 X0.5 Y0.866 Z-0.128 E1.0082
G1 X0.5 Y0.866 Z-0.1387 E1.0096
G1 X0.5 Y0.866 Z-0.1493 E1.0111
G1 X0.5 Y0.866 Z-0.16 E1.0127
G1 X0.5 Y0.866 Z-0.1707 E1.0145
G1 X0.5 Y0.866 Z-0.1813 E1.0163
G1 X0.5 Y0.866 Z-0.192 E1.0183
G1 X0.5 Y0.866 Z-0.2027 E1.0203
G1 X0.5 Y0.866 Z-0.2133 E1.0225
G1 X0.5 Y0.866 Z-0.224 E1.0248
G1 X0.5 Y0.866 Z-0.2347 E1.0272
G1 X0.5 Y0.866 Z-0.2453 E1.0297
G1 X0.5 Y0.866 Z-0.256 E1.0322
G1 X0.5 Y0.866 Z-0.2667 E1.0349
G1 X1.0 Y0.0 Z0.2667 E1.0349
G1 X1.0 Y0.0 Z0.256 E1.0322
G1 X1.0 Y0.0 Z0.2453 E1.0297
G1 X1.0 Y0.0 Z0.2347 E1.0272
G1 X1.0 Y0.0 Z0.224 E1.0248
G1 X1.0 Y0.0 Z0.2133 E1.0225
G1 X1.0 Y0.0 Z0.2027 E1.0203
G1 X1.0 Y0.0 Z0.192 E1.0183
G1 X1.0 Y0.0 Z0.1813 E1.0163
G1 X1.0 Y0.0 Z0.1707 E1.0145
G1 X1.0 Y0.0 Z0.16 E1.0127
G1 X1.0 Y0.0 Z0.1493 E1.0111
G1 X1.0 Y0.0 Z0.1387 E1.0096
G1 X1.0 Y0.0 Z0.128 E1.0082
G1 X1.0 Y0.0 Z0.1173 E1.0069
G1 X1.0 Y0.0 Z0.1067 E1.0057
G1 X1.0 Y0.0 Z0.096 E1.0046
G1 X1.0 Y0.0 Z0.0853 E1.0036
G1 X1.0 Y0.0 Z0.0747 E1.0028
G1 X1.0 Y0.0 Z0.064 E1.002
G1 X1.0 Y0.0 Z0.0533 E1.0014
G1 X1.0 Y0.0 Z0.0427 E1.0009
G1 X1.0 Y0.0 Z0.032 E1.0005
G1 X1.0 Y0.0 Z0.0213 E1.0002
G1 X1.0 Y0.0 Z0.0107 E1.0001
G1 X1.0 Y0.0 E1.0
G1 X1.0 Y0.0 Z-0.0107 E1.0001
G1 X1.0 Y0.0 Z-0.0213 E1.0002
G1 X1.0 Y0.0 Z-0.032 E1.0005
G1 X1.0 Y0.0 Z-0.0427 E1.0009
G1 X1.0 Y0.0 Z-0.0533 E1.0014
G1 X1.0 Y0.0 Z-0.064 E1.002
G1 X1.0 Y0.0 Z-0.0747 E1.0028
G1 X1.0 Y0.0 Z-0.0853 E1.0036
G1 X1.0 Y0.0 Z-0.096 E1.0046
G1 X1.0 Y0.0 Z-0.1067 E1.0057
G1 X1.0 Y0.0 Z-0.1173 E1.0069
G1 X1.0 Y0.0 Z-0.128 E1.0082
G1 X1.0 Y0.0 Z-0.1387 E1.0096
G1 X1.0 Y0.0 Z-0.1493 E1.0111
G1 X1.0 Y0.0 Z-0.16 E1.0127
G1 X1.0 Y0.0 Z-0.1707 E1.0145
G1 X1.0 Y0.0 Z-0.1813 E1.0163
G1 X1.0 Y0.0 Z-0.192 E1.0183
G1 X1.0 Y0.0 Z-0.2027 E1.0203
G1 X1.0 Y0.0 Z-0.2133 E1.0225
G1 X1.0 Y0.0 Z-0.224 E1.0248
G1 X1.0 Y0.0 Z-0.2347 E1.0272
G1 X1.0 Y0.0 Z-0.2453 E1.0297
G1 X1.0 Y0.0 Z-0.256 E1.0322
G1 X1.0 Y0.0 Z-0.2667 E1.0349
G1 X0.5 Y-0.866 Z0.2667 E1.0349
G1 X0.5 Y-0.866 Z0.256 E1.0322
G1 X0.5 Y-0.866 Z0.2453 E1.0297
G1 X0.5 Y-0.866 Z0.2347 E1.0272
G1 X0.5 Y-0.866 Z0.224 E1.0248
G1 X0.5 Y-0.866 Z0.2133 E1.0225
G1 X0.5 Y-0.866 Z0.2027 E1.0203
G1 X0.5 Y-0.866 Z0.192 E1.0183
G1 X0.5 Y-0.866 Z0.1813 E1.0163
G1 X0.5 Y-0.866 Z0.1707 E1.0145
G1 X0.5 Y-0.866 Z0.16 E1.0127
G1 X0.5 Y-0.866 Z0.1493 E1.0111
G1 X0.5 Y-0.866 Z0.1387 E1.0096
G1 X0.5 Y-0.866 Z0.128 E1.0082
G1 X0.5 Y-0.866 Z0.1173 E1.0069
G1 X0.5 Y-0.866 Z0.1067 E1.0057
G1 X0.5 Y-0.866 Z0.096 E1.0046
G1 X0.5 Y-0.866 Z0.0853 E1.0036
G1 X0.5 Y-0.866 Z0.0747 E1.0028
G1 X0.5 Y-0.866 Z0.064 E1.002
G1 X0.5 Y-0.866 Z0.0533 E1.0014
G1 X0.5 Y-0.866 Z0.0427 E1.0009
G1 X0.5 Y-0.866 Z0.032 E1.0005
G1 X0.5 Y-0.866 Z0.0213 E1.0002
G1 X0.5 Y-0.866 Z0.0107 E1.0001
G1 X0.5 Y-0.866 E1.0
G1 X0.5 Y-0.866 Z-0.0107 E1.0001
G1 X0.5 Y-0.866 Z-0.0213 E1.0002
G1 X0.5 Y-0.866 Z-0.032 E1.0005
G1 X0.5 Y-0.866 Z-0.0427 E1.0009
G1 X0.5 Y-0.866 Z-0.0533 E1.0014
G1 X0.5 Y-0.866 Z-0.064 E1.002
G1 X0.5 Y-0.866 Z-0.0747 E1.0028
G1 X0.5 Y-0.866 Z-0.0853 E1.0036
G1 X0.5 Y-0.866 Z-0.096 E1.0046
G1 X0.5 Y-0.866 Z-0.1067 E1.0057
G1 X0.5 Y-0.866 Z-0.1173 E1.0069
G1 X0.5 Y-0.866 Z-0.128 E1.0082
G1 X0.5 Y-0.866 Z-0.1387 E1.0096
G1 X0.5 Y-0.866 Z-0.1493 E1.0111
G1 X0.5 Y-0.866 Z-0.16 E1.0127
G1 X0.5 Y-0.866 Z-0.1707 E1.0145
G1 X0.5 Y-0.866 Z-0.1813 E1.0163
G1 X0.5 Y-0.866 Z-0.192 E1.0183
G1 X0.5 Y-0.866 Z-0.2027 E1.0203
G1 X0.5 Y-0.866 Z-0.2133 E1.0225
G1 X0.5 Y-0.866 Z-0.224 E1.0248
G1 X0.5 Y-0.866 Z-0.2347 E1.0272
G1 X0.5 Y-0.866 Z-0.2453 E1.0297
G1 X0.5 Y-0.866 Z-0.256 E1.0322
G1 X0.5 Y-0.866 Z-0.2667 E1.0349
G1 X-0.5 Y-0.866 Z0.2667 E1.0349
G1 X-0.5 Y-0.866 Z0.256 E1.0322
G1 X-0.5 Y-0.866 Z0.2453 E1.0297
G1 X-0.5 Y-0.866 Z0.2347 E1.0272
G1 X-0.5 Y-0.866 Z0.224 E1.0248
G1 X-0.5 Y-0.866 Z0.2133 E1.0225
G1 X-0.5 Y-0.866 Z0.2027 E1.0203
G1 X-0.5 Y-0.866 Z0.192 E1.0183
G1 X-0.5 Y-0.866 Z0.1813 E1.0163
G1 X-0.5 Y-0.866 Z0.1707 E1.0145
G1 X-0.5 Y-0.866 Z0.16 E1.0127
G1 X-0.5 Y-0.866 Z0.1493 E1.0111
G1 X-0.5 Y-0.866 Z0.1387 E1.0096
G1 X-0.5 Y-0.866 Z0.128 E1.0082
G1 X-0.5 Y-0.866 Z0.1173 E1.0069
G1 X-0.5 Y-0.866 Z0.1067 E1.0057
G1 X-0.5 Y-0.866 Z0.096 E1.0046
G1 X-0.5 Y-0.866 Z0.0853 E1.0036
G1 X-0.5 Y-0.866 Z0.0747 E1.0028
G1 X-0.5 Y-0.866 Z0.064 E1.002
G1 X-0.5 Y-0.866 Z0.0533 E1.0014
G1 X-0.5 Y-0.866 Z0.0427 E1.0009
G1 X-0.5 Y-0.866 Z0.032 E1.0005
G1 X-0.5 Y-0.866 Z0.0213 E1.0002
G1 X-0.5 Y-0.866 Z0.0107 E1.0001
G1 X-0.5 Y-0.866 E1.0
G1 X-0.5 Y-0.866 Z-0.0107 E1.0001
G1 X-0.5 Y-0.866 Z-0.0213 E1.0002
G1 X-0.5 Y-0.866 Z-0.032 E1.0005
G1 X-0.5 Y-0.866 Z-0.0427 E1.0009
G1 X-0.5 Y-0.866 Z-0.0533 E1.0014
G1 X-0.5 Y-0.866 Z-0.064 E1.002
G1 X-0.5 Y-0.866 Z-0.0747 E1.0028
G1 X-0.5 Y-0.866 Z-0.0853 E1.0036
G1 X-0.5 Y-0.866 Z-0.096 E1.0046
G1 X-0.5 Y-0.866 Z-0.1067 E1.0057
G1 X-0.5 Y-0.866 Z-0.1173 E1.0069
G1 X-0.5 Y-0.866 Z-0.128 E1.0082
G1 X-0.5 Y-0.866 Z-0.1387 E1.0096
G1 X-0.5 Y-0.866 Z-0.1493 E1.0111
G1 X-0.5 Y-0.866 Z-0.16 E1.0127
G1 X-0.5 Y-0.866 Z-0.1707 E1.0145
G1 X-0.5 Y-0.866 Z-0.1813 E1.0163
G1 X-0.5 Y-0.866 Z-0.192 E1.0183
G1 X-0.5 Y-0.866 Z-0.2027 E1.0203
G1 X-0.5 Y-0.866 Z-0.2133 E1.0225
G1 X-0.5 Y-0.866 Z-0.224 E1.0248
G1 X-0.5 Y-0.866 Z-0.2347 E1.0272
G1 X-0.5 Y-0.866 Z-0.2453 E1.0297
G1 X-0.5 Y-0.866 Z-0.256 E1.0322
G1 X-0.5 Y-0.866 Z-0.2667 E1.0349
G1 Z0.15
G1 X-1.0 Y-0.0 Z0.3 E1.044
G1 X-1.0 Y-0.0 Z0.288 E1.0406
G1 X-1.0 Y-0.0 Z0.276 E1.0374
G1 X-1.0 Y-0.0 Z0.264 E1.0343
G1 X-1.0 Y-0.0 Z0.252 E1.0313
G1 X-1.0 Y-0.0 Z0.24 E1.0284
G1 X-1.0 Y-0.0 Z0.228 E1.0257
G1 X-1.0 Y-0.0 Z0.216 E1.0231
G1 X-1.0 Y-0.0 Z0.204 E1.0206
G1 X-1.0 Y-0.0 Z0.192 E1.0183
G1 X-1.0 Y-0.0 Z0.18 E1.0161
G1 X-1.0 Y-0.0 Z0.168 E1.014
G1 X-1.0 Y-0.0 Z0.156 E1.0121
G1 X-1.0 Y-0.0 Z0.144 E1.0103
G1 X-1.0 Y-0.0 Z0.132 E1.0087
G1 X-1.0 Y-0.0 Z0.12 E1.0072
G1 X-1.0 Y-0.0 Z0.108 E1.0058
G1 X-1.0 Y-0.0 Z0.096 E1.0046
G1 X-1.0 Y-0.0 Z0.084 E1.0035
G1 X-1.0 Y-0.0 Z0.072 E1.0026
G1 X-1.0 Y-0.0 Z0.06 E1.0018
G1 X-1.0 Y-0.0 Z0.048 E1.0012
G1 X-1.0 Y-0.0 Z0.036 E1.0006
G1 X-1.0 Y-0.0 Z0.024 E1.0003
G1 X-1.0 Y-0.0 Z0.012 E1.0001
G1 X-1.0 Y-0.0 E1.0
G1 X-1.0 Y-0.0 Z-0.012 E1.0001
G1 X-1.0 Y-0.0 Z-0.024 E1.0003
G1 X-1.0 Y-0.0 Z-0.036 E1.0006
G1 X-1.0 Y-0.0 Z-0.048 E1.0012
G1 X-1.0 Y-0.0 Z-0.06 E1.0018
G1 X-1.0 Y-0.0 Z-0.072 E1.0026
G1 X-1.0 Y-0.0 Z-0.084 E1.0035
G1 X-1.0 Y-0.0 Z-0.096 E1.0046
G1 X-1.0 Y-0.0 Z-0.108 E1.0058
G1 X-1.0 Y-0.0 Z-0.12 E1.0072
G1 X-1.0 Y-0.0 Z-0.132 E1.0087
G1 X-1.0 Y-0.0 Z-0.144 E1.0103
G1 X-1.0 Y-0.0 Z-0.156 E1.0121
G1 X-1.0 Y-0.0 Z-0.168 E1.014
G1 X-1.0 Y-0.0 Z-0.18 E1.0161
G1 X-1.0 Y-0.0 Z-0.192 E1.0183
G1 X-1.0 Y-0.0 Z-0.204 E1.0206
G1 X-1.0 Y-0.0 Z-0.216 E1.0231
G1 X-1.0 Y-0.0 Z-0.228 E1.0257
G1 X-1.0 Y-0.0 Z-0.24 E1.0284
G1 X-1.0 Y-0.0 Z-0.252 E1.0313
G1 X-1.0 Y-0.0 Z-0.264 E1.0343
G1 X-1.0 Y-0.0 Z-0.276 E1.0374
G1 X-1.0 Y-0.0 Z-0.288 E1.0406
G1 X-1.0 Y-0.0 Z-0.3 E1.044
G1 X-0.5 Y0.866 Z0.3 E1.044
G1 X-0.5 Y0.866 Z0.288 E1.0406
G1 X-0.5 Y0.866 Z0.276 E1.0374
G1 X-0.5 Y0.866 Z0.264 E1.0343
G1 X-0.5 Y0.866 Z0.252 E1.0313
G1 X-0.5 Y0.866 Z0.24 E1.0284
G1 X-0.5 Y0.866 Z0.228 E1.0257
G1 X-0.5 Y0.866 Z0.216 E1.0231
G1 X-0.5 Y0.866 Z0.204 E1.0206
G1 X-0.5 Y0.866 Z0.192 E1.0183
G1 X-0.5 Y0.866 Z0.18 E1.0161
G1 X-0.5 Y0.866 Z0.168 E1.014
G1 X-0.5 Y0.866 Z0.156 E1.0121
G1 X-0.5 Y0.866 Z0.144 E1.0103
G1 X-0.5 Y0.866 Z0.132 E1.0087
G1 X-0.5 Y0.866 Z0.12 E1.0072
G1 X-0.5 Y0.866 Z0.108 E1.0058
G1 X-0.5 Y0.866 Z0.096 E1.0046
G1 X-0.5 Y0.866 Z0.084 E1.0035
G1 X-0.5 Y0.866 Z0.072 E1.0026
G1 X-0.5 Y0.866 Z0.06 E1.0018
G1 X-0.5 Y0.866 Z0.048 E1.0012
G1 X-0.5 Y0.866 Z0.036 E1.0006
G1 X-0.5 Y0.866 Z0.024 E1.0003
G1 X-0.5 Y0.866 Z0.012 E1.0001
G1 X-0.5 Y0.866 E1.0
G1 X-0.5 Y0.866 Z-0.012 E1.0001
G1 X-0.5 Y0.866 Z-0.024 E1.0003
G1 X-0.5 Y0.866 Z-0.036 E1.0006
G1 X-0.5 Y0.866 Z-0.048 E1.0012
G1 X-0.5 Y0.866 Z-0.06 E1.0018
G1 X-0.5 Y0.866 Z-0.072 E1.0026
G1 X-0.5 Y0.866 Z-0.084 E1.0035
G1 X-0.5 Y0.866 Z-0.096 E1.0046
G1 X-0.5 Y0.866 Z-0.108 E1.0058
G1 X-0.5 Y0.866 Z-0.12 E1.0072
G1 X-0.5 Y0.866 Z-0.132 E1.0087
G1 X-0.5 Y0.866 Z-0.144 E1.0103
G1 X-0.5 Y0.866 Z-0.156 E1.0121
G1 X-0.5 Y0.866 Z-0.168 E1.014
G1 X-0.5 Y0.866 Z-0.18 E1.0161
G1 X-0.5 Y0.866 Z-0.192 E1.0183
G1 X-0.5 Y0.866 Z-0.204 E1.0206
G1 X-0.5 Y0.866 Z-0.216 E1.0231
G1 X-0.5 Y0.866 Z-0.228 E1.0257
G1 X-0.5 Y0.866 Z-0.24 E1.0284
G1 X-0.5 Y0.866 Z-0.252 E1.0313
G1 X-0.5 Y0.866 Z-0.264 E1.0343
G1 X-0.5 Y0.866 Z-0.276 E1.0374
G1 X-0.5 Y0.866 Z-0.288 E1.0406
G1 X-0.5 Y0.866 Z-0.3 E1.044
G1 X0.5 Y0.866 Z0.3 E1.044
G1 X0.5 Y0.866 Z0.288 E1.0406
G1 X0.5 Y0.866 Z0.276 E1.0374
G1 X0.5 Y0.866 Z0.264 E1.0343
G1 X0.5 Y0.866 Z0.252 E1.0313
G1 X0.5 Y0.866 Z0.24 E1.0284
G1 X0.5 Y0.866 Z0.228 E1.0257
G1 X0.5 Y0.866 Z0.216 E1.0231
G1 X0.5 Y0.866 Z0.204 E1.0206
G1 X0.5 Y0.866 Z0.192 E1.0183
G1 X0.5 Y0.866 Z0.18 E1.0161
G1 X0.5 Y0.866 Z0.168 E1.014
G1 X0.5 Y0.866 Z0.156 E1.0121
G1 X0.5 Y0.866 Z0.144 E1.0103
G1 X0.5 Y0.866 Z0.132 E1.0087
G1 X0.5 Y0.866 Z0.12 E1.0072
G1 X0.5 Y0.866 Z0.108 E1.0058
G1 X0.5 Y0.866 Z0.096 E1.0046
G1 X0.5 Y0.866 Z0.084 E1.0035
G1 X0.5 Y0.866 Z0.072 E1.0026
G1 X0.5 Y0.866 Z0.06 E1.0018
G1 X0.5 Y0.866 Z0.048 E1.0012
G1 X0.5 Y0.866 Z0.036 E1.0006
G1 X0.5 Y0.866 Z0.024 E1.0003
G1 X0.5 Y0.866 Z0.012 E1.0001
G1 X0.5 Y0.866 E1.0
G1 X0.5 Y0.866 Z-0.012 E1.0001
G1 X0.5 Y0.866 Z-0.024 E1.0003
G1 X0.5 Y0.866 Z-0.036 E1.0006
G1 X0.5 Y0.866 Z-0.048 E1.0012
G1 X0.5 Y0.866 Z-0.06 E1.0018
G1 X0.5 Y0.866 Z-0.072 E1.0026
G1 X0.5 Y0.866 Z-0.084 E1.0035
G1 X0.5 Y0.866 Z-0.096 E1.0046
G1 X0.5 Y0.866 Z-0.108 E1.0058
G1 X0.5 Y0.866 Z-0.12 E1.0072
G1 X0.5 Y0.866 Z-0.132 E1.0087
G1 X0.5 Y0.866 Z-0.144 E1.0103
G1 X0.5 Y0.866 Z-0.156 E1.0121
G1 X0.5 Y0.866 Z-0.168 E1.014
G1 X0.5 Y0.866 Z-0.18 E1.0161
G1 X0.5 Y0.866 Z-0.192 E1.0183
G1 X0.5 Y0.866 Z-0.204 E1.0206
G1 X0.5 Y0.866 Z-0.216 E1.0231
G1 X0.5 Y0.866 Z-0.228 E1.0257
G1 X0.5 Y0.866 Z-0.24 E1.0284
G1 X0.5 Y0.866 Z-0.252 E1.0313
G1 X0.5 Y0.866 Z-0.264 E1.0343
G1 X0.5 Y0.866 Z-0.276 E1.0374
G1 X0.5 Y0.866 Z-0.288 E1.0406
G1 X0.5 Y0.866 Z-0.3 E1.044
G1 X1.0 Y0.0 Z0.3 E1.044
G1 X1.0 Y0.0 Z0.288 E1.0406
G1 X1.0 Y0.0 Z0.276 E1.0374
G1 X1.0 Y0.0 Z0.264 E1.0343
G1 X1.0 Y0.0 Z0.252 E1.0313
G1 X1.0 Y0.0 Z0.24 E1.0284
G1 X1.0 Y0.0 Z0.228 E1.0257
G1 X1.0 Y0.0 Z0.216 E1.0231
G1 X1.0 Y0.0 Z0.204 E1.0206
G1 X1.0 Y0.0 Z0.192 E1.0183
G1 X1.0 Y0.0 Z0.18 E1.0161
G1 X1.0 Y0.0 Z0.168 E1.014
G1 X1.0 Y0.0 Z0.156 E1.0121
G1 X1.0 Y0.0 Z0.144 E1.0103
G1 X1.0 Y0.0 Z0.132 E1.0087
G1 X1.0 Y0.0 Z0.12 E1.0072
G1 X1.0 Y0.0 Z0.108 E1.0058
G1 X1.0 Y0.0 Z0.096 E1.0046
G1 X1.0 Y0.0 Z0.084 E1.0035
G1 X1.0 Y0.0 Z0.072 E1.0026
G1 X1.0 Y0.0 Z0.06 E1.0018
G1 X1.0 Y0.0 Z0.048 E1.0012
G1 X1.0 Y0.0 Z0.036 E1.0006
G1 X1.0 Y0.0 Z0.024 E1.0003
G1 X1.0 Y0.0 Z0.012 E1.0001
G1 X1.0 Y0.0 E1.0
G1 X1.0 Y0.0 Z-0.012 E1.0001
G1 X1.0 Y0.0 Z-0.024 E1.0003
G1 X1.0 Y0.0 Z-0.036 E1.0006
G1 X1.0 Y0.0 Z-0.048 E1.0012
G1 X1.0 Y0.0 Z-0.06 E1.0018
G1 X1.0 Y0.0 Z-0.072 E1.0026
G1 X1.0 Y0.0 Z-0.084 E1.0035
G1 X1.0 Y0.0 Z-0.096 E1.0046
G1 X1.0 Y0.0 Z-0.108 E1.0058
G1 X1.0 Y0.0 Z-0.12 E1.0072
G1 X1.0 Y0.0 Z-0.132 E1.0087
G1 X1.0 Y0.0 Z-0.144 E1.0103
G1 X1.0 Y0.0 Z-0.156 E1.0121
G1 X1.0 Y0.0 Z-0.168 E1.014
G1 X1.0 Y0.0 Z-0.18 E1.0161
G1 X1.0 Y0.0 Z-0.192 E1.0183
G1 X1.0 Y0.0 Z-0.204 E1.0206
G1 X1.0 Y0.0 Z-0.216 E1.0231
G1 X1.0 Y0.0 Z-0.228 E1.0257
G1 X1.0 Y0.0 Z-0.24 E1.0284
G1 X1.0 Y0.0 Z-0.252 E1.0313
G1 X1.0 Y0.0 Z-0.264 E1.0343
G1 X1.0 Y0.0 Z-0.276 E1.0374
G1 X1.0 Y0.0 Z-0.288 E1.0406
G1 X1.0 Y0.0 Z-0.3 E1.044
G1 X0.5 Y-0.866 Z0.3 E1.044
G1 X0.5 Y-0.866 Z0.288 E1.0406
G1 X0.5 Y-0.866 Z0.276 E1.0374
G1 X0.5 Y-0.866 Z0.264 E1.0343
G1 X0.5 Y-0.866 Z0.252 E1.0313
G1 X0.5 Y-0.866 Z0.24 E1.0284
G1 X0.5 Y-0.866 Z0.228 E1.0257
G1 X0.5 Y-0.866 Z0.216 E1.0231
G1 X0.5 Y-0.866 Z0.204 E1.0206
G1 X0.5 Y-0.866 Z0.192 E1.0183
G1 X0.5 Y-0.866 Z0.18 E1.0161
G1 X0.5 Y-0.866 Z0.168 E1.014
G1 X0.5 Y-0.866 Z0.156 E1.0121
G1 X0.5 Y-0.866 Z0.144 E1.0103
G1 X0.5 Y-0.866 Z0.132 E1.0087
G1 X0.5 Y-0.866 Z0.12 E1.0072
G1 X0.5 Y-0.866 Z0.108 E1.0058
G1 X0.5 Y-0.866 Z0.096 E1.0046
G1 X0.5 Y-0.866 Z0.084 E1.0035
G1 X0.5 Y-0.866 Z0.072 E1.0026
G1 X0.5 Y-0.866 Z0.06 E1.0018
G1 X0.5 Y-0.866 Z0.048 E1.0012
G1 X0.5 Y-0.866 Z0.036 E1.0006
G1 X0.5 Y-0.866 Z0.024 E1.0003
G1 X0.5 Y-0.866 Z0.012 E1.0001
G1 X0.5 Y-0.866 E1.0
G1 X0.5 Y-0.866 Z-0.012 E1.0001
G1 X0.5 Y-0.866 Z-0.024 E1.0003
G1 X0.5 Y-0.866 Z-0.036 E1.0006
G1 X0.5 Y-0.866 Z-0.048 E1.0012
G1 X0.5 Y-0.866 Z-0.06 E1.0018
G1 X0.5 Y-0.866 Z-0.072 E1.0026
G1 X0.5 Y-0.866 Z-0.084 E1.0035
G1 X0.5 Y-0.866 Z-0.096 E1.0046
G1 X0.5 Y-0.866 Z-0.108 E1.0058
G1 X0.5 Y-0.866 Z-0.12 E1.0072
G1 X0.5 Y-0.866 Z-0.132 E1.0087
G1 X0.5 Y-0.866 Z-0.144 E1.0103
G1 X0.5 Y-0.866 Z-0.156 E1.0121
G1 X0.5 Y-0.866 Z-0.168 E1.014
G1 X0.5 Y-0.866 Z-0.18 E1.0161
G1 X0.5 Y-0.866 Z-0.192 E1.0183
G1 X0.5 Y-0.866 Z-0.204 E1.0206
G1 X0.5 Y-0.866 Z-0.216 E1.0231
G1 X0.5 Y-0.866 Z-0.228 E1.0257
G1 X0.5 Y-0.866 Z-0.24 E1.0284
G1 X0.5 Y-0.866 Z-0.252 E1.0313
G1 X0.5 Y-0.866 Z-0.264 E1.0343
G1 X0.5 Y-0.866 Z-0.276 E1.0374
G1 X0.5 Y-0.866 Z-0.288 E1.0406
G1 X0.5 Y-0.866 Z-0.3 E1.044
G1 Z0.15
G1 X-0.5 Y-0.866 Z0.3333 E1.0541
G1 X-0.5 Y-0.866 Z0.32 E1.05
G1 X-0.5 Y-0.866 Z0.3067 E1.046
G1 X-0.5 Y-0.866 Z0.2933 E1.0421
G1 X-0.5 Y-0.866 Z0.28 E1.0385
G1 X-0.5 Y-0.866 Z0.2667 E1.0349
G1 X-0.5 Y-0.866 Z0.2533 E1.0316
G1 X-0.5 Y-0.866 Z0.24 E1.0284
G1 X-0.5 Y-0.866 Z0.2267 E1.0254
G1 X-0.5 Y-0.866 Z0.2133 E1.0225
G1 X-0.5 Y-0.866 Z0.2 E1.0198
G1 X-0.5 Y-0.866 Z0.1867 E1.0173
G1 X-0.5 Y-0.866 Z0.1733 E1.0149
G1 X-0.5 Y-0.866 Z0.16 E1.0127
G1 X-0.5 Y-0.866 Z0.1467 E1.0107
G1 X-0.5 Y-0.866 Z0.1333 E1.0088
G1 X-0.5 Y-0.866 Z0.12 E1.0072
G1 X-0.5 Y-0.866 Z0.1067 E1.0057
G1 X-0.5 Y-0.866 Z0.0933 E1.0043
G1 X-0.5 Y-0.866 Z0.08 E1.0032
G1 X-0.5 Y-0.866 Z0.0667 E1.0022
G1 X-0.5 Y-0.866 Z0.0533 E1.0014
G1 X-0.5 Y-0.866 Z0.04 E1.0008
G1 X-0.5 Y-0.866 Z0.0267 E1.0004
G1 X-0.5 Y-0.866 Z0.0133 E1.0001
G1 X-0.5 Y-0.866 E1.0
G1 X-0.5 Y-0.866 Z-0.0133 E1.0001
G1 X-0.5 Y-0.866 Z-0.0267 E1.0004
G1 X-0.5 Y-0.866 Z-0.04 E1.0008
G1 X-0.5 Y-0.866 Z-0.0533 E1.0014
G1 X-0.5 Y-0.866 Z-0.0667 E1.0022
G1 X-0.5 Y-0.866 Z-0.08 E1.0032
G1 X-0.5 Y-0.866 Z-0.0933 E1.0043
G1 X-0.5 Y-0.866 Z-0.1067 E1.0057
G1 X-0.5 Y-0.866 Z-0.12 E1.0072
G1 X-0.5 Y-0.866 Z-0.1333 E1.0088
G1 X-0.5 Y-0.866 Z-0.1467 E1.0107
G1 X-0.5 Y-0.866 Z-0.16 E1.0127
G1 X-0.5 Y-0.866 Z-0.1733 E1.0149
G1 X-0.5 Y-0.866 Z-0.1867 E1.0173
G1 X-0.5 Y-0.866 Z-0.2 E1.0198
G1 X-0.5 Y-0.866 Z-0.2133 E1.0225
G1 X-0.5 Y-0.866 Z-0.2267 E1.0254
G1 X-0.5 Y-0.866 Z-0.24 E1.0284
G1 X-0.5 Y-0.866 Z-0.2533 E1.0316
G1 X-0.5 Y-0.866 Z-0.2667 E1.0349
G1 X-0.5 Y-0.866 Z-0.28 E1.0385
G1 X-0.5 Y-0.866 Z-0.2933 E1.0421
G1 X-0.5 Y-0.866 Z-0.3067 E1.046
G1 X-0.5 Y-0.866 Z-0.32 E1.05
G1 X-0.5 Y-0.866 Z-0.3333 E1.0541
G1 X-1.0 Y-0.0 Z0.3333 E1.0541
G1 X-1.0 Y-0.0 Z0.32 E1.05
G1 X-1.0 Y-0.0 Z0.3067 E1.046
G1 X-1.0 Y-0.0 Z0.2933 E1.0421
G1 X-1.0 Y-0.0 Z0.28 E1.0385
G1 X-1.0 Y-0.0 Z0.2667 E1.0349
G1 X-1.0 Y-0.0 Z0.2533 E1.0316
G1 X-1.0 Y-0.0 Z0.24 E1.0284
G1 X-1.0 Y-0.0 Z0.2267 E1.0254
G1 X-1.0 Y-0.0 Z0.2133 E1.0225
G1 X-1.0 Y-0.0 Z0.2 E1.0198
G1 X-1.0 Y-0.0 Z0.1867 E1.0173
G1 X-1.0 Y-0.0 Z0.1733 E1.0149
G1 X-1.0 Y-0.0 Z0.16 E1.0127
G1 X-1.0 Y-0.0 Z0.1467 E1.0107
G1 X-1.0 Y-0.0 Z0.1333 E1.0088
G1 X-1.0 Y-0.0 Z0.12 E1.0072
G1 X-1.0 Y-0.0 Z0.1067 E1.0057
G1 X-1.0 Y-0.0 Z0.0933 E1.0043
G1 X-1.0 Y-0.0 Z0.08 E1.0032
G1 X-1.0 Y-0.0 Z0.0667 E1.0022
G1 X-1.0 Y-0.0 Z0.0533 E1.0014
G1 X-1.0 Y-0.0 Z0.04 E1.0008
G1 X-1.0 Y-0.0 Z0.0267 E1.0004
G1 X-1.0 Y-0.0 Z0.0133 E1.0001
G1 X-1.0 Y-0.0 E1.0
G1 X-1.0 Y-0.0 Z-0.0133 E1.0001
G1 X-1.0 Y-0.0 Z-0.0267 E1.0004
G1 X-1.0 Y-0.0 Z-0.04 E1.0008
G1 X-1.0 Y-0.0 Z-0.0533 E1.0014
G1 X-1.0 Y-0.0 Z-0.0667 E1.0022
G1 X-1.0 Y-0.0 Z-0.08 E1.0032
G1 X-1.0 Y-0.0 Z-0.0933 E1.0043
G1 X-1.0 Y-0.0 Z-0.1067 E1.0057
G1 X-1.0 Y-0.0 Z-0.12 E1.0072
G1 X-1.0 Y-0.0 Z-0.1333 E1.0088
G1 X-1.0 Y-0.0 Z-0.1467 E1.0107
G1 X-1.0 Y-0.0 Z-0.16 E1.0127
G1 X-1.0 Y-0.0 Z-0.1733 E1.0149
G1 X-1.0 Y-0.0 Z-0.1867 E1.0173
G1 X-1.0 Y-0.0 Z-0.2 E1.0198
G1 X-1.0 Y-0.0 Z-0.2133 E1.0225
G1 X-1.0 Y-0.0 Z-0.2267 E1.0254
G1 X-1.0 Y-0.0 Z-0.24 E1.0284
G1 X-1.0 Y-0.0 Z-0.2533 E1.0316
G1 X-1.0 Y-0.0 Z-0.2667 E1.0349
G1 X-1.0 Y-0.0 Z-0.28 E1.0385
G1 X-1.0 Y-0.0 Z-0.2933 E1.0421
G1 X-1.0 Y-0.0 Z-0.3067 E1.046
G1 X-1.0 Y-0.0 Z-0.32 E1.05
G1 X-1.0 Y-0.0 Z-0.3333 E1.0541
G1 X-0.5 Y0.866 Z0.3333 E1.0541
G1 X-0.5 Y0.866 Z0.32 E1.05
G1 X-0.5 Y0.866 Z0.3067 E1.046
G1 X-0.5 Y0.866 Z0.2933 E1.0421
G1 X-0.5 Y0.866 Z0.28 E1.0385
G1 X-0.5 Y0.866 Z0.2667 E1.0349
G1 X-0.5 Y0.866 Z0.2533 E1.0316
G1 X-0.5 Y0.866 Z0.24 E1.0284
G1 X-0.5 Y0.866 Z0.2267 E1.0254
G1 X-0.5 Y0.866 Z0.2133 E1.0225
G1 X-0.5 Y0.866 Z0.2 E1.0198
G1 X-0.5 Y0.866 Z0.1867 E1.0173
G1 X-0.5 Y0.866 Z0.1733 E1.0149
G1 X-0.5 Y0.866 Z0.16 E1.0127
G1 X-0.5 Y0.866 Z0.1467 E1.0107
G1 X-0.5 Y0.866 Z0.1333 E1.0088
G1 X-0.5 Y0.866 Z0.12 E1.0072
G1 X-0.5 Y0.866 Z0.1067 E1.0057
G1 X-0.5 Y0.866 Z0.0933 E1.0043
G1 X-0.5 Y0.866 Z0.08 E1.0032
G1 X-0.5 Y0.866 Z0.0667 E1.0022
G1 X-0.5 Y0.866 Z0.0533 E1.0014
G1 X-0.5 Y0.866 Z0.04 E1.0008
G1 X-0.5 Y0.866 Z0.0267 E1.0004
G1 X-0.5 Y0.866 Z0.0133 E1.0001
G1 X-0.5 Y0.866 E1.0
G1 X-0.5 Y0.866 Z-0.0133 E1.0001
G1 X-0.5 Y0.866 Z-0.0267 E1.0004
G1 X-0.5 Y0.866 Z-0.04 E1.0008
G1 X-0.5 Y0.866 Z-0.0533 E1.0014
G1 X-0.5 Y0.866 Z-0.0667 E1.0022
G1 X-0.5 Y0.866 Z-0.08 E1.0032
G1 X-0.5 Y0.866 Z-0.0933 E1.0043
G1 X-0.5 Y0.866 Z-0.1067 E1.0057
G1 X-0.5 Y0.866 Z-0.12 E1.0072
G1 X-0.5 Y0.866 Z-0.1333 E1.0088
G1 X-0.5 Y0.866 Z-0.1467 E1.0107
G1 X-0.5 Y0.866 Z-0.16 E1.0127
G1 X-0.5 Y0.866 Z-0.1733 E1.0149
G1 X-0.5 Y0.866 Z-0.1867 E1.0173
G1 X-0.5 Y0.866 Z-0.2 E1.0198
G1 X-0.5 Y0.866 Z-0.2133 E1.0225
G1 X-0.5 Y0.866 Z-0.2267 E1.0254
G1 X-0.5 Y0.866 Z-0.24 E1.0284
G1 X-0.5 Y0.866 Z-0.2533 E1.0316
G1 X-0.5 Y0.866 Z-0.2667 E1.0349
G1 X-0.5 Y0.866 Z-0.28 E1.0385
G1 X-0.5 Y0.866 Z-0.2933 E1.0421
G1 X-0.5 Y0.866 Z-0.3067 E1.046
G1 X-0.5 Y0.866 Z-0.32 E1.05
G1 X-0.5 Y0.866 Z-0.3333 E1.0541
G1 X0.5 Y0.866 Z0.3333 E1.0541
G1 X0.5 Y0.866 Z0.32 E1.05
G1 X0.5 Y0.866 Z0.3067 E1.046
G1 X0.5 Y0.866 Z0.2933 E1.0421
G1 X0.5 Y0.866 Z0.28 E1.0385
G1 X0.5 Y0.866 Z0.2667 E1.0349
G1 X0.5 Y0.866 Z0.2533 E1.0316
G1 X0.5 Y0.866 Z0.24 E1.0284
G1 X0.5 Y0.866 Z0.2267 E1.0254
G1 X0.5 Y0.866 Z0.2133 E1.0225
G1 X0.5 Y0.866 Z0.2 E1.0198
G1 X0.5 Y0.866 Z0.1867 E1.0173
G1 X0.5 Y0.866 Z0.1733 E1.0149
G1 X0.5 Y0.866 Z0.16 E1.0127
G1 X0.5 Y0.866 Z0.1467 E1.0107
G1 X0.5 Y0.866 Z0.1333 E1.0088
G1 X0.5 Y0.866 Z0.12 E1.0072
G1 X0.5 Y0.866 Z0.1067 E1.0057
G1 X0.5 Y0.866 Z0.0933 E1.0043
G1 X0.5 Y0.866 Z0.08 E1.0032
G1 X0.5 Y0.866 Z0.0667 E1.0022
G1 X0.5 Y0.866 Z0.0533 E1.0014
G1 X0.5 Y0.866 Z0.04 E1.0008
G1 X0.5 Y0.866 Z0.0267 E1.0004
G1 X0.5 Y0.866 Z0.0133 E1.0001
G1 X0.5 Y0.866 E1.0
G1 X0.5 Y0.866 Z-0.0133 E1.0001
G1 X0.5 Y0.866 Z-0.0267 E1.0004
G1 X0.5 Y0.866 Z-0.04 E1.0008
G1 X0.5 Y0.866 Z-0.0533 E1.0014
G1 X0.5 Y0.866 Z-0.0667 E1.0022
G1 X0.5 Y0.866 Z-0.08 E1.0032
G1 X0.5 Y0.866 Z-0.0933 E1.0043
G1 X0.5 Y0.866 Z-0.1067 E1.0057
G1 X0.5 Y0.866 Z-0.12 E1.0072
G1 X0.5 Y0.866 Z-0.1333 E1.0088
G1 X0.5 Y0.866 Z-0.1467 E1.0107
G1 X0.5 Y0.866 Z-0.16 E1.0127
G1 X0.5 Y0.866 Z-0.1733 E1.0149
G1 X0.5 Y0.866 Z-0.1867 E1.0173
G1 X0.5 Y0.866 Z-0.2 E1.0198
G1 X0.5 Y0.866 Z-0.2133 E1.0225
G1 X0.5 Y0.866 Z-0.2267 E1.0254
G1 X0.5 Y0.866 Z-0.24 E1.0284
G1 X0.5 Y0.866 Z-0.2533 E1.0316
G1 X0.5 Y0.866 Z-0.2667 E1.0349
G1 X0.5 Y0.866 Z-0.28 E1.0385
G1 X0.5 Y0.866 Z-0.2933 E1.0421
G1 X0.5 Y0.866 Z-0.3067 E1.046
G1 X0.5 Y0.866 Z-0.32 E1.05
G1 X0.5 Y0.866 Z-0.3333 E1.0541
G1 X1.0 Y0.0 Z0.3333 E1.0541
G1 X1.0 Y0.0 Z0.32 E1.05
G1 X1.0 Y0.0 Z0.3067 E1.046
G1 X1.0 Y0.0 Z0.2933 E1.0421
G1 X1.0 Y0.0 Z0.28 E1.0385
G1 X1.0 Y0.0 Z0.2667 E1.0349
G1 X1.0 Y0.0 Z0.2533 E1.0316
G1 X1.0 Y0.0 Z0.24 E1.0284
G1 X1.0 Y0.0 Z0.2267 E1.0254
G1 X1.0 Y0.0 Z0.2133 E1.0225
G1 X1.0 Y0.0 Z0.2 E1.0198
G1 X1.0 Y0.0 Z0.1867 E1.0173
G1 X1.0 Y0.0 Z0.1733 E1.0149
G1 X1.0 Y0.0 Z0.16 E1.0127
G1 X1.0 Y0.0 Z0.1467 E1.0107
G1 X1.0 Y0.0 Z0.1333 E1.0088
G1 X1.0 Y0.0 Z0.12 E1.0072
G1 X1.0 Y0.0 Z0.1067 E1.0057
G1 X1.0 Y0.0 Z0.0933 E1.0043
G1 X1.0 Y0.0 Z0.08 E1.0032
G1 X1.0 Y0.0 Z0.0667 E1.0022
G1 X1.0 Y0.0 Z0.0533 E1.0014
G1 X1.0 Y0.0 Z0.04 E1.0008
G1 X1.0 Y0.0 Z0.0267 E1.0004
G1 X1.0 Y0.0 Z0.0133 E1.0001
G1 X1.0 Y0.0 E1.0
G1 X1.0 Y0.0 Z-0.0133 E1.0001
G1 X1.0 Y0.0 Z-0.0267 E1.0004
G1 X1.0 Y0.0 Z-0.04 E1.0008
G1 X1.0 Y0.0 Z-0.0533 E1.0014
G1 X1.0 Y0.0 Z-0.0667 E1.0022
G1 X1.0 Y0.0 Z-0.08 E1.0032
G1 X1.0 Y0.0 Z-0.0933 E1.0043
G1 X1.0 Y0.0 Z-0.1067 E1.0057
G1 X1.0 Y0.0 Z-0.12 E1.0072
G1 X1.0 Y0.0 Z-0.1333 E1.0088
G1 X1.0 Y0.0 Z-0.1467 E1.0107
G1 X1.0 Y0.0 Z-0.16 E1.0127
G1 X1.0 Y0.0 Z-0.1733 E1.0149
G1 X1.0 Y0.0 Z-0.1867 E1.0173
G1 X1.0 Y0.0 Z-0.2 E1.0198
G1 X1.0 Y0.0 Z-0.2133 E1.0225
G1 X1.0 Y0.0 Z-0.2267 E1.0254
G1 X1.0 Y0.0 Z-0.24 E1.0284
G1 X1.0 Y0.0 Z-0.2533 E1.0316
G1 X1.0 Y0.0 Z-0.2667 E1.0349
G1 X1.0 Y0.0 Z-0.28 E1.0385
G1 X1.0 Y0.0 Z-0.2933 E1.0421
G1 X1.0 Y0.0 Z-0.3067 E1.046
G1 X1.0 Y0.0 Z-0.32 E1.05
G1 X1.0 Y0.0 Z-0.3333 E1.0541
G1 Z0.15
G1 X0.5 Y-0.866 Z0.3667 E1.0651
G1 X0.5 Y-0.866 Z0.352 E1.0601
G1 X0.5 Y-0.866 Z0.3373 E1.0554
G1 X0.5 Y-0.866 Z0.3227 E1.0508
G1 X0.5 Y-0.866 Z0.308 E1.0464
G1 X0.5 Y-0.866 Z0.2933 E1.0421
G1 X0.5 Y-0.866 Z0.2787 E1.0381
G1 X0.5 Y-0.866 Z0.264 E1.0343
G1 X0.5 Y-0.866 Z0.2493 E1.0306
G1 X0.5 Y-0.866 Z0.2347 E1.0272
G1 X0.5 Y-0.866 Z0.22 E1.0239
G1 X0.5 Y-0.866 Z0.2053 E1.0209
G1 X0.5 Y-0.866 Z0.1907 E1.018
G1 X0.5 Y-0.866 Z0.176 E1.0154
G1 X0.5 Y-0.866 Z0.1613 E1.0129
G1 X0.5 Y-0.866 Z0.1467 E1.0107
G1 X0.5 Y-0.866 Z0.132 E1.0087
G1 X0.5 Y-0.866 Z0.1173 E1.0069
G1 X0.5 Y-0.866 Z0.1027 E1.0053
G1 X0.5 Y-0.866 Z0.088 E1.0039
G1 X0.5 Y-0.866 Z0.0733 E1.0027
G1 X0.5 Y-0.866 Z0.0587 E1.0017
G1 X0.5 Y-0.866 Z0.044 E1.001
G1 X0.5 Y-0.866 Z0.0293 E1.0004
G1 X0.5 Y-0.866 Z0.0147 E1.0001
G1 X0.5 Y-0.866 E1.0
G1 X0.5 Y-0.866 Z-0.0147 E1.0001
G1 X0.5 Y-0.866 Z-0.0293 E1.0004
G1 X0.5 Y-0.866 Z-0.044 E1.001
G1 X0.5 Y-0.866 Z-0.0587 E1.0017
G1 X0.5 Y-0.866 Z-0.0733 E1.0027
G1 X0.5 Y-0.866 Z-0.088 E1.0039
G1 X0.5 Y-0.866 Z-0.1027 E1.0053
G1 X0.5 Y-0.866 Z-0.1173 E1.0069
G1 X0.5 Y-0.866 Z-0.132 E1.0087
G1 X0.5 Y-0.866 Z-0.1467 E1.0107
G1 X0.5 Y-0.866 Z-0.1613 E1.0129
G1 X0.5 Y-0.866 Z-0.176 E1.0154
G1 X0.5 Y-0.866 Z-0.1907 E1.018
G1 X0.5 Y-0.866 Z-0.2053 E1.0209
G1 X0.5 Y-0.866 Z-0.22 E1.0239
G1 X0.5 Y-0.866 Z-0.2347 E1.0272
G1 X0.5 Y-0.866 Z-0.2493 E1.0306
G1 X0.5 Y-0.866 Z-0.264 E1.0343
G1 X0.5 Y-0.866 Z-0.2787 E1.0381
G1 X0.5 Y-0.866 Z-0.2933 E1.0421
G1 X0.5 Y-0.866 Z-0.308 E1.0464
G1 X0.5 Y-0.866 Z-0.3227 E1.0508
G1 X0.5 Y-0.866 Z-0.3373 E1.0554
G1 X0.5 Y-0.866 Z-0.352 E1.0601
G1 X0.5 Y-0.866 Z-0.3667 E1.0651
G1 X-0.5 Y-0.866 Z0.3667 E1.0651
G1 X-0.5 Y-0.866 Z0.352 E1.0601
G1 X-0.5 Y-0.866 Z0.3373 E1.0554
G1 X-0.5 Y-0.866 Z0.3227 E1.0508
G1 X-0.5 Y-0.866 Z0.308 E1.0464
G1 X-0.5 Y-0.866 Z0.2933 E1.0421
G1 X-0.5 Y-0.866 Z0.2787 E1.0381
G1 X-0.5 Y-0.866 Z0.264 E1.0343
G1 X-0.5 Y-0.866 Z0.2493 E1.0306
G1 X-0.5 Y-0.866 Z0.2347 E1.0272
G1 X-0.5 Y-0.866 Z0.22 E1.0239
G1 X-0.5 Y-0.866 Z0.2053 E1.0209
G1 X-0.5 Y-0.866 Z0.1907 E1.018
G1 X-0.5 Y-0.866 Z0.176 E1.0154
G1 X-0.5 Y-0.866 Z0.1613 E1.0129
G1 X-0.5 Y-0.866 Z0.1467 E1.0107
G1 X-0.5 Y-0.866 Z0.132 E1.0087
G1 X-0.5 Y-0.866 Z0.1173 E1.0069
G1 X-0.5 Y-0.866 Z0.1027 E1.0053
G1 X-0.5 Y-0.866 Z0.088 E1.0039
G1 X-0.5 Y-0.866 Z0.0733 E1.0027
G1 X-0.5 Y-0.866 Z0.0587 E1.0017
G1 X-0.5 Y-0.866 Z0.044 E1.001
G1 X-0.5 Y-0.866 Z0.0293 E1.0004
G1 X-0.5 Y-0.866 Z0.0147 E1.0001
G1 X-0.5 Y-0.866 E1.0
G1 X-0.5 Y-0.866 Z-0.0147 E1.0001
G1 X-0.5 Y-0.866 Z-0.0293 E1.0004
G1 X-0.5 Y-0.866 Z-0.044 E1.001
G1 X-0.5 Y-0.866 Z-0.0587 E1.0017
G1 X-0.5 Y-0.866 Z-0.0733 E1.0027
G1 X-0.5 Y-0.866 Z-0.088 E1.0039
G1 X-0.5 Y-0.866 Z-0.1027 E1.0053
G1 X-0.5 Y-0.866 Z-0.1173 E1.0069
G1 X-0.5 Y-0.866 Z-0.132 E1.0087
G1 X-0.5 Y-0.866 Z-0.1467 E1.0107
G1 X-0.5 Y-0.866 Z-0.1613 E1.0129
G1 X-0.5 Y-0.866 Z-0.176 E1.0154
G1 X-0.5 Y-0.866 Z-0.1907 E1.018
G1 X-0.5 Y-0.866 Z-0.2053 E1.0209
G1 X-0.5 Y-0.866 Z-0.22 E1.0239
G1 X-0.5 Y-0.866 Z-0.2347 E1.0272
G1 X-0.5 Y-0.866 Z-0.2493 E1.0306
G1 X-0.5 Y-0.866 Z-0.264 E1.0343
G1 X-0.5 Y-0.866 Z-0.2787 E1.0381
G1 X-0.5 Y-0.866 Z-0.2933 E1.0421
G1 X-0.5 Y-0.866 Z-0.308 E1.0464
G1 X-0.5 Y-0.866 Z-0.3227 E1.0508
G1 X-0.5 Y-0.866 Z-0.3373 E1.0554
G1 X-0.5 Y-0.866 Z-0.352 E1.0601
G1 X-0.5 Y-0.866 Z-0.3667 E1.0651
G1 X-1.0 Y-0.0 Z0.3667 E1.0651
G1 X-1.0 Y-0.0 Z0.352 E1.0601
G1 X-1.0 Y-0.0 Z0.3373 E1.0554
G1 X-1.0 Y-0.0 Z0.3227 E1.0508
G1 X-1.0 Y-0.0 Z0.308 E1.0464
G1 X-1.0 Y-0.0 Z0.2933 E1.0421
G1 X-1.0 Y-0.0 Z0.2787 E1.0381
G1 X-1.0 Y-0.0 Z0.264 E1.0343
G1 X-1.0 Y-0.0 Z0.2493 E1.0306
G1 X-1.0 Y-0.0 Z0.2347 E1.0272
G1 X-1.0 Y-0.0 Z0.22 E1.0239
G1 X-1.0 Y-0.0 Z0.2053 E1.0209
G1 X-1.0 Y-0.0 Z0.1907 E1.018
G1 X-1.0 Y-0.0 Z0.176 E1.0154
G1 X-1.0 Y-0.0 Z0.1613 E1.0129
G1 X-1.0 Y-0.0 Z0.1467 E1.0107
G1 X-1.0 Y-0.0 Z0.132 E1.0087
G1 X-1.0 Y-0.0 Z0.1173 E1.0069
G1 X-1.0 Y-0.0 Z0.1027 E1.0053
G1 X-1.0 Y-0.0 Z0.088 E1.0039
G1 X-1.0 Y-0.0 Z0.0733 E1.0027
G1 X-1.0 Y-0.0 Z0.0587 E1.0017
G1 X-1.0 Y-0.0 Z0.044 E1.001
G1 X-1.0 Y-0.0 Z0.0293 E1.0004
G1 X-1.0 Y-0.0 Z0.0147 E1.0001
G1 X-1.0 Y-0.0 E1.0
G1 X-1.0 Y-0.0 Z-0.0147 E1.0001
G1 X-1.0 Y-0.0 Z-0.0293 E1.0004
G1 X-1.0 Y-0.0 Z-0.044 E1.001
G1 X-1.0 Y-0.0 Z-0.0587 E1.0017
G1 X-1.0 Y-0.0 Z-0.0733 E1.0027
G1 X-1.0 Y-0.0 Z-0.088 E1.0039
G1 X-1.0 Y-0.0 Z-0.1027 E1.0053
G1 X-1.0 Y-0.0 Z-0.1173 E1.0069
G1 X-1.0 Y-0.0 Z-0.132 E1.0087
G1 X-1.0 Y-0.0 Z-0.1467 E1.0107
G1 X-1.0 Y-0.0 Z-0.1613 E1.0129
G1 X-1.0 Y-0.0 Z-0.176 E1.0154
G1 X-1.0 Y-0.0 Z-0.1907 E1.018
G1 X-1.0 Y-0.0 Z-0.2053 E1.0209
G1 X-1.0 Y-0.0 Z-0.22 E1.0239
G1 X-1.0 Y-0.0 Z-0.2347 E1.0272
G1 X-1.0 Y-0.0 Z-0.2493 E1.0306
G1 X-1.0 Y-0.0 Z-0.264 E1.0343
G1 X-1.0 Y-0.0 Z-0.2787 E1.0381
G1 X-1.0 Y-0.0 Z-0.2933 E1.0421
G1 X-1.0 Y-0.0 Z-0.308 E1.0464
G1 X-1.0 Y-0.0 Z-0.3227 E1.0508
G1 X-1.0 Y-0.0 Z-0.3373 E1.0554
G1 X-1.0 Y-0.0 Z-0.352 E1.0601
G1 X-1.0 Y-0.0 Z-0.3667 E1.0651
G1 X-0.5 Y0.866 Z0.3667 E1.0651
G1 X-0.5 Y0.866 Z0.352 E1.0601
G1 X-0.5 Y0.866 Z0.3373 E1.0554
G1 X-0.5 Y0.866 Z0.3227 E1.0508
G1 X-0.5 Y0.866 Z0.308 E1.0464
G1 X-0.5 Y0.866 Z0.2933 E1.0421
G1 X-0.5 Y0.866 Z0.2787 E1.0381
G1 X-0.5 Y0.866 Z0.264 E1.0343
G1 X-0.5 Y0.866 Z0.2493 E1.0306
G1 X-0.5 Y0.866 Z0.2347 E1.0272
G1 X-0.5 Y0.866 Z0.22 E1.0239
G1 X-0.5 Y0.866 Z0.2053 E1.0209
G1 X-0.5 Y0.866 Z0.1907 E1.018
G1 X-0.5 Y0.866 Z0.176 E1.0154
G1 X-0.5 Y0.866 Z0.1613 E1.0129
G1 X-0.5 Y0.866 Z0.1467 E1.0107
G1 X-0.5 Y0.866 Z0.132 E1.0087
G1 X-0.5 Y0.866 Z0.1173 E1.0069
G1 X-0.5 Y0.866 Z0.1027 E1.0053
G1 X-0.5 Y0.866 Z0.088 E1.0039
G1 X-0.5 Y0.866 Z0.0733 E1.0027
G1 X-0.5 Y0.866 Z0.0587 E1.0017
G1 X-0.5 Y0.866 Z0.044 E1.001
G1 X-0.5 Y0.866 Z0.0293 E1.0004
G1 X-0.5 Y0.866 Z0.0147 E1.0001
G1 X-0.5 Y0.866 E1.0
G1 X-0.5 Y0.866 Z-0.0147 E1.0001
G1 X-0.5 Y0.866 Z-0.0293 E1.0004
G1 X-0.5 Y0.866 Z-0.044 E1.001
G1 X-0.5 Y0.866 Z-0.0587 E1.0017
G1 X-0.5 Y0.866 Z-0.0733 E1.0027
G1 X-0.5 Y0.866 Z-0.088 E1.0039
G1 X-0.5 Y0.866 Z-0.1027 E1.0053
G1 X-0.5 Y0.866 Z-0.1173 E1.0069
G1 X-0.5 Y0.866 Z-0.132 E1.0087
G1 X-0.5 Y0.866 Z-0.1467 E1.0107
G1 X-0.5 Y0.866 Z-0.1613 E1.0129
G1 X-0.5 Y0.866 Z-0.176 E1.0154
G1 X-0.5 Y0.866 Z-0.1907 E1.018
G1 X-0.5 Y0.866 Z-0.2053 E1.0209
G1 X-0.5 Y0.866 Z-0.22 E1.0239
G1 X-0.5 Y0.866 Z-0.2347 E1.0272
G1 X-0.5 Y0.866 Z-0.2493 E1.0306
G1 X-0.5 Y0.866 Z-0.264 E1.0343
G1 X-0.5 Y0.866 Z-0.2787 E1.0381
G1 X-0.5 Y0.866 Z-0.2933 E1.0421
G1 X-0.5 Y0.866 Z-0.308 E1.0464
G1 X-0.5 Y0.866 Z-0.3227 E1.0508
G1 X-0.5 Y0.866 Z-0.3373 E1.0554
G1 X-0.5 Y0.866 Z-0.352 E1.0601
G1 X-0.5 Y0.866 Z-0.3667 E1.0651
G1 X0.5 Y0.866 Z0.3667 E1.0651
G1 X0.5 Y0.866 Z0.352 E1.0601
G1 X0.5 Y0.866 Z0.3373 E1.0554
G1 X0.5 Y0.866 Z0.3227 E1.0508
G1 X0.5 Y0.866 Z0.308 E1.0464
G1 X0.5 Y0.866 Z0.2933 E1.0421
G1 X0.5 Y0.866 Z0.2787 E1.0381
G1 X0.5 Y0.866 Z0.264 E1.0343
G1 X0.5 Y0.866 Z0.2493 E1.0306
G1 X0.5 Y0.866 Z0.2347 E1.0272
G1 X0.5 Y0.866 Z0.22 E1.0239
G1 X0.5 Y0.866 Z0.2053 E1.0209
G1 X0.5 Y0.866 Z0.1907 E1.018
G1 X0.5 Y0.866 Z0.176 E1.0154
G1 X0.5 Y0.866 Z0.1613 E1.0129
G1 X0.5 Y0.866 Z0.1467 E1.0107
G1 X0.5 Y0.866 Z0.132 E1.0087
G1 X0.5 Y0.866 Z0.1173 E1.0069
G1 X0.5 Y0.866 Z0.1027 E1.0053
G1 X0.5 Y0.866 Z0.088 E1.0039
G1 X0.5 Y0.866 Z0.0733 E1.0027
G1 X0.5 Y0.866 Z0.0587 E1.0017
G1 X0.5 Y0.866 Z0.044 E1.001
G1 X0.5 Y0.866 Z0.0293 E1.0004
G1 X0.5 Y0.866 Z0.0147 E1.0001
G1 X0.5 Y0.866 E1.0
G1 X0.5 Y0.866 Z-0.0147 E1.0001
G1 X0.5 Y0.866 Z-0.0293 E1.0004
G1 X0.5 Y0.866 Z-0.044 E1.001
G1 X0.5 Y0.866 Z-0.0587 E1.0017
G1 X0.5 Y0.866 Z-0.0733 E1.0027
G1 X0.5 Y0.866 Z-0.088 E1.0039
G1 X0.5 Y0.866 Z-0.1027 E1.0053
G1 X0.5 Y0.866 Z-0.1173 E1.0069
G1 X0.5 Y0.866 Z-0.132 E1.0087
G1 X0.5 Y0.866 Z-0.1467 E1.0107
G1 X0.5 Y0.866 Z-0.1613 E1.0129
G1 X0.5 Y0.866 Z-0.176 E1.0154
G1 X0.5 Y0.866 Z-0.1907 E1.018
G1 X0.5 Y0.866 Z-0.2053 E1.0209
G1 X0.5 Y0.866 Z-0.22 E1.0239
G1 X0.5 Y0.866 Z-0.2347 E1.0272
G1 X0.5 Y0.866 Z-0.2493 E1.0306
G1 X0.5 Y0.866 Z-0.264 E1.0343
G1 X0.5 Y0.866 Z-0.2787 E1.0381
G1 X0.5 Y0.866 Z-0.2933 E1.0421
G1 X0.5 Y0.866 Z-0.308 E1.0464
G1 X0.5 Y0.866 Z-0.3227 E1.0508
G1 X0.5 Y0.866 Z-0.3373 E1.0554
G1 X0.5 Y0.866 Z-0.352 E1.0601
G1 X0.5 Y0.866 Z-0.3667 E1.0651
G1 Z0.15
G1 X1.0 Y0.0 Z0.4 E1.077
G1 X1.0 Y0.0 Z0.384 E1.0712
G1 X1.0 Y0.0 Z0.368 E1.0656
G1 X1.0 Y0.0 Z0.352 E1.0601
G1 X1.0 Y0.0 Z0.336 E1.0549
G1 X1.0 Y0.0 Z0.32 E1.05
G1 X1.0 Y0.0 Z0.304 E1.0452
G1 X1.0 Y0.0 Z0.288 E1.0406
G1 X1.0 Y0.0 Z0.272 E1.0363
G1 X1.0 Y0.0 Z0.256 E1.0322
G1 X1.0 Y0.0 Z0.24 E1.0284
G1 X1.0 Y0.0 Z0.224 E1.0248
G1 X1.0 Y0.0 Z0.208 E1.0214
G1 X1.0 Y0.0 Z0.192 E1.0183
G1 X1.0 Y0.0 Z0.176 E1.0154
G1 X1.0 Y0.0 Z0.16 E1.0127
G1 X1.0 Y0.0 Z0.144 E1.0103
G1 X1.0 Y0.0 Z0.128 E1.0082
G1 X1.0 Y0.0 Z0.112 E1.0063
G1 X1.0 Y0.0 Z0.096 E1.0046
G1 X1.0 Y0.0 Z0.08 E1.0032
G1 X1.0 Y0.0 Z0.064 E1.002
G1 X1.0 Y0.0 Z0.048 E1.0012
G1 X1.0 Y0.0 Z0.032 E1.0005
G1 X1.0 Y0.0 Z0.016 E1.0001
G1 X1.0 Y0.0 E1.0
G1 X1.0 Y0.0 Z-0.016 E1.0001
G1 X1.0 Y0.0 Z-0.032 E1.0005
G1 X1.0 Y0.0 Z-0.048 E1.0012
G1 X1.0 Y0.0 Z-0.064 E1.002
G1 X1.0 Y0.0 Z-0.08 E1.0032
G1 X1.0 Y0.0 Z-0.096 E1.0046
G1 X1.0 Y0.0 Z-0.112 E1.0063
G1 X1.0 Y0.0 Z-0.128 E1.0082
G1 X1.0 Y0.0 Z-0.144 E1.0103
G1 X1.0 Y0.0 Z-0.16 E1.0127
G1 X1.0 Y0.0 Z-0.176 E1.0154
G1 X1.0 Y0.0 Z-0.192 E1.0183
G1 X1.0 Y0.0 Z-0.208 E1.0214
G1 X1.0 Y0.0 Z-0.224 E1.0248
G1 X1.0 Y0.0 Z-0.24 E1.0284
G1 X1.0 Y0.0 Z-0.256 E1.0322
G1 X1.0 Y0.0 Z-0.272 E1.0363
G1 X1.0 Y0.0 Z-0.288 E1.0406
G1 X1.0 Y0.0 Z-0.304 E1.0452
G1 X1.0 Y0.0 Z-0.32 E1.05
G1 X1.0 Y0.0 Z-0.336 E1.0549
G1 X1.0 Y0.0 Z-0.352 E1.0601
G1 X1.0 Y0.0 Z-0.368 E1.0656
G1 X1.0 Y0.0 Z-0.384 E1.0712
G1 X1.0 Y0.0 Z-0.4 E1.077
G1 X0.5 Y-0.866 Z0.4 E1.077
G1 X0.5 Y-0.866 Z0.384 E1.0712
G1 X0.5 Y-0.866 Z0.368 E1.0656
G1 X0.5 Y-0.866 Z0.352 E1.0601
G1 X0.5 Y-0.866 Z0.336 E1.0549
G1 X0.5 Y-0.866 Z0.32 E1.05
G1 X0.5 Y-0.866 Z0.304 E1.0452
G1 X0.5 Y-0.866 Z0.288 E1.0406
G1 X0.5 Y-0.866 Z0.272 E1.0363
G1 X0.5 Y-0.866 Z0.256 E1.0322
G1 X0.5 Y-0.866 Z0.24 E1.0284
G1 X0.5 Y-0.866 Z0.224 E1.0248
G1 X0.5 Y-0.866 Z0.208 E1.0214
G1 X0.5 Y-0.866 Z0.192 E1.0183
G1 X0.5 Y-0.866 Z0.176 E1.0154
G1 X0.5 Y-0.866 Z0.16 E1.0127
G1 X0.5 Y-0.866 Z0.144 E1.0103
G1 X0.5 Y-0.866 Z0.128 E1.0082
G1 X0.5 Y-0.866 Z0.112 E1.0063
G1 X0.5 Y-0.866 Z0.096 E1.0046
G1 X0.5 Y-0.866 Z0.08 E1.0032
G1 X0.5 Y-0.866 Z0.064 E1.002
G1 X0.5 Y-0.866 Z0.048 E1.0012
G1 X0.5 Y-0.866 Z0.032 E1.0005
G1 X0.5 Y-0.866 Z0.016 E1.0001
G1 X0.5 Y-0.866 E1.0
G1 X0.5 Y-0.866 Z-0.016 E1.0001
G1 X0.5 Y-0.866 Z-0.032 E1.0005
G1 X0.5 Y-0.866 Z-0.048 E1.0012
G1 X0.5 Y-0.866 Z-0.064 E1.002
G1 X0.5 Y-0.866 Z-0.08 E1.0032
G1 X0.5 Y-0.866 Z-0.096 E1.0046
G1 X0.5 Y-0.866 Z-0.112 E1.0063
G1 X0.5 Y-0.866 Z-0.128 E1.0082
G1 X0.5 Y-0.866 Z-0.144 E1.0103
G1 X0.5 Y-0.866 Z-0.16 E1.0127
G1 X0.5 Y-0.866 Z-0.176 E1.0154
G1 X0.5 Y-0.866 Z-0.192 E1.0183
G1 X0.5 Y-0.866 Z-0.208 E1.0214
G1 X0.5 Y-0.866 Z-0.224 E1.0248
G1 X0.5 Y-0.866 Z-0.24 E1.0284
G1 X0.5 Y-0.866 Z-0.256 E1.0322
G1 X0.5 Y-0.866 Z-0.272 E1.0363
G1 X0.5 Y-0.866 Z-0.288 E1.0406
G1 X0.5 Y-0.866 Z-0.304 E1.0452
G1 X0.5 Y-0.866 Z-0.32 E1.05
G1 X0.5 Y-0.866 Z-0.336 E1.0549
G1 X0.5 Y-0.866 Z-0.352 E1.0601
G1 X0.5 Y-0.866 Z-0.368 E1.0656
G1 X0.5 Y-0.866 Z-0.384 E1.0712
G1 X0.5 Y-0.866 Z-0.4 E1.077
G1 X-0.5 Y-0.866 Z0.4 E1.077
G1 X-0.5 Y-0.866 Z0.384 E1.0712
G1 X-0.5 Y-0.866 Z0.368 E1.0656
G1 X-0.5 Y-0.866 Z0.352 E1.0601
G1 X-0.5 Y-0.866 Z0.336 E1.0549
G1 X-0.5 Y-0.866 Z0.32 E1.05
G1 X-0.5 Y-0.866 Z0.304 E1.0452
G1 X-0.5 Y-0.866 Z0.288 E1.0406
G1 X-0.5 Y-0.866 Z0.272 E1.0363
G1 X-0.5 Y-0.866 Z0.256 E1.0322
G1 X-0.5 Y-0.866 Z0.24 E1.0284
G1 X-0.5 Y-0.866 Z0.224 E1.0248
G1 X-0.5 Y-0.866 Z0.208 E1.0214
G1 X-0.5 Y-0.866 Z0.192 E1.0183
G1 X-0.5 Y-0.866 Z0.176 E1.0154
G1 X-0.5 Y-0.866 Z0.16 E1.0127
G1 X-0.5 Y-0.866 Z0.144 E1.0103
G1 X-0.5 Y-0.866 Z0.128 E1.0082
G1 X-0.5 Y-0.866 Z0.112 E1.0063
G1 X-0.5 Y-0.866 Z0.096 E1.0046
G1 X-0.5 Y-0.866 Z0.08 E1.0032
G1 X-0.5 Y-0.866 Z0.064 E1.002
G1 X-0.5 Y-0.866 Z0.048 E1.0012
G1 X-0.5 Y-0.866 Z0.032 E1.0005
G1 X-0.5 Y-0.866 Z0.016 E1.0001
G1 X-0.5 Y-0.866 E1.0
G1 X-0.5 Y-0.866 Z-0.016 E1.0001
