; *************************************************
; *************************************************
; ******* File generated by Extruder Turtle *******
; ******* written by Leah Buechley and  ***********
; ******* and Franklin Pezutti-Dyer ***************
; **** Hand and Machine Lab, UNM, 2021-present ****
; *************************************************
; *************************************************
; *************** Eazao initialization **************
G21	           ; Metric units
G90            ; Absolute positioning
M82            ; Absolute extrusion
M302           ; Allow cold extrusion
G28            ; Home
G1 Z15.0 F1500 ; Move down 15mm

G92 E0         ; Zero extruder
G1 F2000 E20   ; Prime Extruder: Extrude 20mm of clay
G92 E0         ; Zero extruder

; Clay mix factor
M163 S0 P0.9   ; Set Mix Factor small auger extruder
M163 S1 P0.1   ; Set Mix Factor large plunger extruder
M164 S0		   ; Finalize mix


G0 F2000 X75.0 Y88.0 Z0 ; Move to starting position
M83 					; Relative extrustion
G91                     ; Relative coordinates for X,Y,Z axes
G1 F1000
; ********** End printer initialization ***********
; *************************************************

G1 F500
; ***************** Print parameters **************
; Nozzle size: 1.5
; Extrude width: 2.25
; Layer height: 1.0
; Extrude rate: 1.0
; Speed: 1000
; Mix Factor: 0.9
; *************************************************

G1 X7.0 Y0.0 E7.0
G1 X7.0 Y0.0 E7.0
G1 X7.0 Y0.0 E7.0
G1 X6.9755 Y-0.5857 E7.0
G1 X6.6106 Y-2.3021 E7.0
G1 X4.6839 Y-5.202 E7.0
G1 X-0.7317 Y-6.9617 E7.0
G1 X-6.847 Y-1.4554 E7.0
G1 X-0.1466 Y6.9985 E7.0
G1 X5.1028 Y-4.7918 E7.0
G1 X-5.6631 Y4.1145 E7.0
G1 X2.1631 Y-6.6574 E7.0
G1 X6.3948 Y2.8472 E7.0
G1 X2.7126 Y6.453 E7.0
G1 X4.2322 Y5.5757 E7.0
G1 X6.3948 Y-2.8472 E7.0
G1 X-6.847 Y-1.4554 E7.0
G1 X6.3948 Y-2.8472 E7.0
G1 X5.1028 Y4.7918 E7.0
G1 X6.1341 Y3.3723 E7.0
G1 X2.1631 Y-6.6574 E7.0
G1 X-0.7317 Y6.9617 E7.0
G1 X-6.847 Y1.4554 E7.0
G1 X-5.299 Y4.5739 E7.0
G1 X6.9755 Y0.5857 E7.0
G1 Z0.1
G1 X-3.5 Y6.0622 E7.0
G1 X-3.5 Y6.0622 E7.0
G1 X-3.5 Y6.0622 E7.0
G1 X-2.9805 Y6.3338 E7.0
G1 X-1.3117 Y6.876 E7.0
G1 X2.1631 Y6.6574 E7.0
G1 X6.3948 Y2.8472 E7.0
G1 X4.6839 Y-5.202 E7.0
G1 X-5.9875 Y-3.6262 E7.0
G1 X1.5985 Y6.8151 E7.0
G1 X-0.7317 Y-6.9617 E7.0
G1 X4.6839 Y5.202 E7.0
G1 X-5.6631 Y4.1145 E7.0
G1 X-6.9448 Y-0.8773 E7.0
G1 X-6.9448 Y0.8773 E7.0
G1 X-0.7317 Y6.9617 E7.0
G1 X4.6839 Y-5.202 E7.0
G1 X-0.7317 Y6.9617 E7.0
G1 X-6.7012 Y2.0232 E7.0
G1 X-5.9875 Y3.6262 E7.0
G1 X4.6839 Y5.202 E7.0
G1 X-5.6631 Y-4.1145 E7.0
G1 X2.1631 Y-6.6574 E7.0
G1 X-1.3117 Y-6.876 E7.0
G1 X-3.995 Y5.748 E7.0
G1 Z0.1
G1 X-3.5 Y-6.0622 E7.0
G1 X-3.5 Y-6.0622 E7.0
G1 X-3.5 Y-6.0622 E7.0
G1 X-3.995 Y-5.748 E7.0
G1 X-5.299 Y-4.5739 E7.0
G1 X-6.847 Y-1.4554 E7.0
G1 X-5.6631 Y4.1145 E7.0
G1 X2.1631 Y6.6574 E7.0
G1 X6.1341 Y-3.3723 E7.0
G1 X-6.7012 Y-2.0232 E7.0
G1 X6.3948 Y2.8472 E7.0
G1 X-6.847 Y1.4554 E7.0
G1 X-0.7317 Y-6.9617 E7.0
G1 X4.2322 Y-5.5757 E7.0
G1 X2.7126 Y-6.453 E7.0
G1 X-5.6631 Y-4.1145 E7.0
G1 X2.1631 Y6.6574 E7.0
G1 X-5.6631 Y-4.1145 E7.0
G1 X1.5985 Y-6.8151 E7.0
G1 X-0.1466 Y-6.9985 E7.0
G1 X-6.847 Y1.4554 E7.0
G1 X6.3948 Y-2.8472 E7.0
G1 X4.6839 Y5.202 E7.0
G1 X6.6106 Y2.3021 E7.0
G1 X-2.9805 Y-6.3338 E7.0
G1 Z0.1
G1 X7.0 Y0.0 E7.0
G1 X7.0 Y0.0 E7.0
G1 X7.0 Y0.0 E7.0
G1 X6.9755 Y-0.5857 E7.0
G1 X6.6106 Y-2.3021 E7.0
G1 X4.6839 Y-5.202 E7.0
G1 X-0.7317 Y-6.9617 E7.0
G1 X-6.847 Y-1.4554 E7.0
G1 X-0.1466 Y6.9985 E7.0
G1 X5.1028 Y-4.7918 E7.0
G1 X-5.6631 Y4.1145 E7.0
G1 X2.1631 Y-6.6574 E7.0
G1 X6.3948 Y2.8472 E7.0
G1 X2.7126 Y6.453 E7.0
G1 X4.2322 Y5.5757 E7.0
G1 X6.3948 Y-2.8472 E7.0
G1 X-6.847 Y-1.4554 E7.0
G1 X6.3948 Y-2.8472 E7.0
G1 X5.1028 Y4.7918 E7.0
G1 X6.1341 Y3.3723 E7.0
G1 X2.1631 Y-6.6574 E7.0
G1 X-0.7317 Y6.9617 E7.0
G1 X-6.847 Y1.4554 E7.0
G1 X-5.299 Y4.5739 E7.0
G1 X6.9755 Y0.5857 E7.0
G1 Z0.1
G1 X-3.5 Y6.0622 E7.0
G1 X-3.5 Y6.0622 E7.0
G1 X-3.5 Y6.0622 E7.0
G1 X-2.9805 Y6.3338 E7.0
G1 X-1.3117 Y6.876 E7.0
G1 X2.1631 Y6.6574 E7.0
G1 X6.3948 Y2.8472 E7.0
G1 X4.6839 Y-5.202 E7.0
G1 X-5.9875 Y-3.6262 E7.0
G1 X1.5985 Y6.8151 E7.0
G1 X-0.7317 Y-6.9617 E7.0
G1 X4.6839 Y5.202 E7.0
G1 X-5.6631 Y4.1145 E7.0
G1 X-6.9448 Y-0.8773 E7.0
G1 X-6.9448 Y0.8773 E7.0
G1 X-0.7317 Y6.9617 E7.0
G1 X4.6839 Y-5.202 E7.0
G1 X-0.7317 Y6.9617 E7.0
G1 X-6.7012 Y2.0232 E7.0
G1 X-5.9875 Y3.6262 E7.0
G1 X4.6839 Y5.202 E7.0
G1 X-5.6631 Y-4.1145 E7.0
G1 X2.1631 Y-6.6574 E7.0
G1 X-1.3117 Y-6.876 E7.0
G1 X-3.995 Y5.748 E7.0
G1 Z0.1
G1 X-3.5 Y-6.0622 E7.0
G1 X-3.5 Y-6.0622 E7.0
G1 X-3.5 Y-6.0622 E7.0
G1 X-3.995 Y-5.748 E7.0
G1 X-5.299 Y-4.5739 E7.0
G1 X-6.847 Y-1.4554 E7.0
G1 X-5.6631 Y4.1145 E7.0
G1 X2.1631 Y6.6574 E7.0
G1 X6.1341 Y-3.3723 E7.0
G1 X-6.7012 Y-2.0232 E7.0
G1 X6.3948 Y2.8472 E7.0
G1 X-6.847 Y1.4554 E7.0
G1 X-0.7317 Y-6.9617 E7.0
G1 X4.2322 Y-5.5757 E7.0
G1 X2.7126 Y-6.453 E7.0
G1 X-5.6631 Y-4.1145 E7.0
G1 X2.1631 Y6.6574 E7.0
G1 X-5.6631 Y-4.1145 E7.0
G1 X1.5985 Y-6.8151 E7.0
G1 X-0.1466 Y-6.9985 E7.0
G1 X-6.847 Y1.4554 E7.0
G1 X6.3948 Y-2.8472 E7.0
G1 X4.6839 Y5.202 E7.0
G1 X6.6106 Y2.3021 E7.0
G1 X-2.9805 Y-6.3338 E7.0
G1 Z0.1
G1 X7.0 Y0.0 E7.0
G1 X7.0 Y0.0 E7.0
G1 X7.0 Y0.0 E7.0
G1 X6.9755 Y-0.5857 E7.0
G1 X6.6106 Y-2.3021 E7.0
G1 X4.6839 Y-5.202 E7.0
G1 X-0.7317 Y-6.9617 E7.0
G1 X-6.847 Y-1.4554 E7.0
G1 X-0.1466 Y6.9985 E7.0
G1 X5.1028 Y-4.7918 E7.0
G1 X-5.6631 Y4.1145 E7.0
G1 X2.1631 Y-6.6574 E7.0
G1 X6.3948 Y2.8472 E7.0
G1 X2.7126 Y6.453 E7.0
G1 X4.2322 Y5.5757 E7.0
G1 X6.3948 Y-2.8472 E7.0
G1 X-6.847 Y-1.4554 E7.0
G1 X6.3948 Y-2.8472 E7.0
G1 X5.1028 Y4.7918 E7.0
G1 X6.1341 Y3.3723 E7.0
G1 X2.1631 Y-6.6574 E7.0
G1 X-0.7317 Y6.9617 E7.0
G1 X-6.847 Y1.4554 E7.0
G1 X-5.299 Y4.5739 E7.0
G1 X6.9755 Y0.5857 E7.0
G1 Z0.1
G1 X-3.5 Y6.0622 E7.0
G1 X-3.5 Y6.0622 E7.0
G1 X-3.5 Y6.0622 E7.0
G1 X-2.9805 Y6.3338 E7.0
G1 X-1.3117 Y6.876 E7.0
G1 X2.1631 Y6.6574 E7.0
G1 X6.3948 Y2.8472 E7.0
G1 X4.6839 Y-5.202 E7.0
G1 X-5.9875 Y-3.6262 E7.0
G1 X1.5985 Y6.8151 E7.0
G1 X-0.7317 Y-6.9617 E7.0
G1 X4.6839 Y5.202 E7.0
G1 X-5.6631 Y4.1145 E7.0
G1 X-6.9448 Y-0.8773 E7.0
G1 X-6.9448 Y0.8773 E7.0
G1 X-0.7317 Y6.9617 E7.0
G1 X4.6839 Y-5.202 E7.0
G1 X-0.7317 Y6.9617 E7.0
G1 X-6.7012 Y2.0232 E7.0
G1 X-5.9875 Y3.6262 E7.0
G1 X4.6839 Y5.202 E7.0
G1 X-5.6631 Y-4.1145 E7.0
G1 X2.1631 Y-6.6574 E7.0
G1 X-1.3117 Y-6.876 E7.0
G1 X-3.995 Y5.748 E7.0
G1 Z0.1
G1 X-3.5 Y-6.0622 E7.0
G1 X-3.5 Y-6.0622 E7.0
G1 X-3.5 Y-6.0622 E7.0
G1 X-3.995 Y-5.748 E7.0
G1 X-5.299 Y-4.5739 E7.0
G1 X-6.847 Y-1.4554 E7.0
G1 X-5.6631 Y4.1145 E7.0
G1 X2.1631 Y6.6574 E7.0
G1 X6.1341 Y-3.3723 E7.0
G1 X-6.7012 Y-2.0232 E7.0
G1 X6.3948 Y2.8472 E7.0
G1 X-6.847 Y1.4554 E7.0
G1 X-0.7317 Y-6.9617 E7.0
G1 X4.2322 Y-5.5757 E7.0
G1 X2.7126 Y-6.453 E7.0
G1 X-5.6631 Y-4.1145 E7.0
G1 X2.1631 Y6.6574 E7.0
G1 X-5.6631 Y-4.1145 E7.0
G1 X1.5985 Y-6.8151 E7.0
G1 X-0.1466 Y-6.9985 E7.0
G1 X-6.847 Y1.4554 E7.0
G1 X6.3948 Y-2.8472 E7.0
G1 X4.6839 Y5.202 E7.0
G1 X6.6106 Y2.3021 E7.0
G1 X-2.9805 Y-6.3338 E7.0
G1 Z0.1
G1 X7.0 Y0.0 E7.0
G1 X7.0 Y0.0 E7.0
G1 X7.0 Y0.0 E7.0
G1 X6.9755 Y-0.5857 E7.0
G1 X6.6106 Y-2.3021 E7.0
G1 X4.6839 Y-5.202 E7.0
G1 X-0.7317 Y-6.9617 E7.0
G1 X-6.847 Y-1.4554 E7.0
G1 X-0.1466 Y6.9985 E7.0
G1 X5.1028 Y-4.7918 E7.0
G1 X-5.6631 Y4.1145 E7.0
G1 X2.1631 Y-6.6574 E7.0
G1 X6.3948 Y2.8472 E7.0
G1 X2.7126 Y6.453 E7.0
G1 X4.2322 Y5.5757 E7.0
G1 X6.3948 Y-2.8472 E7.0
G1 X-6.847 Y-1.4554 E7.0
G1 X6.3948 Y-2.8472 E7.0
G1 X5.1028 Y4.7918 E7.0
G1 X6.1341 Y3.3723 E7.0
G1 X2.1631 Y-6.6574 E7.0
G1 X-0.7317 Y6.9617 E7.0
G1 X-6.847 Y1.4554 E7.0
G1 X-5.299 Y4.5739 E7.0
G1 X6.9755 Y0.5857 E7.0
G1 Z0.1
G1 X-3.5 Y6.0622 E7.0
G1 X-3.5 Y6.0622 E7.0
G1 X-3.5 Y6.0622 E7.0
G1 X-2.9805 Y6.3338 E7.0
G1 X-1.3117 Y6.876 E7.0
G1 X2.1631 Y6.6574 E7.0
G1 X6.3948 Y2.8472 E7.0
G1 X4.6839 Y-5.202 E7.0
G1 X-5.9875 Y-3.6262 E7.0
G1 X1.5985 Y6.8151 E7.0
G1 X-0.7317 Y-6.9617 E7.0
G1 X4.6839 Y5.202 E7.0
G1 X-5.6631 Y4.1145 E7.0
G1 X-6.9448 Y-0.8773 E7.0
G1 X-6.9448 Y0.8773 E7.0
G1 X-0.7317 Y6.9617 E7.0
G1 X4.6839 Y-5.202 E7.0
G1 X-0.7317 Y6.9617 E7.0
G1 X-6.7012 Y2.0232 E7.0
G1 X-5.9875 Y3.6262 E7.0
G1 X4.6839 Y5.202 E7.0
G1 X-5.6631 Y-4.1145 E7.0
G1 X2.1631 Y-6.6574 E7.0
G1 X-1.3117 Y-6.876 E7.0
G1 X-3.995 Y5.748 E7.0
G1 Z0.1
G1 X-3.5 Y-6.0622 E7.0
G1 X-3.5 Y-6.0622 E7.0
G1 X-3.5 Y-6.0622 E7.0
G1 X-3.995 Y-5.748 E7.0
G1 X-5.299 Y-4.5739 E7.0
G1 X-6.847 Y-1.4554 E7.0
G1 X-5.6631 Y4.1145 E7.0
G1 X2.1631 Y6.6574 E7.0
G1 X6.1341 Y-3.3723 E7.0
G1 X-6.7012 Y-2.0232 E7.0
G1 X6.3948 Y2.8472 E7.0
G1 X-6.847 Y1.4554 E7.0
G1 X-0.7317 Y-6.9617 E7.0
G1 X4.2322 Y-5.5757 E7.0
G1 X2.7126 Y-6.453 E7.0
G1 X-5.6631 Y-4.1145 E7.0
G1 X2.1631 Y6.6574 E7.0
G1 X-5.6631 Y-4.1145 E7.0
G1 X1.5985 Y-6.8151 E7.0
G1 X-0.1466 Y-6.9985 E7.0
G1 X-6.847 Y1.4554 E7.0
G1 X6.3948 Y-2.8472 E7.0
G1 X4.6839 Y5.202 E7.0
G1 X6.6106 Y2.3021 E7.0
G1 X-2.9805 Y-6.3338 E7.0
G1 Z0.1
G1 X7.0 Y0.0 E7.0
G1 X7.0 Y0.0 E7.0
G1 X7.0 Y0.0 E7.0
G1 X6.9755 Y-0.5857 E7.0
G1 X6.6106 Y-2.3021 E7.0
G1 X4.6839 Y-5.202 E7.0
G1 X-0.7317 Y-6.9617 E7.0
G1 X-6.847 Y-1.4554 E7.0
G1 X-0.1466 Y6.9985 E7.0
G1 X5.1028 Y-4.7918 E7.0
G1 X-5.6631 Y4.1145 E7.0
G1 X2.1631 Y-6.6574 E7.0
G1 X6.3948 Y2.8472 E7.0
G1 X2.7126 Y6.453 E7.0
G1 X4.2322 Y5.5757 E7.0
G1 X6.3948 Y-2.8472 E7.0
G1 X-6.847 Y-1.4554 E7.0
G1 X6.3948 Y-2.8472 E7.0
G1 X5.1028 Y4.7918 E7.0
G1 X6.1341 Y3.3723 E7.0
G1 X2.1631 Y-6.6574 E7.0
G1 X-0.7317 Y6.9617 E7.0
G1 X-6.847 Y1.4554 E7.0
G1 X-5.299 Y4.5739 E7.0
G1 X6.9755 Y0.5857 E7.0
G1 Z0.1
G1 X-3.5 Y6.0622 E7.0
G1 X-3.5 Y6.0622 E7.0
G1 X-3.5 Y6.0622 E7.0
G1 X-2.9805 Y6.3338 E7.0
G1 X-1.3117 Y6.876 E7.0
G1 X2.1631 Y6.6574 E7.0
G1 X6.3948 Y2.8472 E7.0
G1 X4.6839 Y-5.202 E7.0
G1 X-5.9875 Y-3.6262 E7.0
G1 X1.5985 Y6.8151 E7.0
G1 X-0.7317 Y-6.9617 E7.0
G1 X4.6839 Y5.202 E7.0
G1 X-5.6631 Y4.1145 E7.0
G1 X-6.9448 Y-0.8773 E7.0
G1 X-6.9448 Y0.8773 E7.0
G1 X-0.7317 Y6.9617 E7.0
G1 X4.6839 Y-5.202 E7.0
G1 X-0.7317 Y6.9617 E7.0
G1 X-6.7012 Y2.0232 E7.0
G1 X-5.9875 Y3.6262 E7.0
G1 X4.6839 Y5.202 E7.0
G1 X-5.6631 Y-4.1145 E7.0
G1 X2.1631 Y-6.6574 E7.0
G1 X-1.3117 Y-6.876 E7.0
G1 X-3.995 Y5.748 E7.0
G1 Z0.1
G1 X-3.5 Y-6.0622 E7.0
G1 X-3.5 Y-6.0622 E7.0
G1 X-3.5 Y-6.0622 E7.0
G1 X-3.995 Y-5.748 E7.0
G1 X-5.299 Y-4.5739 E7.0
G1 X-6.847 Y-1.4554 E7.0
G1 X-5.6631 Y4.1145 E7.0
G1 X2.1631 Y6.6574 E7.0
G1 X6.1341 Y-3.3723 E7.0
G1 X-6.7012 Y-2.0232 E7.0
G1 X6.3948 Y2.8472 E7.0
G1 X-6.847 Y1.4554 E7.0
G1 X-0.7317 Y-6.9617 E7.0
G1 X4.2322 Y-5.5757 E7.0
G1 X2.7126 Y-6.453 E7.0
G1 X-5.6631 Y-4.1145 E7.0
G1 X2.1631 Y6.6574 E7.0
G1 X-5.6631 Y-4.1145 E7.0
G1 X1.5985 Y-6.8151 E7.0
G1 X-0.1466 Y-6.9985 E7.0
G1 X-6.847 Y1.4554 E7.0
G1 X6.3948 Y-2.8472 E7.0
G1 X4.6839 Y5.202 E7.0
G1 X6.6106 Y2.3021 E7.0
G1 X-2.9805 Y-6.3338 E7.0
G1 Z0.1
G1 X7.0 Y0.0 E7.0
G1 X7.0 Y0.0 E7.0
G1 X7.0 Y0.0 E7.0
G1 X6.9755 Y-0.5857 E7.0
G1 X6.6106 Y-2.3021 E7.0
G1 X4.6839 Y-5.202 E7.0
G1 X-0.7317 Y-6.9617 E7.0
G1 X-6.847 Y-1.4554 E7.0
G1 X-0.1466 Y6.9985 E7.0
G1 X5.1028 Y-4.7918 E7.0
G1 X-5.6631 Y4.1145 E7.0
G1 X2.1631 Y-6.6574 E7.0
G1 X6.3948 Y2.8472 E7.0
G1 X2.7126 Y6.453 E7.0
G1 X4.2322 Y5.5757 E7.0
G1 X6.3948 Y-2.8472 E7.0
G1 X-6.847 Y-1.4554 E7.0
G1 X6.3948 Y-2.8472 E7.0
G1 X5.1028 Y4.7918 E7.0
G1 X6.1341 Y3.3723 E7.0
G1 X2.1631 Y-6.6574 E7.0
G1 X-0.7317 Y6.9617 E7.0
G1 X-6.847 Y1.4554 E7.0
G1 X-5.299 Y4.5739 E7.0
G1 X6.9755 Y0.5857 E7.0
G1 Z0.1
G1 X-3.5 Y6.0622 E7.0
G1 X-3.5 Y6.0622 E7.0
G1 X-3.5 Y6.0622 E7.0
G1 X-2.9805 Y6.3338 E7.0
G1 X-1.3117 Y6.876 E7.0
G1 X2.1631 Y6.6574 E7.0
G1 X6.3948 Y2.8472 E7.0
G1 X4.6839 Y-5.202 E7.0
G1 X-5.9875 Y-3.6262 E7.0
G1 X1.5985 Y6.8151 E7.0
G1 X-0.7317 Y-6.9617 E7.0
G1 X4.6839 Y5.202 E7.0
G1 X-5.6631 Y4.1145 E7.0
G1 X-6.9448 Y-0.8773 E7.0
G1 X-6.9448 Y0.8773 E7.0
G1 X-0.7317 Y6.9617 E7.0
G1 X4.6839 Y-5.202 E7.0
G1 X-0.7317 Y6.9617 E7.0
G1 X-6.7012 Y2.0232 E7.0
G1 X-5.9875 Y3.6262 E7.0
G1 X4.6839 Y5.202 E7.0
G1 X-5.6631 Y-4.1145 E7.0
G1 X2.1631 Y-6.6574 E7.0
G1 X-1.3117 Y-6.876 E7.0
G1 X-3.995 Y5.748 E7.0
G1 Z0.1
G1 X-3.5 Y-6.0622 E7.0
G1 X-3.5 Y-6.0622 E7.0
G1 X-3.5 Y-6.0622 E7.0
G1 X-3.995 Y-5.748 E7.0
G1 X-5.299 Y-4.5739 E7.0
G1 X-6.847 Y-1.4554 E7.0
G1 X-5.6631 Y4.1145 E7.0
G1 X2.1631 Y6.6574 E7.0
G1 X6.1341 Y-3.3723 E7.0
G1 X-6.7012 Y-2.0232 E7.0
G1 X6.3948 Y2.8472 E7.0
G1 X-6.847 Y1.4554 E7.0
G1 X-0.7317 Y-6.9617 E7.0
G1 X4.2322 Y-5.5757 E7.0
G1 X2.7126 Y-6.453 E7.0
G1 X-5.6631 Y-4.1145 E7.0
G1 X2.1631 Y6.6574 E7.0
G1 X-5.6631 Y-4.1145 E7.0
G1 X1.5985 Y-6.8151 E7.0
G1 X-0.1466 Y-6.9985 E7.0
G1 X-6.847 Y1.4554 E7.0
G1 X6.3948 Y-2.8472 E7.0
G1 X4.6839 Y5.202 E7.0
G1 X6.6106 Y2.3021 E7.0
G1 X-2.9805 Y-6.3338 E7.0
G1 Z0.1
G1 X7.0 Y0.0 E7.0
G1 X7.0 Y0.0 E7.0
G1 X7.0 Y0.0 E7.0
G1 X6.9755 Y-0.5857 E7.0
G1 X6.6106 Y-2.3021 E7.0
G1 X4.6839 Y-5.202 E7.0
G1 X-0.7317 Y-6.9617 E7.0
G1 X-6.847 Y-1.4554 E7.0
G1 X-0.1466 Y6.9985 E7.0
G1 X5.1028 Y-4.7918 E7.0
G1 X-5.6631 Y4.1145 E7.0
G1 X2.1631 Y-6.6574 E7.0
G1 X6.3948 Y2.8472 E7.0
G1 X2.7126 Y6.453 E7.0
G1 X4.2322 Y5.5757 E7.0
G1 X6.3948 Y-2.8472 E7.0
G1 X-6.847 Y-1.4554 E7.0
G1 X6.3948 Y-2.8472 E7.0
G1 X5.1028 Y4.7918 E7.0
G1 X6.1341 Y3.3723 E7.0
G1 X2.1631 Y-6.6574 E7.0
G1 X-0.7317 Y6.9617 E7.0
G1 X-6.847 Y1.4554 E7.0
G1 X-5.299 Y4.5739 E7.0
G1 X6.9755 Y0.5857 E7.0
G1 Z0.1
G1 X-3.5 Y6.0622 E7.0
G1 X-3.5 Y6.0622 E7.0
G1 X-3.5 Y6.0622 E7.0
G1 X-2.9805 Y6.3338 E7.0
G1 X-1.3117 Y6.876 E7.0
G1 X2.1631 Y6.6574 E7.0
G1 X6.3948 Y2.8472 E7.0
G1 X4.6839 Y-5.202 E7.0
G1 X-5.9875 Y-3.6262 E7.0
G1 X1.5985 Y6.8151 E7.0
G1 X-0.7317 Y-6.9617 E7.0
G1 X4.6839 Y5.202 E7.0
G1 X-5.6631 Y4.1145 E7.0
G1 X-6.9448 Y-0.8773 E7.0
G1 X-6.9448 Y0.8773 E7.0
G1 X-0.7317 Y6.9617 E7.0
G1 X4.6839 Y-5.202 E7.0
G1 X-0.7317 Y6.9617 E7.0
G1 X-6.7012 Y2.0232 E7.0
G1 X-5.9875 Y3.6262 E7.0
G1 X4.6839 Y5.202 E7.0
G1 X-5.6631 Y-4.1145 E7.0
G1 X2.1631 Y-6.6574 E7.0
G1 X-1.3117 Y-6.876 E7.0
G1 X-3.995 Y5.748 E7.0
G1 Z0.1
G1 X-3.5 Y-6.0622 E7.0
G1 X-3.5 Y-6.0622 E7.0
G1 X-3.5 Y-6.0622 E7.0
G1 X-3.995 Y-5.748 E7.0
G1 X-5.299 Y-4.5739 E7.0
G1 X-6.847 Y-1.4554 E7.0
G1 X-5.6631 Y4.1145 E7.0
G1 X2.1631 Y6.6574 E7.0
G1 X6.1341 Y-3.3723 E7.0
G1 X-6.7012 Y-2.0232 E7.0
G1 X6.3948 Y2.8472 E7.0
G1 X-6.847 Y1.4554 E7.0
G1 X-0.7317 Y-6.9617 E7.0
G1 X4.2322 Y-5.5757 E7.0
G1 X2.7126 Y-6.453 E7.0
G1 X-5.6631 Y-4.1145 E7.0
G1 X2.1631 Y6.6574 E7.0
G1 X-5.6631 Y-4.1145 E7.0
G1 X1.5985 Y-6.8151 E7.0
G1 X-0.1466 Y-6.9985 E7.0
G1 X-6.847 Y1.4554 E7.0
G1 X6.3948 Y-2.8472 E7.0
G1 X4.6839 Y5.202 E7.0
G1 X6.6106 Y2.3021 E7.0
G1 X-2.9805 Y-6.3338 E7.0
G1 Z0.1
G1 X7.0 Y0.0 E7.0
G1 X7.0 Y0.0 E7.0
G1 X7.0 Y0.0 E7.0
G1 X6.9755 Y-0.5857 E7.0
G1 X6.6106 Y-2.3021 E7.0
G1 X4.6839 Y-5.202 E7.0
G1 X-0.7317 Y-6.9617 E7.0
G1 X-6.847 Y-1.4554 E7.0
G1 X-0.1466 Y6.9985 E7.0
G1 X5.1028 Y-4.7918 E7.0
G1 X-5.6631 Y4.1145 E7.0
G1 X2.1631 Y-6.6574 E7.0
G1 X6.3948 Y2.8472 E7.0
G1 X2.7126 Y6.453 E7.0
G1 X4.2322 Y5.5757 E7.0
G1 X6.3948 Y-2.8472 E7.0
G1 X-6.847 Y-1.4554 E7.0
G1 X6.3948 Y-2.8472 E7.0
G1 X5.1028 Y4.7918 E7.0
G1 X6.1341 Y3.3723 E7.0
G1 X2.1631 Y-6.6574 E7.0
G1 X-0.7317 Y6.9617 E7.0
G1 X-6.847 Y1.4554 E7.0
G1 X-5.299 Y4.5739 E7.0
G1 X6.9755 Y0.5857 E7.0
G1 Z0.1
G1 X-3.5 Y6.0622 E7.0
G1 X-3.5 Y6.0622 E7.0
G1 X-3.5 Y6.0622 E7.0
G1 X-2.9805 Y6.3338 E7.0
G1 X-1.3117 Y6.876 E7.0
G1 X2.1631 Y6.6574 E7.0
G1 X6.3948 Y2.8472 E7.0
G1 X4.6839 Y-5.202 E7.0
G1 X-5.9875 Y-3.6262 E7.0
G1 X1.5985 Y6.8151 E7.0
G1 X-0.7317 Y-6.9617 E7.0
G1 X4.6839 Y5.202 E7.0
G1 X-5.6631 Y4.1145 E7.0
G1 X-6.9448 Y-0.8773 E7.0
G1 X-6.9448 Y0.8773 E7.0
G1 X-0.7317 Y6.9617 E7.0
G1 X4.6839 Y-5.202 E7.0
G1 X-0.7317 Y6.9617 E7.0
G1 X-6.7012 Y2.0232 E7.0
G1 X-5.9875 Y3.6262 E7.0
G1 X4.6839 Y5.202 E7.0
G1 X-5.6631 Y-4.1145 E7.0
G1 X2.1631 Y-6.6574 E7.0
G1 X-1.3117 Y-6.876 E7.0
G1 X-3.995 Y5.748 E7.0
G1 Z0.1
G1 X-3.5 Y-6.0622 E7.0
G1 X-3.5 Y-6.0622 E7.0
G1 X-3.5 Y-6.0622 E7.0
G1 X-3.995 Y-5.748 E7.0
G1 X-5.299 Y-4.5739 E7.0
G1 X-6.847 Y-1.4554 E7.0
G1 X-5.6631 Y4.1145 E7.0
G1 X2.1631 Y6.6574 E7.0
G1 X6.1341 Y-3.3723 E7.0
G1 X-6.7012 Y-2.0232 E7.0
G1 X6.3948 Y2.8472 E7.0
G1 X-6.847 Y1.4554 E7.0
G1 X-0.7317 Y-6.9617 E7.0
G1 X4.2322 Y-5.5757 E7.0
G1 X2.7126 Y-6.453 E7.0
G1 X-5.6631 Y-4.1145 E7.0
G1 X2.1631 Y6.6574 E7.0
G1 X-5.6631 Y-4.1145 E7.0
G1 X1.5985 Y-6.8151 E7.0
G1 X-0.1466 Y-6.9985 E7.0
G1 X-6.847 Y1.4554 E7.0
G1 X6.3948 Y-2.8472 E7.0
G1 X4.6839 Y5.202 E7.0
G1 X6.6106 Y2.3021 E7.0
G1 X-2.9805 Y-6.3338 E7.0
G1 Z0.1
G1 X7.0 Y0.0 E7.0
G1 X7.0 Y0.0 E7.0
G1 X7.0 Y0.0 E7.0
G1 X6.9755 Y-0.5857 E7.0
G1 X6.6106 Y-2.3021 E7.0
G1 X4.6839 Y-5.202 E7.0
G1 X-0.7317 Y-6.9617 E7.0
G1 X-6.847 Y-1.4554 E7.0
G1 X-0.1466 Y6.9985 E7.0
G1 X5.1028 Y-4.7918 E7.0
G1 X-5.6631 Y4.1145 E7.0
G1 X2.1631 Y-6.6574 E7.0
G1 X6.3948 Y2.8472 E7.0
G1 X2.7126 Y6.453 E7.0
G1 X4.2322 Y5.5757 E7.0
G1 X6.3948 Y-2.8472 E7.0
G1 X-6.847 Y-1.4554 E7.0
G1 X6.3948 Y-2.8472 E7.0
G1 X5.1028 Y4.7918 E7.0
G1 X6.1341 Y3.3723 E7.0
G1 X2.1631 Y-6.6574 E7.0
G1 X-0.7317 Y6.9617 E7.0
G1 X-6.847 Y1.4554 E7.0
G1 X-5.299 Y4.5739 E7.0
G1 X6.9755 Y0.5857 E7.0
G1 Z0.1
G1 X-3.5 Y6.0622 E7.0
G1 X-3.5 Y6.0622 E7.0
G1 X-3.5 Y6.0622 E7.0
G1 X-2.9805 Y6.3338 E7.0
G1 X-1.3117 Y6.876 E7.0
G1 X2.1631 Y6.6574 E7.0
G1 X6.3948 Y2.8472 E7.0
G1 X4.6839 Y-5.202 E7.0
G1 X-5.9875 Y-3.6262 E7.0
G1 X1.5985 Y6.8151 E7.0
G1 X-0.7317 Y-6.9617 E7.0
G1 X4.6839 Y5.202 E7.0
G1 X-5.6631 Y4.1145 E7.0
G1 X-6.9448 Y-0.8773 E7.0
G1 X-6.9448 Y0.8773 E7.0
G1 X-0.7317 Y6.9617 E7.0
G1 X4.6839 Y-5.202 E7.0
G1 X-0.7317 Y6.9617 E7.0
G1 X-6.7012 Y2.0232 E7.0
G1 X-5.9875 Y3.6262 E7.0
G1 X4.6839 Y5.202 E7.0
G1 X-5.6631 Y-4.1145 E7.0
G1 X2.1631 Y-6.6574 E7.0
G1 X-1.3117 Y-6.876 E7.0
G1 X-3.995 Y5.748 E7.0
G1 Z0.1
G1 X-3.5 Y-6.0622 E7.0
G1 X-3.5 Y-6.0622 E7.0
G1 X-3.5 Y-6.0622 E7.0
G1 X-3.995 Y-5.748 E7.0
G1 X-5.299 Y-4.5739 E7.0
G1 X-6.847 Y-1.4554 E7.0
G1 X-5.6631 Y4.1145 E7.0
G1 X2.1631 Y6.6574 E7.0
G1 X6.1341 Y-3.3723 E7.0
G1 X-6.7012 Y-2.0232 E7.0
G1 X6.3948 Y2.8472 E7.0
G1 X-6.847 Y1.4554 E7.0
G1 X-0.7317 Y-6.9617 E7.0
G1 X4.2322 Y-5.5757 E7.0
G1 X2.7126 Y-6.453 E7.0
G1 X-5.6631 Y-4.1145 E7.0
G1 X2.1631 Y6.6574 E7.0
G1 X-5.6631 Y-4.1145 E7.0
G1 X1.5985 Y-6.8151 E7.0
G1 X-0.1466 Y-6.9985 E7.0
G1 X-6.847 Y1.4554 E7.0
G1 X6.3948 Y-2.8472 E7.0
G1 X4.6839 Y5.202 E7.0
G1 X6.6106 Y2.3021 E7.0
G1 X-2.9805 Y-6.3338 E7.0
G1 Z0.1
G1 X7.0 Y0.0 E7.0
G1 X7.0 Y0.0 E7.0
G1 X7.0 Y0.0 E7.0
G1 X6.9755 Y-0.5857 E7.0
G1 X6.6106 Y-2.3021 E7.0
G1 X4.6839 Y-5.202 E7.0
G1 X-0.7317 Y-6.9617 E7.0
G1 X-6.847 Y-1.4554 E7.0
G1 X-0.1466 Y6.9985 E7.0
G1 X5.1028 Y-4.7918 E7.0
G1 X-5.6631 Y4.1145 E7.0
G1 X2.1631 Y-6.6574 E7.0
G1 X6.3948 Y2.8472 E7.0
G1 X2.7126 Y6.453 E7.0
G1 X4.2322 Y5.5757 E7.0
G1 X6.3948 Y-2.8472 E7.0
G1 X-6.847 Y-1.4554 E7.0
G1 X6.3948 Y-2.8472 E7.0
G1 X5.1028 Y4.7918 E7.0
G1 X6.1341 Y3.3723 E7.0
G1 X2.1631 Y-6.6574 E7.0
G1 X-0.7317 Y6.9617 E7.0
G1 X-6.847 Y1.4554 E7.0
G1 X-5.299 Y4.5739 E7.0
G1 X6.9755 Y0.5857 E7.0
G1 Z0.1
G1 X-3.5 Y6.0622 E7.0
G1 X-3.5 Y6.0622 E7.0
G1 X-3.5 Y6.0622 E7.0
G1 X-2.9805 Y6.3338 E7.0
G1 X-1.3117 Y6.876 E7.0
G1 X2.1631 Y6.6574 E7.0
G1 X6.3948 Y2.8472 E7.0
G1 X4.6839 Y-5.202 E7.0
G1 X-5.9875 Y-3.6262 E7.0
G1 X1.5985 Y6.8151 E7.0
G1 X-0.7317 Y-6.9617 E7.0
G1 X4.6839 Y5.202 E7.0
G1 X-5.6631 Y4.1145 E7.0
G1 X-6.9448 Y-0.8773 E7.0
G1 X-6.9448 Y0.8773 E7.0
G1 X-0.7317 Y6.9617 E7.0
G1 X4.6839 Y-5.202 E7.0
G1 X-0.7317 Y6.9617 E7.0
G1 X-6.7012 Y2.0232 E7.0
G1 X-5.9875 Y3.6262 E7.0
G1 X4.6839 Y5.202 E7.0
G1 X-5.6631 Y-4.1145 E7.0
G1 X2.1631 Y-6.6574 E7.0
G1 X-1.3117 Y-6.876 E7.0
G1 X-3.995 Y5.748 E7.0
G1 Z0.1
G1 X-3.5 Y-6.0622 E7.0
G1 X-3.5 Y-6.0622 E7.0
G1 X-3.5 Y-6.0622 E7.0
G1 X-3.995 Y-5.748 E7.0
G1 X-5.299 Y-4.5739 E7.0
G1 X-6.847 Y-1.4554 E7.0
G1 X-5.6631 Y4.1145 E7.0
G1 X2.1631 Y6.6574 E7.0
G1 X6.1341 Y-3.3723 E7.0
G1 X-6.7012 Y-2.0232 E7.0
G1 X6.3948 Y2.8472 E7.0
G1 X-6.847 Y1.4554 E7.0
G1 X-0.7317 Y-6.9617 E7.0
G1 X4.2322 Y-5.5757 E7.0
G1 X2.7126 Y-6.453 E7.0
G1 X-5.6631 Y-4.1145 E7.0
G1 X2.1631 Y6.6574 E7.0
G1 X-5.6631 Y-4.1145 E7.0
G1 X1.5985 Y-6.8151 E7.0
G1 X-0.1466 Y-6.9985 E7.0
G1 X-6.847 Y1.4554 E7.0
G1 X6.3948 Y-2.8472 E7.0
G1 X4.6839 Y5.202 E7.0
G1 X6.6106 Y2.3021 E7.0
G1 X-2.9805 Y-6.3338 E7.0
G1 Z0.1
G1 X7.0 Y0.0 E7.0
G1 X7.0 Y0.0 E7.0
G1 X7.0 Y0.0 E7.0
G1 X6.9755 Y-0.5857 E7.0
G1 X6.6106 Y-2.3021 E7.0
G1 X4.6839 Y-5.202 E7.0
G1 X-0.7317 Y-6.9617 E7.0
G1 X-6.847 Y-1.4554 E7.0
G1 X-0.1466 Y6.9985 E7.0
G1 X5.1028 Y-4.7918 E7.0
G1 X-5.6631 Y4.1145 E7.0
G1 X2.1631 Y-6.6574 E7.0
G1 X6.3948 Y2.8472 E7.0
G1 X2.7126 Y6.453 E7.0
G1 X4.2322 Y5.5757 E7.0
G1 X6.3948 Y-2.8472 E7.0
G1 X-6.847 Y-1.4554 E7.0
G1 X6.3948 Y-2.8472 E7.0
G1 X5.1028 Y4.7918 E7.0
G1 X6.1341 Y3.3723 E7.0
G1 X2.1631 Y-6.6574 E7.0
G1 X-0.7317 Y6.9617 E7.0
G1 X-6.847 Y1.4554 E7.0
G1 X-5.299 Y4.5739 E7.0
G1 X6.9755 Y0.5857 E7.0
G1 Z0.1
G1 X-3.5 Y6.0622 E7.0
G1 X-3.5 Y6.0622 E7.0
G1 X-3.5 Y6.0622 E7.0
G1 X-2.9805 Y6.3338 E7.0
G1 X-1.3117 Y6.876 E7.0
G1 X2.1631 Y6.6574 E7.0
G1 X6.3948 Y2.8472 E7.0
G1 X4.6839 Y-5.202 E7.0
G1 X-5.9875 Y-3.6262 E7.0
G1 X1.5985 Y6.8151 E7.0
G1 X-0.7317 Y-6.9617 E7.0
G1 X4.6839 Y5.202 E7.0
G1 X-5.6631 Y4.1145 E7.0
G1 X-6.9448 Y-0.8773 E7.0
G1 X-6.9448 Y0.8773 E7.0
G1 X-0.7317 Y6.9617 E7.0
G1 X4.6839 Y-5.202 E7.0
G1 X-0.7317 Y6.9617 E7.0
G1 X-6.7012 Y2.0232 E7.0
G1 X-5.9875 Y3.6262 E7.0
G1 X4.6839 Y5.202 E7.0
G1 X-5.6631 Y-4.1145 E7.0
G1 X2.1631 Y-6.6574 E7.0
G1 X-1.3117 Y-6.876 E7.0
G1 X-3.995 Y5.748 E7.0
G1 Z0.1
G1 X-3.5 Y-6.0622 E7.0
G1 X-3.5 Y-6.0622 E7.0
G1 X-3.5 Y-6.0622 E7.0
G1 X-3.995 Y-5.748 E7.0
G1 X-5.299 Y-4.5739 E7.0
G1 X-6.847 Y-1.4554 E7.0
G1 X-5.6631 Y4.1145 E7.0
G1 X2.1631 Y6.6574 E7.0
G1 X6.1341 Y-3.3723 E7.0
G1 X-6.7012 Y-2.0232 E7.0
G1 X6.3948 Y2.8472 E7.0
G1 X-6.847 Y1.4554 E7.0
G1 X-0.7317 Y-6.9617 E7.0
G1 X4.2322 Y-5.5757 E7.0
G1 X2.7126 Y-6.453 E7.0
G1 X-5.6631 Y-4.1145 E7.0
G1 X2.1631 Y6.6574 E7.0
G1 X-5.6631 Y-4.1145 E7.0
G1 X1.5985 Y-6.8151 E7.0
G1 X-0.1466 Y-6.9985 E7.0
G1 X-6.847 Y1.4554 E7.0
G1 X6.3948 Y-2.8472 E7.0
G1 X4.6839 Y5.202 E7.0
G1 X6.6106 Y2.3021 E7.0
G1 X-2.9805 Y-6.3338 E7.0
G1 Z0.1
G1 X7.0 Y0.0 E7.0
G1 X7.0 Y0.0 E7.0
G1 X7.0 Y0.0 E7.0
G1 X6.9755 Y-0.5857 E7.0
G1 X6.6106 Y-2.3021 E7.0
G1 X4.6839 Y-5.202 E7.0
G1 X-0.7317 Y-6.9617 E7.0
G1 X-6.847 Y-1.4554 E7.0
G1 X-0.1466 Y6.9985 E7.0
G1 X5.1028 Y-4.7918 E7.0
G1 X-5.6631 Y4.1145 E7.0
G1 X2.1631 Y-6.6574 E7.0
G1 X6.3948 Y2.8472 E7.0
G1 X2.7126 Y6.453 E7.0
G1 X4.2322 Y5.5757 E7.0
G1 X6.3948 Y-2.8472 E7.0
G1 X-6.847 Y-1.4554 E7.0
G1 X6.3948 Y-2.8472 E7.0
G1 X5.1028 Y4.7918 E7.0
G1 X6.1341 Y3.3723 E7.0
G1 X2.1631 Y-6.6574 E7.0
G1 X-0.7317 Y6.9617 E7.0
G1 X-6.847 Y1.4554 E7.0
G1 X-5.299 Y4.5739 E7.0
G1 X6.9755 Y0.5857 E7.0
G1 Z0.1
G1 X-3.5 Y6.0622 E7.0
G1 X-3.5 Y6.0622 E7.0
G1 X-3.5 Y6.0622 E7.0
G1 X-2.9805 Y6.3338 E7.0
G1 X-1.3117 Y6.876 E7.0
G1 X2.1631 Y6.6574 E7.0
G1 X6.3948 Y2.8472 E7.0
G1 X4.6839 Y-5.202 E7.0
G1 X-5.9875 Y-3.6262 E7.0
G1 X1.5985 Y6.8151 E7.0
G1 X-0.7317 Y-6.9617 E7.0
G1 X4.6839 Y5.202 E7.0
G1 X-5.6631 Y4.1145 E7.0
G1 X-6.9448 Y-0.8773 E7.0
G1 X-6.9448 Y0.8773 E7.0
G1 X-0.7317 Y6.9617 E7.0
G1 X4.6839 Y-5.202 E7.0
G1 X-0.7317 Y6.9617 E7.0
G1 X-6.7012 Y2.0232 E7.0
G1 X-5.9875 Y3.6262 E7.0
G1 X4.6839 Y5.202 E7.0
G1 X-5.6631 Y-4.1145 E7.0
G1 X2.1631 Y-6.6574 E7.0
G1 X-1.3117 Y-6.876 E7.0
G1 X-3.995 Y5.748 E7.0
G1 Z0.1
G1 X-3.5 Y-6.0622 E7.0
G1 X-3.5 Y-6.0622 E7.0
G1 X-3.5 Y-6.0622 E7.0
G1 X-3.995 Y-5.748 E7.0
G1 X-5.299 Y-4.5739 E7.0
G1 X-6.847 Y-1.4554 E7.0
G1 X-5.6631 Y4.1145 E7.0
G1 X2.1631 Y6.6574 E7.0
G1 X6.1341 Y-3.3723 E7.0
G1 X-6.7012 Y-2.0232 E7.0
G1 X6.3948 Y2.8472 E7.0
G1 X-6.847 Y1.4554 E7.0
G1 X-0.7317 Y-6.9617 E7.0
G1 X4.2322 Y-5.5757 E7.0
G1 X2.7126 Y-6.453 E7.0
G1 X-5.6631 Y-4.1145 E7.0
G1 X2.1631 Y6.6574 E7.0
G1 X-5.6631 Y-4.1145 E7.0
G1 X1.5985 Y-6.8151 E7.0
G1 X-0.1466 Y-6.9985 E7.0
G1 X-6.847 Y1.4554 E7.0
G1 X6.3948 Y-2.8472 E7.0
G1 X4.6839 Y5.202 E7.0
G1 X6.6106 Y2.3021 E7.0
G1 X-2.9805 Y-6.3338 E7.0
G1 Z0.1
G1 X7.0 Y0.0 E7.0
G1 X7.0 Y0.0 E7.0
G1 X7.0 Y0.0 E7.0
G1 X6.9755 Y-0.5857 E7.0
G1 X6.6106 Y-2.3021 E7.0
G1 X4.6839 Y-5.202 E7.0
G1 X-0.7317 Y-6.9617 E7.0
G1 X-6.847 Y-1.4554 E7.0
G1 X-0.1466 Y6.9985 E7.0
G1 X5.1028 Y-4.7918 E7.0
G1 X-5.6631 Y4.1145 E7.0
G1 X2.1631 Y-6.6574 E7.0
G1 X6.3948 Y2.8472 E7.0
G1 X2.7126 Y6.453 E7.0
G1 X4.2322 Y5.5757 E7.0
G1 X6.3948 Y-2.8472 E7.0
G1 X-6.847 Y-1.4554 E7.0
G1 X6.3948 Y-2.8472 E7.0
G1 X5.1028 Y4.7918 E7.0
G1 X6.1341 Y3.3723 E7.0
G1 X2.1631 Y-6.6574 E7.0
G1 X-0.7317 Y6.9617 E7.0
G1 X-6.847 Y1.4554 E7.0
G1 X-5.299 Y4.5739 E7.0
G1 X6.9755 Y0.5857 E7.0
G1 Z0.1
G1 X-3.5 Y6.0622 E7.0
G1 X-3.5 Y6.0622 E7.0
G1 X-3.5 Y6.0622 E7.0
G1 X-2.9805 Y6.3338 E7.0
G1 X-1.3117 Y6.876 E7.0
G1 X2.1631 Y6.6574 E7.0
G1 X6.3948 Y2.8472 E7.0
G1 X4.6839 Y-5.202 E7.0
G1 X-5.9875 Y-3.6262 E7.0
G1 X1.5985 Y6.8151 E7.0
G1 X-0.7317 Y-6.9617 E7.0
G1 X4.6839 Y5.202 E7.0
G1 X-5.6631 Y4.1145 E7.0
G1 X-6.9448 Y-0.8773 E7.0
G1 X-6.9448 Y0.8773 E7.0
G1 X-0.7317 Y6.9617 E7.0
G1 X4.6839 Y-5.202 E7.0
G1 X-0.7317 Y6.9617 E7.0
G1 X-6.7012 Y2.0232 E7.0
G1 X-5.9875 Y3.6262 E7.0
G1 X4.6839 Y5.202 E7.0
G1 X-5.6631 Y-4.1145 E7.0
G1 X2.1631 Y-6.6574 E7.0
G1 X-1.3117 Y-6.876 E7.0
G1 X-3.995 Y5.748 E7.0
G1 Z0.1
G1 X-3.5 Y-6.0622 E7.0
G1 X-3.5 Y-6.0622 E7.0
G1 X-3.5 Y-6.0622 E7.0
G1 X-3.995 Y-5.748 E7.0
G1 X-5.299 Y-4.5739 E7.0
G1 X-6.847 Y-1.4554 E7.0
G1 X-5.6631 Y4.1145 E7.0
G1 X2.1631 Y6.6574 E7.0
G1 X6.1341 Y-3.3723 E7.0
G1 X-6.7012 Y-2.0232 E7.0
G1 X6.3948 Y2.8472 E7.0
G1 X-6.847 Y1.4554 E7.0
G1 X-0.7317 Y-6.9617 E7.0
G1 X4.2322 Y-5.5757 E7.0
G1 X2.7126 Y-6.453 E7.0
G1 X-5.6631 Y-4.1145 E7.0
G1 X2.1631 Y6.6574 E7.0
G1 X-5.6631 Y-4.1145 E7.0
G1 X1.5985 Y-6.8151 E7.0
G1 X-0.1466 Y-6.9985 E7.0
G1 X-6.847 Y1.4554 E7.0
G1 X6.3948 Y-2.8472 E7.0
G1 X4.6839 Y5.202 E7.0
G1 X6.6106 Y2.3021 E7.0
G1 X-2.9805 Y-6.3338 E7.0
G1 Z0.1
G1 X7.0 Y0.0 E7.0
G1 X7.0 Y0.0 E7.0
G1 X7.0 Y0.0 E7.0
G1 X6.9755 Y-0.5857 E7.0
G1 X6.6106 Y-2.3021 E7.0
G1 X4.6839 Y-5.202 E7.0
G1 X-0.7317 Y-6.9617 E7.0
G1 X-6.847 Y-1.4554 E7.0
G1 X-0.1466 Y6.9985 E7.0
G1 X5.1028 Y-4.7918 E7.0
G1 X-5.6631 Y4.1145 E7.0
G1 X2.1631 Y-6.6574 E7.0
G1 X6.3948 Y2.8472 E7.0
G1 X2.7126 Y6.453 E7.0
G1 X4.2322 Y5.5757 E7.0
G1 X6.3948 Y-2.8472 E7.0
G1 X-6.847 Y-1.4554 E7.0
G1 X6.3948 Y-2.8472 E7.0
G1 X5.1028 Y4.7918 E7.0
G1 X6.1341 Y3.3723 E7.0
G1 X2.1631 Y-6.6574 E7.0
G1 X-0.7317 Y6.9617 E7.0
G1 X-6.847 Y1.4554 E7.0
G1 X-5.299 Y4.5739 E7.0
G1 X6.9755 Y0.5857 E7.0
G1 Z0.1
; *************** End of print ***************
G91                     ; Relative coordinates for X,Y,Z axes
G1 Z25 F2000            ; move up 25 in the z direction
G90                     ; Absolute coordinates 
G1 F5000 X0 Y0          ; Move extruder to 0,0 in XY
M84 X Y                 ; X Y steppers off
M104 S0					; Set Hot-end to 0C (off)
M140 S0					; Set bed to 0C (off)
